!!!!SEGMENT: pl-wn--mus-iii-108-035--001-001_wieniawski-henryk--concerto-no-2-allegro-moderato.krn
!!!cenid: 18xx:3801
!!!COM: Wieniawski, Henryk
!!!COM-rismID: pe137176
!!!CDT: 1835/07/10-1880/03/31
!!!CNT:
!!!OPR: Concerto No. 2
!!!OTL: Allegro moderato
!!!OMV: 001
!!!PDT:
!!!AGN:
!!!SMS-siglum: PL-Wn
!!!SMS-shelfmark: Mus.III.108.035
!!!SMS-shelfwork: 001-001 M
!!!SMS-variant:
!!!SMS-altvar:
!!!NIFC-rismSourceID:
!!!NIFC-rismChildID:
!!!NIFC-islandoraID:
!!!URL-pdf-islandora:
!!!URL-scan: https://polona.pl/item/concerto-no-2-op-22,ODQxMDEyMDI/4 @EN{Scan on Polona} @PL{Skany w portalu Polona}
!!!ONB-nifc: UWAGA: części Koncertu: 1. Allegro moderato, 2. Romance (od skanu 20), 3. Allegro moderato a la Zingara (od skanu 26)
!!!AIN: 1 piano 1 violn
!!!key: d
**kern	**kern	**dynam	**kern	**fing	**dynam
!	!	!	!LO:MO:mod=*	!	!
*	*	*	*scale:75%	*	*
*part2	*part2	*part2	*part1	*	*part1
*staff3	*staff2	*	*staff1	*	*
*I"PIANO.	*I"PIANO.	*	*I"VIOLON.	*	*
*mI"Pianoforte	*mI"Pianoforte	*	*mI"Violino	*	*
*I'	*I'	*	*I'	*	*
*mI'pf	*mI'pf	*	*mI'vn	*	*
*Ipiano	*Ipiano	*	*Ivioln	*	*
*ICklav	*ICklav	*	*ICstr	*	*
*IGacmp	*IGacmp	*	*IGsolo	*	*
*clefF4	*clefG2	*	*clefG2	*	*
*k[b-]	*k[b-]	*	*k[b-]	*	*
*d:	*d:	*	*d:	*	*
*M4/4	*M4/4	*	*M4/4	*	*
*met(c)	*met(c)	*	*met(c)	*	*
=1	=1	=1	=1	=1	=1
*^	*	*	*	*	*
*xywh-2:410,1166,3615,827	*xywh-2:410,1166,3615,827	*xywh-2:410,1166,3615,827	*	*xywh-2:258,228,3789,967	*	*
*tremolo	*	*	*	*	*	*
!!!OMD:
!!!OMD-mod: Allegro moderato
!	!	!LO:TX:a:B:t=Allegro moderato.:mod=	!	!LO:TX:a:B:t=Allegro moderato.:mod=	!	!
(16F/LL	[1D	(>[2f/	p	1r	.	.
16A/	.	.	.	.	.	.
16F/	.	.	.	.	.	.
16A/	.	.	.	.	.	.
16F/	.	.	.	.	.	.
16A/	.	.	.	.	.	.
16F/	.	.	.	.	.	.
16A/JJ)	.	.	.	.	.	.
(16F/LL	.	8f/L]	.	.	.	.
16A/	.	.	.	.	.	.
16F/	.	8e/	.	.	.	.
16A/	.	.	.	.	.	.
16F/	.	8c#X/	.	.	.	.
16A/	.	.	.	.	.	.
16F/	.	8d/J)	.	.	.	.
16A/JJ)	.	.	.	.	.	.
=2	=2	=2	=2	=2	=2	=2
(16F/LL	8D\]	4a 4f/	.	1r	.	.
16A/	.	.	.	.	.	.
16F/	8rEE	.	.	.	.	.
16A/	.	.	.	.	.	.
!	!LO:TX:b:B:t=M.D.	!	!	!	!	!
16F/	8AAA\	4r	.	.	.	.
16A/	.	.	.	.	.	.
16F/	8rEE	.	.	.	.	.
16A/JJ)	.	.	.	.	.	.
(16F/LL	8DD\	2r	.	.	.	.
16A/	.	.	.	.	.	.
16F/	8rEE	.	.	.	.	.
16A/	.	.	.	.	.	.
16F/	8AAA\	.	.	.	.	.
16A/	.	.	.	.	.	.
16F/	8rEE	.	.	.	.	.
16A/JJ)	.	.	.	.	.	.
=3	=3	=3	=3	=3	=3	=3
!	!	!	!LO:HP:a	!	!	!
(16F/LL	[1D	(8f/L	<	1r	.	.
16A/	.	.	.	.	.	.
16F/	.	8a/J	.	.	.	.
16A/	.	.	.	.	.	.
16F/	.	[4ff\	.	.	.	.
16A/	.	.	.	.	.	.
16F/	.	.	.	.	.	.
16A/JJ)	.	.	.	.	.	.
(16F/LL	.	8ff\L]	.	.	.	.
16A/	.	.	.	.	.	.
16F/	.	8cc#X\	.	.	.	.
16A/	.	.	.	.	.	.
16F/	.	8.ee\	.	.	.	.
16A/	.	.	.	.	.	.
16F/	.	.	.	.	.	.
16A/JJ)	.	16dd\Jk)	[	.	.	.
=4	=4	=4	=4	=4	=4	=4
(16F/LL	8D\]	4a 4f/	.	1r	.	.
16A/	.	.	.	.	.	.
16F/	8rEE	.	.	.	.	.
16A/	.	.	.	.	.	.
!	!LO:TX:b:B:t=M.D.	!	!	!	!	!
16F/	8AAA\	4r	.	.	.	.
16A/	.	.	.	.	.	.
16F/	8rEE	.	.	.	.	.
16A/JJ)	.	.	.	.	.	.
(16F/LL	8DD\	2r	.	.	.	.
16A/	.	.	.	.	.	.
16F/	8rEE	.	.	.	.	.
16A/	.	.	.	.	.	.
16F/	8AAA\	.	.	.	.	.
16A/	.	.	.	.	.	.
16F/	8rEE	.	.	.	.	.
16A/JJ)	.	.	.	.	.	.
*v	*v	*	*	*	*	*
!!LO:LB:g=original
=5	=5	=5	=5	=5	=5
*xywh-2:402,2116,3551,789	*xywh-2:402,2116,3551,789	*	*xywh-2:410,1947,3594,216	*	*
8DD 8DDD\	(8d<L 8A< 8F</	p	1r	.	.
8r	8c#X</	.	.	.	.
(<16ALL 16F\	8e</	.	.	.	.
16D\	.	.	.	.	.
16A 16F\	8d</J)	.	.	.	.
16D\	.	.	.	.	.
16A 16F\	(8f/L	.	.	.	.
16D\	.	.	.	.	.
16A 16F\	8g/	.	.	.	.
16D\JJ)	.	.	.	.	.
*Xtremolo	*	*	*	*	*
(16ALL 16F\	8b-/	.	.	.	.
16D\	.	.	.	.	.
16A 16F\	8a/J)	.	.	.	.
16D\JJ)	.	.	.	.	.
=6	=6	=6	=6	=6	=6
8FF 8FFF/	(>8aL 8d 8A/	<	1r	.	.
8r	8g#X/	.	.	.	.
*tremolo	*	*	*	*	*
(16dLL 16A\	8b-/	.	.	.	.
16F\	.	.	.	.	.
16d 16A\	8a/J)	.	.	.	.
16F\	.	.	.	.	.
16d 16A\	(>8dd/L	.	.	.	.
16F\	.	.	.	.	.
16d 16A\	8ee 8e/	.	.	.	.
16F\JJ)	.	.	.	.	.
*Xtremolo	*	*	*	*	*
(16dLL 16A\	8.ggn 8.gn/	.	.	.	.
16F\	.	.	.	.	.
16d 16A\	.	.	.	.	.
16F\JJ)	16ffJk 16f/)	[[	.	.	.
=7	=7	=7	=7	=7	=7
4c#X 4A\	4ee 4cc#X 4a 4e/	.	1r	.	.
4r	4r	.	.	.	.
2BB- [2EE 2BBB-/	[2eee 2gg#X 2ee 2dd\	ff	.	.	.
=8	=8	=8	=8	=8	=8
4AA 4EE] 4AAA/	4eee] 4aa 4cc#X\	.	1r	.	.
4r	4r	.	.	.	.
2r	4r	.	.	.	.
!	!LO:TX:a:B:t=Corno I.°	!	!	!	!
.	4a/	p	.	.	.
=9	=9	=9	=9	=9	=9
*^	*	*	*	*	*
*	*	*Xtuplet	*	*	*	*
2r	2rEEyy	(12g/L	.	1r	.	.
.	.	12f/	.	.	.	.
.	.	12e/J)	.	.	.	.
.	.	(2g^>/	.	.	.	.
!	!	!	!LO:DY:rj:a=2	!	!	!
4c#X 4A/	4G 4AA\	.	p	.	.	.
4r	4rEEyy	8f/L	.	.	.	.
.	.	8e/J)	.	.	.	.
!!LO:PB:g=original
=10	=10	=10	=10	=10	=10	=10
*xywh-2:419,3160,3538,729	*xywh-2:419,3160,3538,729	*xywh-2:419,3160,3538,729	*	*xywh-2:398,2918,3615,250	*	*
2r	2rEEyy	(12f/L	.	1r	.	.
.	.	12e/	.	.	.	.
.	.	12d/J)	.	.	.	.
.	.	2A/	.	.	.	.
4d/	4F 4D\	.	.	.	.	.
4r	[4rEEyy	4A/	.	.	.	.
=11	=11	=11	=11	=11	=11	=11
2r	2rEE]	(12B-/L	.	1r	.	.
.	.	12A/	.	.	.	.
.	.	12G/J)	.	.	.	.
.	.	(2d/	.	.	.	.
2B- 2G/	[2C\	.	.	.	.	.
.	.	4e/)	.	.	.	.
=12	=12	=12	=12	=12	=12	=12
*	*	*^	*	*	*	*
1ryy	4C] 4FF\	4f 4A< 4F</	2.ryy	.	1r	.	.
.	4c 4C'>\	4raayy	.	.	.	.	.
.	4c 4C'>\	4raayy	.	.	.	.	.
.	4A [4C\	4cc/	[4c\	.	.	.	.
=13	=13	=13	=13	=13	=13	=13	=13
*	*	*	*^	*	*	*	*
4B-/	4C\]	(12b-/L	4d-X/	4c\]	.	1r	.	.
.	.	12a/	.	.	.	.	.	.
.	.	12g/J)	.	.	.	.	.	.
(2G/	4C\	2b-/	4dn/	(4c'<\	.	.	.	.
.	4C\	.	4e-X/	4c'<\	.	.	.	.
4B-/)	4C\	8a/L	4en/	4c'<\)	.	.	.	.
.	.	8g/J	.	.	.	.	.	.
*	*	*v	*v	*v	*	*	*	*
=14	=14	=14	=14	=14	=14	=14
4C/	1FF	(12aL 12f 12A/	.	1r	.	.
.	.	12g/	.	.	.	.
.	.	12f/J)	.	.	.	.
(4C'/	.	2c 2A/	.	.	.	.
4C'/	.	.	.	.	.	.
4BBn'/)	.	4d'/	.	.	.	.
*v	*v	*	*	*	*	*
=15	=15	=15	=15	=15	=15
2E 2BBn 2EE/	2e 2Bn 2A/	.	1r	.	.
2E 2BB 2EE/	2e 2B 2G#X/	.	.	.	.
!!LO:LB:g=original
=16	=16	=16	=16	=16	=16
*xywh-2:476,4057,3550,1148	*xywh-2:476,4057,3550,1148	*	*xywh-2:421,3812,3550,299	*	*
*tremolo	*	*	*	*	*
!	!	!LO:DY:b=2:rj	!	!	!
(32EELLL 32AAA/	2.e 2.c#X 2.A/	pp	1r	.	.
32AA/	.	.	.	.	.
32EE 32AAA/	.	.	.	.	.
32AA/	.	.	.	.	.
32EE 32AAA/	.	.	.	.	.
32AA/	.	.	.	.	.
32EE 32AAA/	.	.	.	.	.
32AA/	.	.	.	.	.
32EE 32AAA/	.	.	.	.	.
32AA/	.	.	.	.	.
32EE 32AAA/	.	.	.	.	.
32AA/	.	.	.	.	.
32EE 32AAA/	.	.	.	.	.
32AA/	.	.	.	.	.
32EE 32AAA/	.	.	.	.	.
32AA/JJJ)	.	.	.	.	.
*Xtremolo	*	*	*	*	*
8AAA/	.	.	.	.	.
8r	.	.	.	.	.
4r	4r	.	.	.	.
=17	=17	=17	=17	=17	=17
*^	*	*	*	*	*
*tremolo	*	*	*	*	*	*
(16F/LL	[1D	(>[2f/	.	1r	.	.
16A/	.	.	.	.	.	.
16F/	.	.	.	.	.	.
16A/	.	.	.	.	.	.
16F/	.	.	.	.	.	.
16A/	.	.	.	.	.	.
16F/	.	.	.	.	.	.
16A/JJ)	.	.	.	.	.	.
(16F/LL	.	8f/L]	.	.	.	.
16A/	.	.	.	.	.	.
16F/	.	8e/	.	.	.	.
16A/	.	.	.	.	.	.
16F/	.	8c#X/	.	.	.	.
16A/	.	.	.	.	.	.
16F/	.	8d/J)	.	.	.	.
16A/JJ)	.	.	.	.	.	.
=18	=18	=18	=18	=18	=18	=18
(16F/LL	8D\]	4a 4f/	.	1r	.	.
16A/	.	.	.	.	.	.
16F/	8rEE	.	.	.	.	.
16A/	.	.	.	.	.	.
!	!LO:TX:b:B:t=M.D.	!	!	!	!	!
16F/	8AAA\	4r	.	.	.	.
16A/	.	.	.	.	.	.
16F/	8rEE	.	.	.	.	.
16A/JJ)	.	.	.	.	.	.
(16F/LL	8DD\	2r	.	.	.	.
16A/	.	.	.	.	.	.
16F/	8rEE	.	.	.	.	.
16A/	.	.	.	.	.	.
16F/	8AAA\	.	.	.	.	.
16A/	.	.	.	.	.	.
16F/	8rEE	.	.	.	.	.
16A/JJ)	.	.	.	.	.	.
=19	=19	=19	=19	=19	=19	=19
(16F/LL	[1D	(8f/L	<	1r	.	.
16A/	.	.	.	.	.	.
16F/	.	8a/J	.	.	.	.
16A/	.	.	.	.	.	.
16F/	.	[4ff\	.	.	.	.
16A/	.	.	.	.	.	.
16F/	.	.	.	.	.	.
16A/JJ)	.	.	.	.	.	.
(16F/LL	.	8ff\L]	.	.	.	.
16A/	.	.	.	.	.	.
16F/	.	8cc#X\	.	.	.	.
16A/	.	.	.	.	.	.
16F/	.	8.ee\	.	.	.	.
16A/	.	.	.	.	.	.
16F/	.	.	.	.	.	.
16A/JJ)	.	16dd\Jk)	[	.	.	.
=20	=20	=20	=20	=20	=20	=20
(16F/LL	8D\]	4a 4f/	.	1r	.	.
16A/	.	.	.	.	.	.
16F/	8rEE	.	.	.	.	.
16A/	.	.	.	.	.	.
!	!LO:TX:b:B:t=M.D.	!	!	!	!	!
16F/	8AAA\	4r	.	.	.	.
16A/	.	.	.	.	.	.
16F/	8rEE	.	.	.	.	.
16A/JJ)	.	.	.	.	.	.
(16F/LL	8DD\	2r	.	.	.	.
16A/	.	.	.	.	.	.
16F/	8rEE	.	.	.	.	.
16A/	.	.	.	.	.	.
16F/	8AAA\	.	.	.	.	.
16A/	.	.	.	.	.	.
16F/	8rEE	.	.	.	.	.
16A/JJ)	.	.	.	.	.	.
*v	*v	*	*	*	*	*
!!LO:PB:g=original
=21	=21	=21	=21	=21	=21
*xywh-3:132,713,3602,914	*xywh-3:132,713,3602,914	*	*xywh-3:156,201,3699,536	*	*
(<16DDD\LL	(8d<L 8A< 8F</	.	1r	.	.
16DD\	.	.	.	.	.
16DDD\	8c#X</	.	.	.	.
16DD\	.	.	.	.	.
16DDD\	8e</	.	.	.	.
16DD\	.	.	.	.	.
16DDD\	8d</J)	.	.	.	.
16DD\JJ)	.	.	.	.	.
(16DDD/LL	(8f/L	.	.	.	.
16DD/	.	.	.	.	.
16DDD/	8g/	.	.	.	.
16DD/	.	.	.	.	.
16DDD/	8b-/	.	.	.	.
16DD/	.	.	.	.	.
16DDD/	8a/J)	.	.	.	.
16DD/JJ)	.	.	.	.	.
=22	=22	=22	=22	=22	=22
(16FFF/LL	(>8aL 8d 8A/	<	1r	.	.
16FF/	.	.	.	.	.
16FFF/	8g#X/	.	.	.	.
16FF/	.	.	.	.	.
16FFF/	8b-/	.	.	.	.
16FF/	.	.	.	.	.
16FFF/	8a/J)	.	.	.	.
16FF/JJ)	.	.	.	.	.
(16FFF/LL	(>8dd/L	.	.	.	.
16FF/	.	.	.	.	.
16FFF/	8ee 8e/	.	.	.	.
16FF/	.	.	.	.	.
16FFF/	8.ggn 8.gn/	.	.	.	.
16FF/	.	.	.	.	.
16FFF/	.	.	.	.	.
16FF/JJ)	16ffJk 16f/)	[	.	.	.
*Xtremolo	*	*	*	*	*
=23	=23	=23	=23	=23	=23
4AA 4AAA/	4ff 4ee-X 4cc 4f/	ff	1r	.	.
4r	4r	.	.	.	.
4FF 4FFF/	4eee-X 4aa 4ee-\	.	.	.	.
4r	4r	.	.	.	.
=24	=24	=24	=24	=24	=24
4BB- 4BBB-/	4ddd 4bb- 4ff 4dd\	.	1r	.	.
4r	4r	.	.	.	.
2r	4r	.	.	.	.
!	!LO:TX:a:B:t=Ob. I.°	!	!	!	!
.	4dd\	p	.	.	.
=25	=25	=25	=25	=25	=25
*	*^	*	*	*	*
2r	(12cc/L	2r	.	1r	.	.
.	12b-/	.	.	.	.	.
.	12a/J)	.	.	.	.	.
.	(2cc^/	.	.	.	.	.
4c 4D\	.	4f#X 4d\	p	.	.	.
4r	8b-/L	4r	.	.	.	.
.	8a/J)	.	.	.	.	.
*	*v	*v	*	*	*	*
=26	=26	=26	=26	=26	=26
2r	(12b-/L	.	1r	.	.
.	12a/	.	.	.	.
.	12g/J)	.	.	.	.
.	2d/	.	.	.	.
4B- 4G\	.	.	.	.	.
4r	4d/	.	.	.	.
!!LO:LB:g=original
=27	=27	=27	=27	=27	=27
*	*^	*	*	*	*
*xywh-3:175,1816,3602,835	*xywh-3:175,1816,3602,835	*xywh-3:175,1816,3602,835	*	*xywh-3:181,1566,3663,274	*	*
2r	(12e-X/L	2rcyy	.	1r	.	.
.	12d/	.	.	.	.	.
.	12c/J)	.	.	.	.	.
.	(2g/	.	.	.	.	.
[2F\	.	2e-X 2c\	.	.	.	.
.	4a/)	.	.	.	.	.
=28	=28	=28	=28	=28	=28	=28
*^	*	*	*	*	*	*
*	*	*	*xywh-3:175,1816,3602,835	*	*	*	*
4F] 4BB-\	4rEEyy	4b- 4d/	2.ryy	.	1r	.	.
4F'/	4F\	4f'/	.	.	.	.	.
4F'/	4F\	4f'/	.	.	.	.	.
4rcyy	4d [4F\	4raayy	4ff [4f/	.	.	.	.
=29	=29	=29	=29	=29	=29	=29	=29
*	*	*	*^	*	*	*	*
*	*	*	*	*xywh-3:175,1816,3602,835	*	*	*	*
4e-X/	4F\]	12ee-XL 12g-X/	4rcyy	4f\]	.	1r	.	.
.	.	12dd/	.	.	.	.	.	.
.	.	12cc/J	.	.	.	.	.	.
(2c/	(4F\	(2ee-/	4gn/	4f'\	.	.	.	.
.	4F\	.	4a-X/	4f'\	.	.	.	.
4e-/)	[>4F\)	8dd/L	4an/	4f'\	.	.	.	.
.	.	8cc/J)	.	.	.	.	.	.
*	*	*	*v	*v	*	*	*	*
=30	=30	=30	=30	=30	=30	=30	=30
4F/]	1BB-	(>12ddL 12b- 12d/	4ryy	.	1r	.	.
.	.	12cc/	.	.	.	.	.
.	.	12b-/J)	.	.	.	.	.
(4F'/	.	(2f/	2.d\	.	.	.	.
4F'/	.	.	.	.	.	.	.
4En'/)	.	4g/)	.	.	.	.	.
*v	*v	*	*	*	*	*	*
*	*v	*v	*	*	*	*
=31	=31	=31	=31	=31	=31
2A 2En 2AA\	2a 2en 2d/	.	1r	.	.
2A 2E 2AA\	[2a 2e 2c#X/	.	.	.	.
=32	=32	=32	=32	=32	=32
(4DD/	8a/L]	.	1r	.	.
.	8fJ 8d 8A/	.	.	.	.
4FF/	8r	.	.	.	.
.	8f 8d 8A/	.	.	.	.
4GG/	8r	.	.	.	.
.	8f 8d 8B-/	.	.	.	.
4AA/)	8r	.	.	.	.
.	8f 8d 8A/	.	.	.	.
!!LO:LB:g=original
=33	=33	=33	=33	=33	=33
*^	*	*	*	*	*
*xywh-3:168,2907,3626,835	*xywh-3:168,2907,3626,835	*xywh-3:168,2907,3626,835	*	*xywh-3:175,2614,3541,310	*	*
4rF	(4BB-\	8r	.	1r	.	.
.	.	8e 8d 8G/	.	.	.	.
[4B-^/	4GG\)	8r	.	.	.	.
.	.	8e 8d/	.	.	.	.
8B-/L]	(4AA\	8r	.	.	.	.
(8A/	.	8e 8d/	.	.	.	.
8E/	4AAA\)	8r	.	.	.	.
8G/J)	.	8c#X 8A/	.	.	.	.
=34	=34	=34	=34	=34	=34	=34
8F/L	(4DD\	8r	.	1r	.	.
8A/J	.	8d/	.	.	.	.
8rBB	4FF\	[4f</	.	.	.	.
8d 8A\	.	.	.	.	.	.
8rBB	4GG\	8f</L]	.	.	.	.
8B- 8F\	.	(8c#X</	.	.	.	.
8rBB	4AA\)	8e</	.	.	.	.
8A 8F\	.	8d</J)	.	.	.	.
=35	=35	=35	=35	=35	=35	=35
(4.F/	(4BB-\	8r	.	1r	.	.
.	.	8f 8d-X/	.	.	.	.
.	4D-X\)	8r	.	.	.	.
8F#X/)	.	8f 8d-/	.	.	.	.
16qqG/LL	.	.	.	.	.	.
(16qqA/JJ	.	.	.	.	.	.
*Xtuplet	*	*	*	*	*	*
12G/L	(4C\	8r	.	.	.	.
12F#/	.	.	.	.	.	.
.	.	8fn 8B-/	.	.	.	.
12G/J	.	.	.	.	.	.
8A/L	4CC\)	8r	.	.	.	.
8B-/J)	.	8e 8cn/	.	.	.	.
*v	*v	*	*	*	*	*
=36	=36	=36	=36	=36	=36
*	*^	*	*	*	*
(4FF/	8re	(8A\L	.	1r	.	.
.	8f/	8c\J)	.	.	.	.
4F\)	[4a/	8rg	.	.	.	.
.	.	8f 8c\	.	.	.	.
(4D\	8a/L]	8rg	.	.	.	.
.	(8e/	8B- 8A\	.	.	.	.
4BBn/)	8g/	8rg	.	.	.	.
.	8f/J)	8d 8A\	.	.	.	.
=37	=37	=37	=37	=37	=37	=37
*^	*	*	*	*	*	*
4rF	2E\	(8e/L	4rc	.	1r	.	.
.	.	8d#X/	.	.	.	.	.
4G#X/	.	8f/	(4dn\	.	.	.	.
.	.	8e/J	.	.	.	.	.
(>8A/L	2ryy	8a/L	8c\)	.	.	.	.
8Bn/	.	8bn/	8rg	.	.	.	.
8d/	.	8dd/	4rg	.	.	.	.
8c/J)	.	8cc/J)	.	.	.	.	.
*v	*v	*	*	*	*	*	*
*	*v	*v	*	*	*	*
!!LO:LB:g=original
=38	=38	=38	=38	=38	=38
*xywh-3:162,3955,3565,1072	*xywh-3:162,3955,3565,1072	*	*xywh-3:168,3718,3718,256	*	*
(2.e\	(2.ee\	.	1r	.	.
8d\L	8dd\L	.	.	.	.
8c\J)	8cc\J)	.	.	.	.
=39	=39	=39	=39	=39	=39
*^	*	*	*	*	*
4.e/	2c 2B-\	1cc	.	1r	.	.
(8c/	.	.	.	.	.	.
8f/L	2c 2A\	.	.	.	.	.
8e/	.	.	.	.	.	.
8g/	.	.	.	.	.	.
8f/J)	.	.	.	.	.	.
=40	=40	=40	=40	=40	=40	=40
4.d/	2B- 2A-X\	(2dd\	.	1r	.	.
(8B-/	.	.	.	.	.	.
8e-X/L	2B- 2G\	2ee-X\)	.	.	.	.
8d/	.	.	.	.	.	.
8f/	.	.	.	.	.	.
8e-/J)	.	.	.	.	.	.
=41	=41	=41	=41	=41	=41	=41
4.c#X/	2A 2G\	4een 4a 4en/	.	1r	.	.
.	.	(8ffL 8f\	.	.	.	.
(8A/	.	8ggJ 8g\	.	.	.	.
8d/L	2A 2F\	4aa 4a\	.	.	.	.
8c#/	.	.	.	.	.	.
8e/	.	4ddd 4dd\)	.	.	.	.
8d/J)	.	.	.	.	.	.
*v	*v	*	*	*	*	*
=42	=42	=42	=42	=42	=42
8d 8B- 8G\	8ddd 8bb- 8gg 8dd\	.	1r	.	.
(8FF#X\L	(8F#X</L	.	.	.	.
8AA\	8A</	.	.	.	.
8GG\J	8G</J	.	.	.	.
8BB-\L	8B-</L	.	.	.	.
8C\	8c</	.	.	.	.
8.E-X\	8.e-X</	.	.	.	.
16D\Jk)	16d</Jk)	.	.	.	.
=43	=43	=43	=43	=43	=43
*	*tremolo	*	*	*	*
8D\	(16d<LL 16B-</	.	1r	.	.
.	16G</	.	.	.	.
8r	16d< 16B-</	.	.	.	.
.	16G</	.	.	.	.
8D\	16d< 16B-</	.	.	.	.
.	16G</	.	.	.	.
8r	16d< 16B-</	.	.	.	.
.	16G</JJ)	.	.	.	.
8G\	(16d<LL 16B-</	.	.	.	.
.	16G</	.	.	.	.
8r	16d< 16B-</	.	.	.	.
.	16G</	.	.	.	.
8D 8DD\	16d< 16B-</	.	.	.	.
.	16G</	.	.	.	.
8r	16d< 16B-</	.	.	.	.
.	16G</JJ)	.	.	.	.
*	*Xtremolo	*	*	*	*
!!LO:PB:g=original
=44	=44	=44	=44	=44	=44
*xywh-4:409,794,3605,873	*xywh-4:409,794,3605,873	*	*xywh-4:403,262,3635,537	*	*
!	!LO:TX:t=P:problem:mixed beam	!	!	!	!
8GGL 8GGG\	(8d<L 8B-< 8G</	.	1r	.	.
(>8C#X\	8c#X</	.	.	.	.
8E-X\	8e-X\	.	.	.	.
8D\J	8d\J)	.	.	.	.
8G\L	(8g\L	.	.	.	.
8A\	8a\	.	.	.	.
8.cn\	8.ccn\	.	.	.	.
16B-\Jk)	16b-\Jk)	.	.	.	.
=45	=45	=45	=45	=45	=45
*tremolo	*	*	*	*	*
(16dLL 16B-\	8dd 8b- 8g\	.	1r	.	.
16G\	.	.	.	.	.
16d 16B-\	8r	.	.	.	.
16G\	.	.	.	.	.
16d 16B-\	8ddd 8dd\	.	.	.	.
16G\	.	.	.	.	.
16d 16B-\	8r	.	.	.	.
16G\JJ)	.	.	.	.	.
(16dLL 16B-\	8ggg 8gg\	.	.	.	.
16G\	.	.	.	.	.
16d 16B-\	8r	.	.	.	.
16G\	.	.	.	.	.
16d 16B-\	8ddd 8dd\	.	.	.	.
16G\	.	.	.	.	.
16d 16B-\	8r	.	.	.	.
16G\JJ)	.	.	.	.	.
*Xtremolo	*	*	*	*	*
=46	=46	=46	=46	=46	=46
8dL 8B- 8G\	8ggL 8g\	.	1r	.	.
(8F#X\	(8f#X\	.	.	.	.
8A\	8a\	.	.	.	.
8G\J)	8g\J)	.	.	.	.
(8B-\L	(8b-\L	<	.	.	.
8c\	8cc\	.	.	.	.
8e-X\	8ee-X\	.	.	.	.
8d\J)	8dd\J)	.	.	.	.
=47	=47	=47	=47	=47	=47
8B-L 8G 8D\	8ddL 8b- 8g 8d/	.	1r	.	.
(8C#X\	(8cc#X 8c#X/	.	.	.	.
8E-X\	8ee-X 8e-X/	.	.	.	.
8D\J)	8ddJ 8d/)	[	.	.	.
(8G\L	(8ggL 8g\	.	.	.	.
8A\	8aa 8a\	.	.	.	.
8.cn\	8.cccn 8.ccn\	.	.	.	.
16B-\Jk)	16bb-Jk 16b-\)	.	.	.	.
=48	=48	=48	=48	=48	=48
4en 4d 4B- 4G\	4ddd 4bb- 4gg 4een 4dd\	ff	1r	.	.
(4b- 4g\	(4bb- 4gg\	.	.	.	.
4g 4e\	4gg 4een\	.	.	.	.
4e 4d\)	4ee 4dd\)	.	.	.	.
!!LO:LB:g=original
=49	=49	=49	=49	=49	=49
*xywh-4:415,1888,3592,843	*xywh-4:415,1888,3592,843	*	*xywh-4:403,1600,3653,299	*	*
4e 4d 4B-\	4eee 4bb- 4gg 4ee 4dd\	.	1r	.	.
4B- 4G\	4b- 4g/	.	.	.	.
4G 4E\	4g 4e/	.	.	.	.
4E 4D\	4e 4d/	.	.	.	.
=50	=50	=50	=50	=50	=50
4A 4F 4D 4AA\	4fff 4ddd 4aa 4ff\	.	1r	.	.
4r	4r	.	.	.	.
4G#X 4AA\	4ff 4dd 4bn 4f/	.	.	.	.
4r	4r	.	.	.	.
=51	=51	=51	=51	=51	=51
4Gn 4AA\	4ee 4cc#X 4a 4e/	.	1r	.	.
4r	4r	.	.	.	.
4A 4F 4AA\	4aa 4ff 4dd 4a\	.	.	.	.
4r	4r	.	.	.	.
=52	=52	=52	=52	=52	=52
4Bn 4E 4AA\	4gg#X 4ee 4dd 4g#X\	.	1r	.	.
4r	4r	.	.	.	.
4c#X 4E 4AA\	4ggn 4ee 4cc#X 4gn\	.	.	.	.
4r	4r	.	.	.	.
=53	=53	=53	=53	=53	=53
4d 4A 4D\	4ff#X 4dd 4a 4f#X\	.	1r	.	.
4r	4r	.	.	.	.
4d 4B-X\	4ffn 4dd 4b-X 4fn\	.	.	.	.
4r	4r	.	.	.	.
=54	=54	=54	=54	=54	=54
*^	*^	*	*	*	*
[1E-X	2r	[1e-X^	2rc	.	1r	.	.
.	4r	.	4rc	.	.	.	.
.	8.r	.	8.rc	.	.	.	.
!	!	!	!	!LO:DY:rj	!	!	!
.	16GG\	.	16B-\	p	.	.	.
=55	=55	=55	=55	=55	=55	=55	=55
*	*^	*	*	*	*	*	*
2.E-/_	(2BB-\	2.AAA-X\	2.e-/_	(2B-X\	.	1r	.	.
.	4AA-X\)	.	.	4c\)	.	.	.	.
8E-/L]	4rBB	4ryy	8e-/L]	4rc	<	.	.	.
16rGG	.	.	16rA	.	.	.	.	.
16En/Jk	.	.	16en/Jk	.	[[	.	.	.
*	*v	*v	*	*	*	*	*	*
!!LO:LB:g=original
=56	=56	=56	=56	=56	=56	=56	=56
*xywh-4:415,2914,3623,928	*xywh-4:415,2914,3623,928	*xywh-4:415,2914,3623,928	*xywh-4:415,2914,3623,928	*	*xywh-4:421,2725,3574,256	*	*
!	!	!	!	!LO:DY:a:rj	!	!	!
[1F	2r	[1f^	2re	f	1r	.	.
.	4r	.	4re	.	.	.	.
.	8.r	.	8.re	.	.	.	.
!	!	!	!	!LO:DY:rj	!	!	!
.	16AAn\	.	16c\	p	.	.	.
=57	=57	=57	=57	=57	=57	=57	=57
*	*^	*	*	*	*	*	*
!	!	!	!	!	!LO:DY:b=2:rj	!	!	!
2.F/_	(2C\	2.BBB-\	2.f/_	(2e-X\	p	1r	.	.
.	4BB-\)	.	.	4d\)	.	.	.	.
8F/L]	4r	4ryy	8f/L]	4re	ff	.	.	.
16rBB	.	.	16rc	.	.	.	.	.
16F/Jk	.	.	16f/Jk	.	.	.	.	.
*v	*v	*v	*	*	*	*	*	*
*	*v	*v	*	*	*	*
=58	=58	=58	=58	=58	=58
[4B-\	[4b-\	.	1r	.	.
8.B-\]	8.b-\]	.	.	.	.
16BB- 16FF 16BBB-/	16ddd 16bb- 16ff 16dd\	.	.	.	.
4BB- 4FF 4BBB-/	4ddd 4bb- 4ff 4dd\	.	.	.	.
8.r	8.r	.	.	.	.
16B-\	16b-\	.	.	.	.
=59	=59	=59	=59	=59	=59
[4d [4B-\	[4dd [>4b- [4f/	.	1r	.	.
8.d] 8.B-\]	8.dd] 8.b-] 8.f/]	.	.	.	.
16AA-X 16AAA-X/	16fff 16ddd 16bb- 16ff\	.	.	.	.
4AA- 4AAA-/	4fff 4ddd 4bb- 4ff\	.	.	.	.
4r	8.r	.	.	.	.
.	16ddd\	.	.	.	.
=60	=60	=60	=60	=60	=60
*^	*	*	*	*	*
*	*ped	*	*	*	*	*
1ryy	[1AAn [1AAAn	4aaa 4fff 4ddd 4aa\	.	1r	.	.
.	.	4r	.	.	.	.
!	!	!	!LO:DY:a	!	!	!
.	.	(>2d 2A 2F/	p	.	.	.
=61	=61	=61	=61	=61	=61	=61
!	!	!	!LO:DY:a=2:rj	!	!	!
(2AA/	1AA_ 1AAA_	2c#X 2A 2E/	p	1r	.	.
2D/	.	2f 2Bn 2G#X/	.	.	.	.
=62	=62	=62	=62	=62	=62	=62
2C#X/	1AA_ 1AAA_	2e 2A 2E/	.	1r	.	.
2F/	.	2a 2d 2A/	.	.	.	.
!!LO:LB:g=original
=63	=63	=63	=63	=63	=63	=63
*xywh-4:434,4136,3641,1044	*xywh-4:434,4136,3641,1044	*xywh-4:434,4136,3641,1044	*	*xywh-4:427,3806,3580,348	*	*
2E/	1AA] 1AAA]	2g 2c#X 2A/	.	1r	.	.
2A/)	.	2f 2d/)	.	.	.	.
*v	*v	*	*	*	*	*
=64	=64	=64	=64	=64	=64
*tremolo	*	*	*	*	*
32AAA/LLL	[1f [1d 1B-X [1G#X	<[	1r	.	.
32AA/	.	.	.	.	.
32AAA/	.	.	.	.	.
32AA/	.	.	.	.	.
32AAA/	.	.	.	.	.
32AA/	.	.	.	.	.
32AAA/	.	.	.	.	.
32AA/	.	.	.	.	.
32AAA/	.	.	.	.	.
32AA/	.	.	.	.	.
32AAA/	.	.	.	.	.
32AA/	.	.	.	.	.
32AAA/	.	.	.	.	.
32AA/	.	.	.	.	.
32AAA/	.	.	.	.	.
32AA/JJJ	.	.	.	.	.
32AAA/LLL	.	.	.	.	.
32AA/	.	.	.	.	.
32AAA/	.	.	.	.	.
32AA/	.	.	.	.	.
32AAA/	.	.	.	.	.
32AA/	.	.	.	.	.
32AAA/	.	.	.	.	.
32AA/	.	.	.	.	.
32AAA/	.	.	.	.	.
32AA/	.	.	.	.	.
32AAA/	.	.	.	.	.
32AA/	.	.	.	.	.
32AAA/	.	.	.	.	.
32AA/	.	.	.	.	.
32AAA/	.	.	.	.	.
32AA/JJJ	.	.	.	.	.
*Xtremolo	*	*	*	*	*
=65	=65	=65	=65	=65	=65
4AAA/	1f] 1d] 1Bn 1G#]	>	1r	.	.
4r	.	.	.	.	.
2r	.	]	.	.	.
=66	=66	=66	=66	=66	=66
*tremolo	*	*	*	*	*
(32AAA/LLL	[1e 1c#X [1A [1Gn	.	1r	.	.
32AA/	.	.	.	.	.
32AAA/	.	.	.	.	.
32AA/	.	.	.	.	.
32AAA/	.	.	.	.	.
32AA/	.	.	.	.	.
32AAA/	.	.	.	.	.
32AA/	.	.	.	.	.
32AAA/	.	.	.	.	.
32AA/	.	.	.	.	.
32AAA/	.	.	.	.	.
32AA/	.	.	.	.	.
32AAA/	.	.	.	.	.
32AA/	.	.	.	.	.
32AAA/	.	.	.	.	.
32AA/JJJ)	.	.	.	.	.
(32AAA/LLL	.	.	.	.	.
32AA/	.	.	.	.	.
32AAA/	.	.	.	.	.
32AA/	.	.	.	.	.
32AAA/	.	.	.	.	.
32AA/	.	.	.	.	.
32AAA/	.	.	.	.	.
32AA/	.	.	.	.	.
32AAA/	.	.	.	.	.
32AA/	.	.	.	.	.
32AAA/	.	.	.	.	.
32AA/	.	.	.	.	.
32AAA/	.	.	.	.	.
32AA/	.	.	.	.	.
32AAA/	.	.	.	.	.
32AA/JJJ)	.	.	.	.	.
*Xtremolo	*	*	*	*	*
=67	=67	=67	=67	=67	=67
4AAA/	1e] 1c#X 1A] 1G]	.	1r	.	.
4r	.	.	.	.	.
2r	.	.	.	.	.
=68	=68	=68	=68	=68	=68
!	!	!	!LO:TX:b:B:t=dolce ma sotto voce.	!	!
4D 4DD/	4d 4A 4F/	.	[2ffu\	.	.
4r	4r	.	.	.	.
2r	2r	.	8ff\L]	.	.
.	.	.	(8ee\	.	.
.	.	.	8cc#X\	.	.
.	.	.	8dd\J)	.	.
=69	=69	=69	=69	=69	=69
2r	1r	.	(8ff\L	.	.
.	.	.	8aa\J	.	.
.	.	.	[4fff\	.	.
!LO:TX:a:B:t=Viola.	!	!	!	!	!
(8F\L	.	.	8fff\L])	.	.
8A\J)	.	.	(8ccc#X\	.	.
N[4f\	.	.	8eee\	.	.
.	.	.	8ddd\J)	.	.
!!LO:PB:g=original
=70	=70	=70	=70	=70	=70
*xywh-5:114,792,3742,859	*xywh-5:114,792,3742,859	*	*xywh-5:126,219,3742,585	*	*
2r	8f</LN]	.	(4.ff\	.	.
.	(8c#X</	.	.	.	.
.	8e</	.	.	.	.
.	8d</J)	.	8ff#X\)	.	.
.	.	.	(16qqgg/LL	.	.
.	.	.	16qqaa/JJ)	.	.
*	*	*	*Xtuplet	*	*
([2B-\	2g 2d/	.	(12gg\L	.	.
.	.	.	12ff#\	.	.
.	.	.	12gg\J	.	.
.	.	.	8aa\L	.	.
.	.	.	8bb-\J)	.	.
=71	=71	=71	=71	=71	=71
2B-\]	2g#X [2e/	.	2dd\	.	.
.	.	.	(16qqcc#X/LL	.	.
.	.	.	16qqee/	.	.
.	.	.	16qqdd/JJ)	.	.
8A\L)	4a 4e/]	.	4cc#y\	.	.
(8GG#X\	.	.	.	.	.
8BB-\	4r	.	4r	.	.
8AA\J)	.	.	.	.	.
=72	=72	=72	=72	=72	=72
*Xped	*	*	*	*	*
!	!LO:TX:a:B:t=Fl. I.°	!	!	!	!
8DD/	(4.dd\	p	4r	.	.
*ped	*	*	*	*	*
8fL 8d\	.	.	.	.	.
.	.	.	(>8qa/	.	.
8f 8d\	.	.	2aa\)	.	.
8fJ 8d\	8ee\)	.	.	.	.
.	(16qqff/LL	.	.	.	.
.	16qqgg/JJ)	.	.	.	.
*tremolo	*	*	*	*	*
8fL 8d\	(12ff\L	.	.	.	.
.	12ee\	.	.	.	.
8f 8d\	.	.	.	.	.
.	12ff\J	.	.	.	.
8f 8d\	8gg\L	.	8gg\L	.	.
8fJ 8d\	8aa\J)	.	8ff\J	.	.
*Xtremolo	*	*	*	*	*
=73	=73	=73	=73	=73	=73
*^	*^	*	*	*	*
*	*ped	*	*	*	*	*	*
1d	4D\	(2bb-/	8rc	.	(4.ee\	.	.
.	.	.	8gL 8e\	.	.	.	.
.	4rA	.	8g 8e\	.	.	.	.
.	.	.	.	.	8qgg/	.	.
.	.	.	8gJ 8e\	.	8ff\)	.	.
*	*	*	*tremolo	*	*	*	*
.	2rA	4b-/)	8gL 8e\	.	4ee\	.	.
.	.	.	8g 8e\	.	.	.	.
.	.	4r	8g 8e\	.	4r	.	.
.	.	.	8gJ 8e\	.	.	.	.
*	*	*	*Xtremolo	*	*	*	*
=74	=74	=74	=74	=74	=74	=74	=74
*	*Xped	*	*	*	*	*	*
1c	4D\	(4.ff#X/	8rc	.	4r	.	.
*	*ped	*	*	*	*	*	*
.	.	.	8f#XL 8d\	.	.	.	.
!	!	!	!	!	!LO:MO:mod=!LO&colon;TX&colon;a&colon;B&colon;t=sul A	!	!
!	!	!	!	!	!LO:TX:a:B:t=sul A_:dur=3q:ext=ud:problem:text with extention lines	!	!
.	.	.	.	.	8qcc/	.	.
.	4rA	.	8f# 8d\	.	(2ccc\	.	.
.	.	8gg/)	8f#J 8d\	.	.	.	.
.	.	(16qqaa/LL	.	.	.	.	.
.	.	16qqbb-/JJ)	.	.	.	.	.
*	*	*	*tremolo	*	*	*	*
.	2rA	(12aa/L	8f#L 8d\	.	.	.	.
.	.	12gg#X/	.	.	.	.	.
.	.	.	8f# 8d\	.	.	.	.
.	.	12aa/J	.	.	.	.	.
.	.	8bb-/L	8f# 8d\	.	8bb-\L	.	.
.	.	8ccc/J)	8f#J 8d\	.	8aa\J)	.	.
*	*	*	*Xtremolo	*	*	*	*
*v	*v	*	*	*	*	*	*
!!LO:LB:g=original
=75	=75	=75	=75	=75	=75	=75
*xywh-5:108,1890,3797,865	*xywh-5:108,1890,3797,865	*xywh-5:108,1890,3797,865	*	*xywh-5:108,1591,3706,365	*	*
1Bn	(2ddd/	8r	.	(1gg#X	.	.
.	.	8fL 8d\	.	.	.	.
.	.	8f 8d\	.	.	.	.
.	.	8fJ 8d\	.	.	.	.
*	*	*tremolo	*	*	*	*
.	4dd/)	8fL 8d\	.	.	.	.
.	.	8f 8d\	.	.	.	.
.	4r	8f 8d\	.	.	.	.
.	.	8fJ 8d\	.	.	.	.
*	*	*Xtremolo	*	*	*	*
*	*v	*v	*	*	*	*
=76	=76	=76	=76	=76	=76
(4C#X/	(>4e 4B-X/	.	8ggn\L)	.	.
.	.	.	(8eee\	.	.
4Cn/	4a 4A/)	.	8ddd#X\)	.	.
.	.	.	(8ff#X\J	.	.
4BBn/	(4d (4G#X/	.	8ffn\L)	.	.
.	.	.	(8ddd#\	.	.
4BB-X/)	4g 4Gn/))	.	8ccc#X\)	.	.
.	.	.	((8ee\J	.	.
=77	=77	=77	=77	=77	=77
*	*^	*	*	*	*
*	*	*^	*	*	*	*
(4AA/	2f#X/	(>4e-X/	2c\	<	8ee-X\L)	.	.
.	.	.	.	.	8ccc\)	.	.
4D\)	.	2d/)	.	.	8bb-\	.	.
.	.	.	.	.	8aa\J	.	.
(8G\L	4g/	.	(<4B-\	.	8gg\L	.	.
8A\J	.	.	.	.	8ff\	.	.
4B-\)	4g#X/	4en/	4d\)	.	(8een\	.	.
.	.	.	.	[	8dd\J)	.	.
*	*	*v	*v	*	*	*	*
=78	=78	=78	=78	=78	=78	=78
*^	*	*	*	*	*	*
8A\	2rEEyy	8aL 8e 8c#X/	2.ryy	mf	2a/	.	f
8r	.	(>8G#X/	.	.	.	.	.
4r	.	8B-/	.	.	.	.	.
.	.	8A/J	.	.	.	.	.
4r	4r	8d/L	.	.	(8f/L	.	.
.	.	8e/	.	.	8c#X/	.	.
(8Gn/L	4GG#X 4GGG#X\	8gn/	4Bn\	.	8e/	.	.
8F/J)	.	8fn/J)	.	.	8d/J)	.	.
*v	*v	*	*	*	*	*	*
*	*v	*v	*	*	*	*
=79	=79	=79	=79	=79	=79
2.AA 2.AAA\	2.e 2.c#X 2.E</	.	2.A/	.	.
4r	4r	.	4r	.	.
!!LO:LB:g=original
=80	=80	=80	=80	=80	=80
*xywh-5:77,2938,3596,810	*xywh-5:77,2938,3596,810	*	*xywh-5:102,2658,3614,396	*	*
(2d\	1ff 1a 1f	p	[2ff\	.	.
2c\)	.	.	8ff\L]	.	.
.	.	.	(8ee\	.	.
.	.	.	8cc#X\	.	.
.	.	.	8dd\J)	.	.
=81	=81	=81	=81	=81	=81
*^	*	*	*	*	*
!	!	!LO:S:s=2:note:problem:note-level slur	!	!	!	!
(>2a>/	[1f> 1Bn>	(2ddd (>2dd/	.	(8ff\L	.	.
.	.	.	.	8aa\J	.	.
.	.	.	.	[4fff\	.	.
!LO:S:problem:note-level slur	!	!	!	!	!	!
2a-X>/)	.	2fff 2ff/))	.	8fff\L])	.	.
.	.	.	.	(8ccc#X\	.	.
.	.	.	.	8eee\	.	.
.	.	.	.	8ddd\J)	.	.
=82	=82	=82	=82	=82	=82	=82
1g> 1c>	2f>\]	1ccc 1cc	.	(4.ff\	.	.
.	.	.	.	8ff#X\)	.	.
.	.	.	.	(16qqgg/LL	.	.
.	.	.	.	16qqaa/JJ)	.	.
.	2en>\	.	.	(12gg\L	.	.
.	.	.	.	12ff#\	.	.
.	.	.	.	12gg\J	.	.
.	.	.	.	8.aa\L	.	.
.	.	.	.	16bb-\Jk)	.	.
=83	=83	=83	=83	=83	=83	=83
!	!	!LO:S:s=2:note:problem:note-level slur	!	!	!	!
2g/	(4f\	[2ccc (2ee [2cc\	.	(2bb-\	.	.
.	4c\	.	.	.	.	.
.	.	.	.	(16qqaa/LL	.	.
.	.	.	.	16qqccc/	.	.
.	.	.	.	16qqbb-/JJ))	.	.
!	!	!LO:S:s=2:note:problem:note-level slur	!	!	!	!
8a:/	8c: 8F:\)	8ccc] 8ff) 8cc\]	.	4aa\	.	.
8r	8rEEyy	8r	.	.	.	.
4r	4rEEyy	4r	.	4r	.	.
*v	*v	*	*	*	*	*
=84	=84	=84	=84	=84	=84
2r	2r	.	(4.aa\	.	.
.	.	.	8bb-\)	.	.
.	.	.	(>(16qqccc/LL	.	.
.	.	.	16qqddd/JJ)	.	.
2c 2A\	2cc 2f 2e-X/	mf <	12ccc\L	.	.
.	.	.	12bbn\	.	.
.	.	.	12ccc\J)	.	.
.	.	.	8ddd\L	.	.
.	.	.	8eee-X\J	.	.
!!LO:LB:g=original
=85	=85	=85	=85	=85	=85
*xywh-5:108,4108,3791,1017	*xywh-5:108,4108,3791,1017	*	*xywh-5:150,3712,3675,444	*	*
.	.	.	(>(16qqddd/LL	.	.
.	.	.	16qqeee-X/JJ)	.	.
!	!	!	!LO:TX:b:t=cresc._:problem:dynamics with extention lines:mod=	!	!LO:HP:t=cresc._
2B- 2A-X\	2dd 2b- 2f 2d/	.	12ddd\L	.	<
.	.	.	12ccc\	.	.
.	.	.	12ddd\J)	.	.
.	.	.	8eee-X\L	.	.
.	.	.	8fff\J	.	.
.	.	.	(>(16qqeee-/LL	.	.
.	.	.	16qqfff/JJ)	.	.
[2B- [2G\	[2ee-X [>2b- [2e-X/	.	12eee-\L	.	.
.	.	.	12ddd\	.	.
.	.	[	12eee-\J)	.	.
.	.	.	8fff\L	.	.
.	.	.	8ggg\J	.	[
=86	=86	=86	=86	=86	=86
4B-] 4G\]	4ee-X] 4b-] 4e-X/]	.	([2bbb-\	.	f
8.rEE	8.r	.	.	.	.
16GG 16GGG\	16e- 16B- 16E-X</	f	.	.	.
8GG 8GGG\	8e- 8B- 8E-</	.	16bbb-\LL]	.	.
!	!	!	!LO:MO:mod=!LO&colon;TX&colon;a&colon;B&colon;t=à la position	!	!
!	!	!	!LO:TX:b:B:t=à la position_:dur=15s:ext=ud:problem:text with extention lines	!	!
.	.	.	16ggg\)	4	.
8rEE	8r	.	16eee-X\	.	.
.	.	.	16ddd\JJ	.	.
4rEE	4r	.	16fff\LL	.	.
.	.	.	16eee-\	.	.
.	.	.	16bb-\	.	.
.	.	.	16gg\JJ	.	.
=87	=87	=87	=87	=87	=87
1r	1r	.	16bb-\LL	.	.
.	.	.	16ggg\	.	.
.	.	.	16fff\	.	.
.	.	.	16eee-X\JJ	.	.
.	.	.	16bb-\LL	.	.
.	.	.	16gg\	.	.
.	.	.	16ee-X\	.	.
.	.	.	16a\JJo	.	.
.	.	.	(16b-\LL	1	.
.	.	.	16dd\	1	.
.	.	.	16ee-\	.	.
.	.	.	16ff#X\JJ	.	.
.	.	.	16gg\LL	.	.
.	.	.	16dd\	.	.
.	.	.	16ee-\	.	.
.	.	.	16cc\JJ	.	.
=88	=88	=88	=88	=88	=88
1r	1r	.	16b-/LL)	.	.
.	.	.	(16g/	.	.
.	.	.	16d/	.	.
.	.	.	16e-X/JJ	.	.
*	*	*	*	*below	*
.	.	.	16g/LL	1	.
.	.	.	16f/)	.	.
.	.	.	16e-/	1	.
.	.	.	16d/JJ	1	.
.	.	.	4c#X^^/	1	.
.	.	.	(8.du/L	.	.
.	.	.	16f/Jk)	2	.
!!LO:PB:g=original
=89	=89	=89	=89	=89	=89
*^	*	*	*	*	*
*xywh-6:421,684,3598,867	*xywh-6:421,684,3598,867	*xywh-6:421,684,3598,867	*	*xywh-6:415,250,3617,494	*	*
(4C#X/	2rEE	2r	.	(2.f/	.	.
4B-/)	.	.	.	.	.	.
(>4A/	2AA 2AAA\	2c#X</	.	.	.	.
4G/)	.	.	.	4e/)	.	.
*v	*v	*	*	*	*	*
=90	=90	=90	=90	=90	=90
*	*^	*	*	*	*
!	!LO:MO:mod=!LO&colon;TX&colon;a&colon;B&colon;t=Tutti	!	!	!	!	!
!	!LO:TX:a:B:t=TUTTI.	!	!	!	!	!
8D 8DD\	([2f/	4d 4A< 4F</	p	4d/	.	.
(16ALL 16F\	.	.	.	.	.	.
16D\JJ	.	.	.	.	.	.
16ALL 16F\	.	4rcyy	.	4r	.	.
16D\	.	.	.	.	.	.
16A 16F\	.	.	.	.	.	.
16D\JJ)	.	.	.	.	.	.
*tremolo	*	*	*	*	*	*
(16ALL 16F\	8f/L]	2rcyy	.	2r	.	.
16D\	.	.	.	.	.	.
16A 16F\	8e/	.	.	.	.	.
16D\	.	.	.	.	.	.
16A 16F\	8c#X/	.	.	.	.	.
16D\	.	.	.	.	.	.
16A 16F\	8d/J)	.	.	.	.	.
16D\JJ)	.	.	.	.	.	.
*	*v	*v	*	*	*	*
=91	=91	=91	=91	=91	=91
*^	*	*	*	*	*
(16ALL 16F/	4rEE	4a 4f/	.	1r	.	.
16D/	.	.	.	.	.	.
16A 16F/	.	.	.	.	.	.
16D/	.	.	.	.	.	.
!	!LO:TX:b:B:t=M.D.	!	!	!	!	!
16A 16F/	8AAA\	4ryy	.	.	.	.
16D/	.	.	.	.	.	.
16A 16F/	8rEE	.	.	.	.	.
16D/JJ)	.	.	.	.	.	.
(16ALL 16F/	8DD\	2ryy	.	.	.	.
16D/	.	.	.	.	.	.
16A 16F/	8rEE	.	.	.	.	.
16D/	.	.	.	.	.	.
16A 16F/	8AAA\	.	.	.	.	.
16D/	.	.	.	.	.	.
16A 16F/	8rEE	.	.	.	.	.
16D/JJ)	.	.	.	.	.	.
*v	*v	*	*	*	*	*
=92	=92	=92	=92	=92	=92
(16ALL 16F#X\	(8cn/L	.	1r	.	.
16D\	.	.	.	.	.
16A 16F#\	8e-X/J	.	.	.	.
16D\	.	.	.	.	.
16A 16F#\	[4cc\	.	.	.	.
16D\	.	.	.	.	.
16A 16F#\	.	.	.	.	.
16D\JJ)	.	.	.	.	.
(16ALL 16F#\	8cc\L])	.	.	.	.
16D\	.	.	.	.	.
16A 16F#\	(8g#X\	.	.	.	.
16D\	.	.	.	.	.
16A 16F#\	8b-\	.	.	.	.
16D\	.	.	.	.	.
16A 16F#\	8a\J)	.	.	.	.
16D\JJ)	.	.	.	.	.
=93	=93	=93	=93	=93	=93
*^	*	*	*	*	*
(16ALL 16F#X/	4rEE	4d 4c/	.	1r	.	.
16D/	.	.	.	.	.	.
16A 16F#/	.	.	.	.	.	.
16D/	.	.	.	.	.	.
16A 16F#/	8AAA\	4ryy	.	.	.	.
16D/	.	.	.	.	.	.
16A 16F#/	8rEE	.	.	.	.	.
16D/JJ)	.	.	.	.	.	.
(16ALL 16F#/	8DD\	2ryy	.	.	.	.
16D/	.	.	.	.	.	.
16A 16F#/	8rEE	.	.	.	.	.
16D/	.	.	.	.	.	.
16A 16F#/	8DDD\	.	.	.	.	.
16D/	.	.	.	.	.	.
16A 16F#/	8rEE	.	.	.	.	.
16D/JJ)	.	.	.	.	.	.
*Xtremolo	*	*	*	*	*	*
*v	*v	*	*	*	*	*
!!LO:LB:g=original
=94	=94	=94	=94	=94	=94
*xywh-6:421,1839,3623,714	*xywh-6:421,1839,3623,714	*	*xywh-6:440,1490,3574,427	*	*
(4GG/	8r	<	1r	.	.
.	8b- 8g 8d/	.	.	.	.
4BB-/	8r	.	.	.	.
.	8b- 8g 8d/	.	.	.	.
4C/	8r	.	.	.	.
.	8b- 8g 8e-X/	.	.	.	.
4D/)	8r	.	.	.	.
.	8b- 8g 8d/	[[	.	.	.
=95	=95	=95	=95	=95	=95
(4E-X\	8r	p	4r	.	.
.	8a 8g 8c/	.	.	.	.
!	!	!	!LO:MO:mod=!LO&colon;TX&colon;a&colon;B&colon;t=Sul G	!	!
!	!	!	!LO:TX:a:B:t=sul G._:dur=12q:ext=ud:problem:text with extention lines	!	!
4C/)	8r	.	[4e-X/	.	mf
.	8a 8g 8e-X/	.	.	.	.
(4D\	8r	.	8e-/L]	.	.
.	8a 8g 8A/	.	(8d/	.	.
4DD/)	8r	.	8A/	.	.
.	8a 8f#X 8d/	.	8c/J)	.	.
=96	=96	=96	=96	=96	=96
(4GG/	8r	.	(8B-/L	.	.
.	8b- 8g 8d/	.	8d/J	.	.
4BB-/)	8r	.	[4b-\	.	.
.	8g 8d 8G/	.	.	.	.
(4C/	8r	.	8b-/L])	.	.
.	8g 8e-X 8G/	.	(8f#X/	.	.
4D/)	8r	.	8a/	.	.
.	8g 8d 8B-/	.	8g/J)	.	.
=97	=97	=97	=97	=97	=97
(<4E-X 4EE-X\	8r	.	(4.B-/	.	.
.	8g-X 8G-X/	.	.	.	.
4GG-X\)	8r	.	.	.	.
.	8e-X 8E-X</	.	8Bn/)	.	.
.	.	.	(16qqc/LL	.	.
.	.	.	16qqd/JJ)	.	.
(>4FF/	8r	.	(12c/L	.	.
.	.	.	12B/	.	.
.	8f 8e- 8B-/	.	.	.	.
.	.	.	12c/J	.	.
4F\)	8r	.	8d/L	.	.
.	8f 8e- 8A/	.	8e-X/J)	.	.
=98	=98	=98	=98	=98	=98
4BB-/	8r	.	(8d/L	.	.
.	8f 8d 8B-/	.	8f/J)	.	.
(4B-\	8r	.	([4dd\	.	.
.	8f 8d 8B-/	.	.	.	.
4G\	8r	.	8dd\L]	.	.
.	8en 8d 8B-/	.	8a\	.	.
4En\)	8r	.	8cc\	.	.
.	8g 8d 8B-/	.	8b-\J)	.	.
!!LO:LB:g=original
=99	=99	=99	=99	=99	=99
*xywh-6:415,2939,3611,721	*xywh-6:415,2939,3611,721	*	*xywh-6:489,2554,3519,439	*	*
[2A\	4r	.	(8a/L	.	.
.	.	.	8g#X/	.	.
!	!	!	!LO:TX:b:B:t=dolce.	!	!
.	(4e (4c#X/	.	8b-/	.	.
.	.	.	8a/J	.	.
8A] 8D\	8f 8d/))	.	8dd\L	.	.
8r	8r	.	8een\)	.	.
4r	4r	.	8gg\	.	.
.	.	.	8ff\J	.	.
=100	=100	=100	=100	=100	=100
1r	1r	.	(2.aa\o	.	.
.	.	.	8gg\L	.	.
.	.	.	8ff\J)	.	.
=101	=101	=101	=101	=101	=101
4r	(4.a 4.f 4.e-X/	p	1ff	.	.
4F\	.	.	.	.	.
.	8f/)	.	.	.	.
4r	(8b-L 8d/	.	.	.	.
.	8a/	.	.	.	.
4BB-/	8dd 8cc/	.	.	.	.
.	8b-/J)	.	.	.	.
=102	=102	=102	=102	=102	=102
4r	(4.g#X 4.en 4.d/	.	1ee	.	.
4E\	.	.	.	.	.
.	8e/)	.	.	.	.
4r	(8aL 8c/	.	.	.	.
.	8g#/	.	.	.	.
4AA/	8cc 8bn/	.	.	.	.
.	8a/J)	.	.	.	.
=103	=103	=103	=103	=103	=103
*	*^	*	*	*	*
(<4F\	(4d/	2A\	.	(8.ee\L	.	.
.	.	.	.	16dd\Jk)	.	.
4E\	4e/	.	.	(8.dd\L	3	.
.	.	.	.	16cc\Jk)	.	.
4D\	4f 4F</	2ryy	.	(8cc\L	.	.
.	.	.	.	8b-\	.	.
4E\)	4g 4G</)	.	.	8dd\	.	.
.	.	.	.	8cc\J)	.	.
*	*v	*v	*	*	*	*
=104	=104	=104	=104	=104	=104
*^	*	*	*	*	*
2A/	(4F\	4a/	.	(8b-\L	.	.
.	.	.	.	8a\)	.	.
.	4BB-\)	(2d/	.	8cc\	.	.
.	.	.	.	8b-\J	.	.
2G/	(4E\	.	.	(8a/L	.	.
.	.	.	.	8g/	.	.
.	4AA\)	4c#X/)	.	8b-/	.	.
.	.	.	.	8a/J)	.	.
=105	=105	=105	=105	=105	=105	=105
4A 4F/	4D\	[1d	<	(8g/L	.	<
.	.	.	.	8f/	.	.
(4A/	4C\	.	.	8g/	.	.
.	.	.	.	8f#X/J)	.	.
4G/	4BB-\	.	.	(8a/L	.	.
.	.	.	.	8g/	.	.
4c/)	[4D 4FF#X\	.	.	8b-/	.	.
.	.	.	.	8a/J)	.	.
!!LO:LB:g=original
=106	=106	=106	=106	=106	=106	=106
*xywh-6:421,4002,3611,1057	*xywh-6:421,4002,3611,1057	*xywh-6:421,4002,3611,1057	*	*xywh-6:427,3641,3586,409	*	*
4B-/	4D] 4GG\	8d/L]	.	(8cc\L	.	.
.	.	(8d/	.	8b-\)	.	.
2A/	(4G\	8e/	.	(8dd\	.	.
.	.	8a/J)	.	8cc#X\J)	.	.
.	4F\	(8d/L	.	(8ee\L	.	.
.	.	8a/	.	8dd\)	.	.
[4A/	4C#X\)	8g/	.	(8ff\	.	.
!	!	!	!	!	!	!LO:MO:null:mod=[
.	.	8a/J)	[	8ee\J)	.	.
=107	=107	=107	=107	=107	=107	=107
*	*	*^	*	*	*	*
4A/]	8D\L	(8f/L	4d\	.	(8gg\L	.	.
.	(>8D\	8dd/	.	.	8ff\)	.	.
4rcyy	8c\	8a/	2d^\	.	8gg\	.	.
.	8D\J	8dd/J)	.	.	8ff#X\J	.	.
2rcyy	8B-\L	(8g/L	.	.	8aa\L	.	.
.	8D\	8dd/	.	.	8gg\	.	.
.	8F#X\	8cc/	4d^\	.	8bb-\	.	.
.	8D\J)	8dd/J)	.	.	8aa\J	.	.
*v	*v	*	*	*	*	*	*
*	*v	*v	*	*	*	*
=108	=108	=108	=108	=108	=108
4G 4D 4GG/	4dd 4b- 4g 4d/	.	8ccc\L	.	.
.	.	.	8bb-\J	.	.
4r	4r	.	[4eee [4ee\	.	.
!	!	!LO:DY:rj	!	!	!
2G 2D 2GG/	2ee 2b- 2g 2e 2d/	f	8eee]L 8ee\]	.	.
.	.	.	8ddd 8dd\	.	.
.	.	.	8ccc 8cc\	.	.
.	.	.	8bb-J 8b-\	.	.
=109	=109	=109	=109	=109	=109
!	!	!	!	!	!LO:DY:rj
8AL 8F 8D 8AA/	8ffL 8dd 8a 8f\	.	[2aa [2a\	.	ff
(16BBn/L	(16bn\L	<	.	.	.
16C#X/JJ	16cc#X\JJ	.	.	.	.
16D/LL	16dd\LL	.	.	.	.
16E/	16ee\	.	.	.	.
16F/	16ff\	.	.	.	.
16G/JJ)	16gg\JJ)	.	.	.	.
8A\	8aa\	[	8aa]L 8a\]	.	.
8r	8r	.	(16bbnL 16bn^\	.	.
.	.	.	16ccc#XJJ 16cc#X^\	.	.
4r	4r	.	16dddLL 16dd^\	.	.
.	.	.	16eee 16ee^\	.	.
.	.	.	16fff 16ff^\	.	.
.	.	.	16gggJJ 16gg^\)	.	.
=110	=110	=110	=110	=110	=110
4rEE	4r	.	4aaa 4aa\	.	.
!	!	!LO:DY:rj	!	!	!
[4FF\	[4f< [4F</	f	4r	.	.
8FF\L]	8f<]L 8F</]	.	4r	.	.
8EE\	8e< 8E</	.	.	.	.
!	!	!	!LO:TX:t=P:problem:brak rozpoczęcia łuku	!	!
8CC#X\	8c#X< 8C#X</	.	([4ff\	.	f
8DD\J	8d<J 8D</	.	.	.	.
!!LO:PB:g=original
=111	=111	=111	=111	=111	=111
*xywh-7:108,853,3766,755	*xywh-7:108,853,3766,755	*	*xywh-7:114,207,3712,658	*	*
!	!LO:TX:t=P:problem:mixed beam	!	!	!	!
8FF\L	8f<L 8F</	.	8ff\L]	.	.
8AA\J	8aJ 8A\	.	8ee\)	.	.
[4F\	[4ff [4f\	.	8cc#X\	.	.
.	.	.	8dd\J	.	.
8F\L]	8ff]L 8f\]	.	8ff\L	.	.
8C#X\	8cc#X\	.	8aa\J	.	.
8.E\	8.ee 8.e\	.	[4fff\	.	.
16D\Jk	16ddJk 16d\	.	.	.	.
=112	=112	=112	=112	=112	=112
4F 4D 4AA/	4a 4f 4d 4A/	.	8fff\L]	.	.
.	.	.	(8ccc#X\	.	.
4r	4r	.	8eee\	.	.
.	.	.	8ddd\J	.	.
2r	2r	.	8aa\L)	.	.
.	.	.	(8cc#X\	.	.
.	.	.	8ee\	.	.
.	.	.	8dd\J	.	.
=113	=113	=113	=113	=113	=113
1rAA	4r<	.	4a/)	.	.
!	!	!	!LO:MO:mod=!LO&colon;TX&colon;a&colon;B&colon;t=Sul G	!	!
!	!	!	!LO:TX:a:B:t=sul G._:dur=7q:ext=ud:problem:text with extention lines	!	!
.	(4G< 4E</	<	4c#X/	.	.
.	4G#X< 4F</	.	4e/	.	.
.	4f< 4d< 4F</)	.	(8.d/L	.	.
.	.	[	16a/Jk)	.	.
=114	=114	=114	=114	=114	=114
*^	*^	*	*	*	*
1Gn	2AA\	1e	2d\	>	(2.a/	.	.
.	2AAAn\	.	(4c#X\	.	.	.	.
.	.	.	4A\)	]	4c#X/)	.	.
*v	*v	*	*	*	*	*	*
*	*v	*v	*	*	*	*
=115	=115	=115	=115	=115	=115
4D 4DD\	4d 4A 4F</	p	(16d/LL	.	p
.	.	.	16a/	.	.
.	.	.	16b-/	.	.
.	.	.	16a/JJ	.	.
4r	4r	.	16g#X\LL	.	.
.	.	.	16a\	.	.
*	*	*	*	*above	*
!	!	!	!LO:MO:mod=!LO&colon;TX&colon;a&colon;B&colon;t=Sul A	!	!
!	!	!	!LO:TX:a:B:t=sul A.:dur=10s:ext=ud:problem:text with extention lines	!	!
.	.	.	16ff\	3	.
.	.	.	16ee\JJ	.	.
2r	2r	.	16cc#X\LL	1	.
.	.	.	16dd\	2	.
.	.	.	16bb-\	4	.
.	.	.	16aa\JJ	.	.
.	.	.	16gg#X\LL	.	.
.	.	.	16aa\	.	.
.	.	.	16fff\	.	.
.	.	.	16eee\JJ)	.	.
!!LO:LB:g=original
=116	=116	=116	=116	=116	=116
*xywh-7:102,1932,3712,676	*xywh-7:102,1932,3712,676	*	*xywh-7:96,1560,3803,408	*	*
1r	1r	.	(16ccc#X\LL	.	.
.	.	.	16ddd\	.	.
.	.	.	16aa\)	.	.
.	.	.	16ff'\JJ	.	.
.	.	.	([4aaa\	.	.
.	.	.	16aaa\LL]	.	.
.	.	.	16fff\	4	.
.	.	.	16ddd\	2	.
.	.	.	16ccc#\JJ	.	.
.	.	.	16eee\LL	.	.
.	.	.	16ddd\	.	.
.	.	.	16aa\	.	.
.	.	.	16ff\JJ)	.	.
=117	=117	=117	=117	=117	=117
[1e 1G	[1dd [1b-	p	(4ee\o	.	.
.	.	.	16gg\LL)	.	.
.	.	.	(16bb-\	.	.
.	.	.	16ff\	.	.
.	.	.	16gg\JJ	.	.
.	.	.	16ee\LL	.	.
.	.	.	16gg\)	.	.
.	.	.	(16dd\	.	.
.	.	.	16ee\JJ	.	.
.	.	.	16b-\LL	.	.
.	.	.	16dd\	.	.
.	.	.	16a\	.	.
.	.	.	16b-\JJ	.	.
=118	=118	=118	=118	=118	=118
1e] 1A	2dd] 2b-\]	.	16g/LL	.	.
.	.	.	16b-/)	.	.
.	.	.	(16f/	.	.
.	.	.	16g/JJ	.	.
.	.	.	16e/LL	.	.
.	.	.	16g/	.	.
.	.	.	16d/	.	.
.	.	.	16e/JJ	.	.
.	2cc#X 2a\	.	16c#X/LL	.	.
.	.	.	16e/	.	.
.	.	.	16g/	.	.
.	.	.	16b-/JJ	.	.
.	.	.	16a/LL	.	.
.	.	.	16g/	.	.
.	.	.	16f/	.	.
.	.	.	16e/JJ)	.	.
=119	=119	=119	=119	=119	=119
*	*^	*	*	*	*
4d\	4ff 4a/	[2f\	.	(16d/LL	.	.
.	.	.	.	16a/	.	.
.	.	.	.	16b-/	.	.
.	.	.	.	16a/JJ	.	.
4r	4raayy	.	.	16g#X\LL	.	.
.	.	.	.	16a\	.	.
.	.	.	.	16ff\	3	.
.	.	.	.	16ee\JJ	.	.
2r	2raayy	8f\L]	.	16cc#X\LL	.	.
.	.	.	.	16dd\	.	.
.	.	(<8e\	.	16bb-\	4	.
.	.	.	.	16aa\JJ	.	.
.	.	8c#X\	.	16gg#X\LL	.	.
.	.	.	.	16aa\	.	.
.	.	8d\J)	.	16fff\	.	.
.	.	.	.	16eee\JJ)	.	.
*	*v	*v	*	*	*	*
!!LO:LB:g=original
=120	=120	=120	=120	=120	=120
*xywh-7:108,3005,3754,755	*xywh-7:108,3005,3754,755	*	*xywh-7:114,2603,3663,444	*	*
2r	(8f/L	.	(16ccc#X^^\LL	.	.
.	.	.	16ddd\	.	.
.	8a/J	.	16aa\)	.	.
.	.	.	16ff\JJ	.	.
.	4ff\)	.	([4aaa\	.	.
(8F\L	2r	.	16aaa\LL]	.	.
.	.	.	16fff\	4	.
8A\J	.	.	16ddd\	2	.
.	.	.	16ccc#\JJ	.	.
4f\)	.	.	16eee\LL	.	.
.	.	.	16ddd\	.	.
.	.	.	16aa\	.	.
.	.	.	16ff\JJ)	.	.
=121	=121	=121	=121	=121	=121
*^	*	*	*	*	*
1e	[1d	[1bn [1g#X	p	(4ee\	.	.
.	.	.	.	16ddd\LL)	2	.
.	.	.	.	(16fff\	.	.
.	.	.	.	16cccn\	.	.
.	.	.	.	16ddd\JJ	.	.
.	.	.	.	16bbn\LL	2	.
.	.	.	.	16ddd\	.	.
.	.	.	.	16aa\	.	.
.	.	.	.	16bb\JJ	.	.
.	.	.	.	16gg#X\LL	.	.
.	.	.	.	16bb\	.	.
.	.	.	.	16ee\	.	.
.	.	.	.	16ff\JJ	.	.
=122	=122	=122	=122	=122	=122	=122
(2f/	1d]	1bnX] 1g#X]	.	16dd\LL	.	.
.	.	.	.	16ff\	4	.
.	.	.	.	16cc\	.	.
.	.	.	.	16dd\JJ	.	.
.	.	.	.	16bn\LL	.	.
.	.	.	.	16dd\	.	.
.	.	.	.	16a\	.	.
.	.	.	.	16b\JJ	.	.
2e/)	.	.	.	16g#X\LL	.	.
.	.	.	.	16b\	4	.
.	.	.	.	16e\	.	.
.	.	.	.	8qgn/	.	.
.	.	.	.	16f\JJ	.	.
.	.	.	.	16e\LL	.	.
.	.	.	.	16d\	.	.
.	.	.	.	16c\	.	.
.	.	.	.	16Bn\JJ)	.	.
=123	=123	=123	=123	=123	=123	=123
4c/	[2C\	4ee: 4a: 4e:/	.	(16A/LL	.	.
.	.	.	.	16e/	.	.
.	.	.	.	16f/	.	.
.	.	.	.	16e/JJ	.	.
4rcyy	.	4r	.	16d#X/LL	.	.
.	.	.	.	16e/	.	.
.	.	.	.	16cc/	.	.
.	.	.	.	16bn/JJ	.	.
2rcyy	8C/L]	2r	.	16g#X\LL	.	.
.	.	.	.	16a\	.	.
.	(8BBn/	.	.	16ff\	.	.
.	.	.	.	16ee\JJ	.	.
.	8GG#X/	.	.	16dd#X\LL	.	.
.	.	.	.	16ee\	.	.
.	8AA/J)	.	.	16ccc\	.	.
.	.	.	.	16bbn\JJ)	.	.
*v	*v	*	*	*	*	*
!!LO:PB:g=original
=124	=124	=124	=124	=124	=124
*xywh-7:126,4084,3803,1048	*xywh-7:126,4084,3803,1048	*	*xywh-7:108,3669,3791,469	*	*
(8C\L	2r	.	(16gg#X\LL	.	.
.	.	.	16aa\	.	.
8E\J	.	.	16ee\)	.	.
.	.	.	16cc\JJ	.	.
4c\)	.	.	([4eee\o	.	.
2r	(8cc\L	.	16eee\LL]	.	.
.	.	.	16ccc\	.	.
.	8ee\J	.	16aa\	.	.
.	.	.	16gg#\JJ	.	.
.	4ccc\)	.	16bbn\LL	.	.
.	.	.	16aa\	.	.
.	.	.	16ee\	.	.
.	.	.	16cc\JJ)	.	.
=125	=125	=125	=125	=125	=125
*	*^	*	*	*	*
[1c	1cc	[1b-X [1e	p	(4b-X\	.	.
.	.	.	.	16bb-\LL)	.	.
.	.	.	.	(16ddd'^^\	.	.
.	.	.	.	16aa'\	.	.
.	.	.	.	16bb-'\JJ	.	.
.	.	.	.	16gg'\LL	.	.
.	.	.	.	16bb-'\	.	.
.	.	.	.	16ff'\	.	.
.	.	.	.	16gg'\JJ	.	.
.	.	.	.	16ee'\LL	.	.
.	.	.	.	16gg'\	.	.
.	.	.	.	16dd'\	.	.
.	.	.	.	16ee'\JJ	.	.
=126	=126	=126	=126	=126	=126	=126
1c] 1C	(2dd/	1b-] 1e]	.	16b-'\LL	.	.
.	.	.	.	16dd'\	.	.
.	.	.	.	16a'\	.	.
.	.	.	.	16b-'\JJ	.	.
.	.	.	.	16g'\LL	.	.
.	.	.	.	16b-'\	.	.
.	.	.	.	16f'\	.	.
.	.	.	.	16g'\JJ	.	.
.	2cc/)	.	.	16e'/LL	.	.
.	.	.	.	16g'/	.	.
.	.	.	.	16d'/	.	.
.	.	.	.	16e'/JJ	.	.
.	.	.	.	16c'/LL	.	.
.	.	.	.	16d'/	.	.
.	.	.	.	16B-'/	.	.
.	.	.	.	16c'/JJ	.	.
*	*v	*v	*	*	*	*
=127	=127	=127	=127	=127	=127
4f: 4c: 4F:\	4aa: 4cc: 4a:\	.	8A'^^/)	.	.
.	.	.	8r	.	.
!	!	!	!	!	!LO:DY:rj
4r	4r	.	16fLL 16A`u/	.	f
.	.	.	16f 16A`/	.	.
.	.	.	16dd [16f^>/	.	.
.	.	.	16ccJJ 16f/]	.	.
2r	2r	.	16aLL 16c`\	.	.
.	.	.	16a 16c`\	.	.
.	.	.	(16gg 16a^\	.	.
.	.	.	16ffJJ 16a\)	.	.
.	.	.	16ccLL 16f`\	.	.
.	.	.	16cc 16f`\	.	.
.	.	.	(16bb- 16cc^\	.	.
.	.	.	16aaJJ 16cc\)	.	.
!!LO:PB:g=original
=128	=128	=128	=128	=128	=128
*xywh-8:354,818,3696,708	*xywh-8:354,818,3696,708	*	*xywh-8:391,268,3629,604	*	*
1r	4r	.	16ffLL 16a`\	.	.
.	.	.	16ff 16a`\	.	.
.	.	.	(16ddd 16ff^\	.	.
.	.	.	16cccJJ 16ff\)	.	.
.	8r	.	16aaLL 16cc`\	.	.
.	.	.	16aa 16cc`\	.	.
.	8c/	<	(16ggg 16aa^\	.	.
.	.	.	16fffJJ 16aa\)	.	.
.	(8f/L	.	16ffLL 16a`\	.	.
.	.	.	16ff 16a`\	.	.
.	8g/	.	(16ddd 16ff^\	.	.
.	.	.	16cccJJ 16ff\)	.	.
.	8.b-/	.	16ccLL 16f`\	.	.
.	.	.	16cc 16f`\	.	.
.	.	.	(16bb- 16cc^\	.	.
.	16a/Jk)	[	16aaJJ 16cc\)	.	.
=129	=129	=129	=129	=129	=129
4r	8cc 8a\	.	8ccc 8a 8e^^\	.	.
.	8r	.	8r	.	.
8E\	8e/	.	(16Au/LL	.	.
.	.	.	16e/	.	.
8r	8r	.	16dd/)	.	.
.	.	.	16cc`/JJ	.	.
8A\	8a/	.	(16c/LL	.	.
.	.	.	16a/	.	.
8r	8r	.	16ff/)	.	.
.	.	.	16ee`/JJ	.	.
8AA/	8A/	.	(16e\LL	.	.
.	.	.	16cc\	.	.
8r	8r	.	16bbn\)	.	.
.	.	.	16aa`\JJ	.	.
=130	=130	=130	=130	=130	=130
1r	4r	.	(16a\LL	.	.
.	.	.	16ee\	.	.
.	.	.	16ddd\)	.	.
.	.	.	16ccc`\JJ	.	.
.	8r	.	(16cc\LL	.	.
.	.	.	16aa\	.	.
.	8e/	<	16fff\)	.	.
.	.	.	16eee`\JJ	.	.
.	(8a\L	.	(16a\LL	.	.
.	.	.	16ee\	.	.
.	8bn\	.	16ddd\)	.	.
.	.	.	16ccc`\JJ	.	.
.	8.dd\	.	(16e\LL	.	.
.	.	.	16cc\	.	.
.	.	.	16bbn\)	.	.
.	16cc\Jk)	[	(16aa^^\JJ	.	.
=131	=131	=131	=131	=131	=131
[>1a> [1d#X>	[1ff#X [1cc	f	8ccc 8a 8d#X^^\)	.	.
.	.	.	8r	.	.
.	.	.	16ccLL 16d#`\	.	.
.	.	.	16cc 16d#`\	.	.
.	.	.	(16aa 16cc^\	.	.
.	.	.	16ccJJ 16d#\)	.	.
.	.	.	16dd#XLL 16f#X`\	.	.
.	.	.	16dd# 16f#`\	.	.
.	.	.	(16ccc 16dd#^\	.	.
.	.	.	16dd#JJ 16f#\)	.	.
.	.	.	16ff#XLL 16a`\	.	.
.	.	.	16ff# 16a`\	.	.
.	.	.	(16ddd#X 16ff#^\	.	.
.	.	.	16ff#JJ 16a\)	.	.
!!LO:LB:g=original
=132	=132	=132	=132	=132	=132
*xywh-8:348,1943,3641,788	*xywh-8:348,1943,3641,788	*	*xywh-8:482,1527,3550,519	*	*
1a>_> 1d#X>_	1ff#X_ 1cc_	.	16aaLL 16cc`\	.	.
.	.	.	16aa 16cc`\	.	.
.	.	.	(16fff#X 16aa^\	.	.
.	.	.	16aaJJ 16cc\)	.	.
.	.	.	16ffLL 16a`\	.	.
.	.	.	16ff 16a`\	.	.
.	.	.	(16ddd#X 16ff^\	.	.
.	.	.	16ffJJ 16a\)	.	.
.	.	.	16aaLL 16cc`\	.	.
.	.	.	16aa 16cc`\	.	.
.	.	.	(16fff# 16aa^\	.	.
.	.	.	16aaJJ 16cc\)	.	.
.	.	.	16cccLL 16dd#X`\	.	.
.	.	.	16ccc 16dd#`\	.	.
.	.	.	(16aaa 16ccc^\	.	.
.	.	.	16cccJJ 16dd#\)	.	.
=133	=133	=133	=133	=133	=133
!	!	!	!LO:TX:t=P:problem:mixed beam	!	!
8a>] 8d#X>\]	8ff#X] 8cc/]	.	8ccccL 8ddd#X 8ff#X^^\	.	.
8r	8r	.	(16Au/L	.	.
.	.	.	16c/JJ	.	<
*	*	*	*	*below	*
4r	8ccc 8aa\	p	16d#X/LL	4	.
.	.	.	16f#X/	.	.
.	8r	.	16a/	.	.
.	.	.	16bn/JJ	.	.
2r	8aa 8ff#\	.	16cc\LL	.	.
.	.	.	16b\	.	.
.	8r	.	16a\	.	.
.	.	.	16cc\JJ	.	.
*	*	*	*	*above	*
.	8ff# 8dd#X\	.	16dd#X\LL	4	.
.	.	.	16ff#\	.	.
.	8r	.	16aa\	1	.
.	.	.	16ccc\JJ	.	.
=134	=134	=134	=134	=134	=134
1r	8dd#X 8cc\	.	16bbn\LL)	.	[
.	.	.	(16aa^^\	.	.
.	8r	.	16aaa\	4	.
.	.	.	16fff#X\JJ	2	.
.	8cc 8a\	.	16ddd#X\LL	4	>
.	.	.	16ccc\	.	.
.	8r	.	16aa\	.	.
.	.	.	16ff#X\JJ	.	.
.	8a 8f#X/	.	16dd#X/LL	.	.
.	.	.	16cc/	.	.
.	8r	.	16a/	.	.
.	.	.	16f#X/JJ	.	.
.	8f# 8d#X 8c 8A/	.	16d#X/LL	.	.
.	.	.	16c/	.	.
.	8r	.	16Bn/	.	.
.	.	.	16A/JJ)	.	]
=135	=135	=135	=135	=135	=135
*ped	*	*	*	*	*
[1EE [1EEE	4g#X 4e 4Bn 4G#X/	.	(16G#X^/LL	.	.
.	.	.	16d/	.	.
.	.	.	16gn/	.	.
.	.	.	16f/JJ)	.	.
!	!	!	!LO:TX:b:t=cre_scen_do_:problem:dynamics with extention lines:mod=	!	!LO:HP:t=cre_scen_do_
.	4r	.	(16Bn^/LL	.	<
.	.	.	16d/	.	.
.	.	.	16a/	.	.
.	.	.	16g#X/JJ)	.	.
.	2r	.	(16d^/LL	.	.
.	.	.	16f/	.	.
.	.	.	16cc/	.	.
.	.	.	16bn/JJ)	.	.
.	.	.	(16f^/LL	.	.
.	.	.	16b/	.	.
.	.	.	16ee/	.	.
.	.	.	16dd/JJ)	.	.
!!LO:PB:g=original
=136	=136	=136	=136	=136	=136
*xywh-8:360,3055,3660,714	*xywh-8:360,3055,3660,714	*	*xywh-8:360,2658,3715,446	*	*
1EE_ 1EEE_	1r	.	(16bn^\LL	.	.
.	.	.	16dd\	.	.
.	.	.	16aa\	.	.
.	.	.	16gg#X\JJ)	.	.
.	.	.	(16dd^\LL	.	.
.	.	.	16gg#\	.	.
.	.	.	16ccc\	.	.
.	.	.	16bbn\JJ)	.	.
.	.	.	(16gg#^\LL	.	.
.	.	.	16bb\	.	.
.	.	.	16eee\	.	.
.	.	.	16ddd\JJ)	.	.
.	.	.	(16bb^\LL	.	.
.	.	.	16ddd\	.	.
.	.	.	16gggn\	.	.
.	.	.	16fff\JJ)	.	.
=137	=137	=137	=137	=137	=137
*	*	*	*	*	*^
1EE_ 1EEE_	1r	.	(16ddd^\LL	.	.	.
.	.	.	16bbn\	.	.	.
.	.	.	16eee\	.	.	.
.	.	.	16ddd\JJ)	.	.	.
.	.	.	(16bb^\LL	.	.	.
.	.	.	16gg#X\	.	.	.
.	.	.	16ccc\	.	.	.
.	.	.	16bb\JJ)	.	.	.
.	.	.	(16gg#^\LL	.	.	f
.	.	.	16ee\	.	.	.
.	.	.	16bb\)	.	.	.
.	.	.	(16aa#X^^\JJ	.	.	.
.	.	.	16aan\LL	.	.	.
.	.	.	16gg#\	.	[	.
.	.	.	16ggn\	.	.	.
.	.	.	16ff#X\JJ	.	.	.
*	*	*	*	*	*v	*v
=138	=138	=138	=138	=138	=138
!	!LO:MO:mod=!LO&colon;TX&colon;a&colon;B&colon;t=molto ritenuto	!	!LO:MO:mod=!LO&colon;TX&colon;a&colon;B&colon;t=molto ritenuto	!	!
!	!LO:TX:b:i:t=molto rit.	!	!LO:TX:b:B:t=molto rit.:dur=4q:ext=ud:problem:text with extention lines	!	!
1EE] 1EEE]	1r	.	16ffn\LL	.	.
.	.	.	16ee\	.	.
.	.	.	16dd#X\	.	.
.	.	.	16ddn\JJ	.	.
.	.	.	16cc#X\LL	.	.
.	.	.	16ccn\	.	.
.	.	.	16bn\	.	.
.	.	.	16a#X\JJ	.	.
.	.	.	16an\LL	.	.
.	.	.	16g#X\	.	.
.	.	.	16gn\	.	.
.	.	.	16f#X\JJ	.	.
.	.	.	16fn\LL	.	.
.	.	.	16e\)	.	.
.	.	.	(8qgn/	.	.
.	.	.	(16fn;\)	.	.
.	.	.	16e\JJ)	.	.
!!LO:LB:g=original
=139	=139	=139	=139	=139	=139
*xywh-8:360,4038,3672,1057	*xywh-8:360,4038,3672,1057	*	*xywh-8:354,3739,3690,336	*	*
*	*tremolo	*	*	*	*
!!!OMD:
!!!OMD-mod: appasionato \na tempo
!	!	!	!LO:TX:b:B:t=appasionato.:mod=	!	!
!	!	!	!LO:TX:a:B:t=a tempo:mod=	!	!LO:DY:rj
1r	(32e<LLL 32B-</	p	(4e/	.	p
.	32G</	.	.	.	.
.	32e< 32B-</	.	.	.	.
.	32G</	.	.	.	.
.	32e< 32B-</	.	.	.	.
.	32G</	.	.	.	.
.	32e< 32B-</	.	.	.	.
.	32G</	.	.	.	.
.	32e< 32B-</	.	2ee\	.	.
.	32G</	.	.	.	.
.	32e< 32B-</	.	.	.	.
.	32G</	.	.	.	.
.	32e< 32B-</	.	.	.	.
.	32G</	.	.	.	.
.	32e< 32B-</	.	.	.	.
.	32G</JJJ)	.	.	.	.
.	(32e<LLL 32B-</	.	.	.	.
.	32G</	.	.	.	.
.	32e< 32B-</	.	.	.	.
.	32G</	.	.	.	.
.	32e< 32B-</	.	.	.	.
.	32G</	.	.	.	.
.	32e< 32B-</	.	.	.	.
.	32G</	.	.	.	.
.	32e< 32B-</	.	8.dd\L	.	.
.	32G</	.	.	.	.
.	32e< 32B-</	.	.	.	.
.	32G</	.	.	.	.
.	32e< 32B-</	.	.	.	.
.	32G</	.	.	.	.
.	32e< 32B-</	.	16cc#X\Jk)	.	.
.	32G</JJJ)	.	.	.	.
=140	=140	=140	=140	=140	=140
4EE\	(32e<LLL 32B-</	.	4cc#X\	.	.
.	32G</	.	.	.	.
.	32e< 32B-</	.	.	.	.
.	32G</	.	.	.	.
.	32e< 32B-</	.	.	.	.
.	32G</	.	.	.	.
.	32e< 32B-</	.	.	.	.
.	32G</	.	.	.	.
(2E\	32e< 32B-</	.	4gg\	.	.
.	32G</	.	.	.	.
.	32e< 32B-</	.	.	.	.
.	32G</	.	.	.	.
.	32e< 32B-</	.	.	.	.
.	32G</	.	.	.	.
.	32e< 32B-</	.	.	.	.
.	32G</JJJ)	.	.	.	.
.	.	.	(>(16qqgg/LL	.	.
.	.	.	16qqaa/JJ)	.	.
.	(32e<LLL 32B-</	.	12gg\L	.	.
.	32G</	.	.	.	.
.	32e< 32B-</	.	.	.	.
.	.	.	12ff#X\	.	.
.	32G</	.	.	.	.
.	32e< 32B-</	.	.	.	.
.	32G</	.	.	.	.
.	.	.	12gg\J	.	.
.	32e< 32B-</	.	.	.	.
.	32G</	.	.	.	.
8.D\L	32e< 32B-</	.	8aa\L	.	.
.	32G</	.	.	.	.
.	32e< 32B-</	.	.	.	.
.	32G</	.	.	.	.
.	32e< 32B-</	.	8bb-\J)	.	.
.	32G</	.	.	.	.
16C#X\Jk)	32e< 32B-</	.	.	.	.
.	32G</JJJ)	.	.	.	.
=141	=141	=141	=141	=141	=141
1C#X	(32e<LLL 32B-</	.	[2bb-\	.	.
.	32G</	.	.	.	.
.	32e< 32B-</	.	.	.	.
.	32G</	.	.	.	.
.	32e< 32B-</	.	.	.	.
.	32G</	.	.	.	.
.	32e< 32B-</	.	.	.	.
.	32G</	.	.	.	.
.	32e< 32B-</	.	.	.	.
.	32G</	.	.	.	.
.	32e< 32B-</	.	.	.	.
.	32G</	.	.	.	.
.	32e< 32B-</	.	.	.	.
.	32G</	.	.	.	.
.	32e< 32B-</	.	.	.	.
.	32G</JJJ)	.	.	.	.
.	(32e<LLL 32B-</	.	8bb-\L]	.	.
.	32G</	.	.	.	.
.	32e< 32B-</	.	.	.	.
.	32G</	.	.	.	.
.	32e< 32B-</	.	(8gg\	.	.
.	32G</	.	.	.	.
.	32e< 32B-</	.	.	.	.
.	32G</	.	.	.	.
.	32e< 32B-</	.	8ee\	.	.
.	32G</	.	.	.	.
.	32e< 32B-</	.	.	.	.
.	32G</	.	.	.	.
.	32e< 32B-</	.	8ff\J)	.	.
.	32G</	.	.	.	.
.	32e< 32B-</	.	.	.	.
.	32G</JJJ)	.	.	.	.
=142	=142	=142	=142	=142	=142
2D-X\	(32e-X<LLL 32B-</	.	(8gg\L	.	.
.	32G</	.	.	.	.
.	32e-< 32B-</	.	.	.	.
.	32G</	.	.	.	.
.	32e-< 32B-</	.	8bb-\J	.	.
.	32G</	.	.	.	.
.	32e-< 32B-</	.	.	.	.
.	32G</	.	.	.	.
.	32e-< 32B-</	.	[4ggg\	.	.
.	32G</	.	.	.	.
.	32e-< 32B-</	.	.	.	.
.	32G</	.	.	.	.
.	32e-< 32B-</	.	.	.	.
.	32G</	.	.	.	.
.	32e-< 32B-</	.	.	.	.
.	32G</JJJ)	.	.	.	.
2DD-X\	(32e-<LLL 32B-</	.	8ggg\L])	.	.
.	32G</	.	.	.	.
.	32e-< 32B-</	.	.	.	.
.	32G</	.	.	.	.
.	32e-< 32B-</	.	(8ddd\	.	.
.	32G</	.	.	.	.
.	32e-< 32B-</	.	.	.	.
.	32G</	.	.	.	.
.	32e-< 32B-</	.	8.fff\	.	.
.	32G</	.	.	.	.
.	32e-< 32B-</	.	.	.	.
.	32G</	.	.	.	.
.	32e-< 32B-</	.	.	.	.
.	32G</	.	.	.	.
.	32e-< 32B-</	.	16eee-X\Jk)	.	.
.	32G</JJJ)	.	.	.	.
*	*Xtremolo	*	*	*	*
=143	=143	=143	=143	=143	=143
!	!LO:TX:a:B:t=Fl. I.° SOLO.	!	!	!	!
4C 4CC/	(4.a-X 4.e-X 4.A-X/	.	2.eee-X\	.	.
*tremolo	*	*	*	*	*
(32A-XLLL 32E-X\	.	.	.	.	.
32c\	.	.	.	.	.
32A- 32E-\	.	.	.	.	.
32c\	.	.	.	.	.
32A- 32E-\	8b-\)	.	.	.	.
32c\	.	.	.	.	.
32A- 32E-\	.	.	.	.	.
32c\JJJ)	.	.	.	.	.
.	(16qqcc/LL	.	.	.	.
.	16qqdd-X/JJ)	.	.	.	.
(32A-LLL 32E-\	(12cc\L	.	.	.	.
32c\	.	.	.	.	.
32A- 32E-\	.	.	.	.	.
.	12b-\	.	.	.	.
32c\	.	.	.	.	.
32A- 32E-\	.	.	.	.	.
32c\	.	.	.	.	.
.	12cc\J	.	.	.	.
32A- 32E-\	.	.	.	.	.
32c\	.	.	.	.	.
32A- 32E-\	8dd-\L	.	(8ddd-X\L	.	.
32c\	.	.	.	.	.
32A- 32E-\	.	.	.	.	.
32c\	.	.	.	.	.
32A- 32E-\	8ee-X\J)	.	8ccc\J)	.	.
32c\	.	.	.	.	.
32A- 32E-\	.	.	.	.	.
32c\JJJ)	.	.	.	.	.
*Xtremolo	*	*	*	*	*
!!LO:PB:g=original
=144	=144	=144	=144	=144	=144
*xywh-9:193,890,3632,835	*xywh-9:193,890,3632,835	*	*xywh-9:199,243,3638,670	*	*
4AA-X 4AAA-X/	(12ee-X\L	.	(4ccc\	.	.
.	12dd-X\	.	.	.	.
.	12cc\J)	.	.	.	.
*tremolo	*	*	*	*	*
(32A-XLLL 32E-X\	(2eee-X\	.	8bb-\L	.	.
32c\	.	.	.	.	.
32A- 32E-\	.	.	.	.	.
32c\	.	.	.	.	.
32A- 32E-\	.	.	8aa-X\J)	.	.
32c\	.	.	.	.	.
32A- 32E-\	.	.	.	.	.
32c\JJJ)	.	.	.	.	.
.	.	.	(>(16qqaa-/LL	.	.
.	.	.	16qqbb-/JJ)	.	.
(32A-LLL 32E-\	.	.	12aa-\L	.	.
32c-X\	.	.	.	.	.
32A- 32E-\	.	.	.	.	.
.	.	.	12gg\	.	.
32c-X\	.	.	.	.	.
32A- 32E-\	.	.	.	.	.
32c-X\	.	.	.	.	.
.	.	.	12aa-\J	.	.
32A- 32E-\	.	.	.	.	.
32c-X\	.	.	.	.	.
32A- 32E-\	8.ddd-X\L	.	8.bb-\L	.	.
32c-X\	.	.	.	.	.
32A- 32E-\	.	.	.	.	.
32c-X\	.	.	.	.	.
32A- 32E-\	.	.	.	.	.
32c-X\	.	.	.	.	.
32A- 32E-\	16ccc-X\Jk)	.	16ccc-X\Jk)	.	.
32c-X\JJJ)	.	.	.	.	.
*Xtremolo	*	*	*	*	*
=145	=145	=145	=145	=145	=145
4GG#X 4GGG#X/	4bbn 4ee 4bn\	.	[2bbn\	.	.
*tremolo	*	*	*	*	*
(32BnLLL 32En\	4r	.	.	.	.
32en\	.	.	.	.	.
32B 32En\	.	.	.	.	.
32e\	.	.	.	.	.
32B 32En\	.	.	.	.	.
32e\	.	.	.	.	.
32B 32En\	.	.	.	.	.
32e\JJJ)	.	.	.	.	.
(32BLLL 32E\	4r	.	8bb\L]	.	.
32e\	.	.	.	.	.
32B 32E\	.	.	.	.	.
32e\	.	.	.	.	.
32B 32E\	.	.	(8gg#X\	.	.
32e\	.	.	.	.	.
32B 32E\	.	.	.	.	.
32e\	.	.	.	.	.
32B 32E\	[4b\	.	8dd#X\	.	.
32e\	.	.	.	.	.
32B 32E\	.	.	.	.	.
32e\	.	.	.	.	.
32B 32E\	.	.	8ee\J)	.	.
32e\	.	.	.	.	.
32B 32E\	.	.	.	.	.
32e\JJJ)	.	.	.	.	.
*Xtremolo	*	*	*	*	*
=146	=146	=146	=146	=146	=146
4EE 4EEE/	8b/L]	.	(8gg#X\L	.	.
.	(8g#X/	.	8bbn\J	.	.
*tremolo	*	*	*	*	*
(32G#XLLL 32E\	8d#X/	.	[4ggg#X\	.	.
32Bn\	.	.	.	.	.
32G# 32E\	.	.	.	.	.
32B\	.	.	.	.	.
32G# 32E\	8e/J)	.	.	.	.
32B\	.	.	.	.	.
32G# 32E\	.	.	.	.	.
32B\JJJ)	.	.	.	.	.
(32G#LLL 32E\	(8g#/L	.	8ggg#\L])	.	.
32B\	.	.	.	.	.
32G# 32E\	.	.	.	.	.
32B\	.	.	.	.	.
32G# 32E\	8bn/J)	.	(8ddd#X\	.	.
32B\	.	.	.	.	.
32G# 32E\	.	.	.	.	.
32B\	.	.	.	.	.
32G# 32E\	4gg#X\	.	8.fff#X\	.	.
32B\	.	.	.	.	.
32G# 32E\	.	.	.	.	.
32B\	.	.	.	.	.
32G# 32E\	.	.	.	.	.
32B\	.	.	.	.	.
32G# 32E\	.	.	16eee\Jk)	.	.
32B\JJJ)	.	.	.	.	.
*Xtremolo	*	*	*	*	*
=147	=147	=147	=147	=147	=147
4C 4CC/	4.aa 4.ee 4.a\	.	2.eee\	.	.
*tremolo	*	*	*	*	*
(32ELLL 32C\	.	.	.	.	.
32A\	.	.	.	.	.
32E 32C\	.	.	.	.	.
32A\	.	.	.	.	.
32E 32C\	8Bn/	.	.	.	.
32A\	.	.	.	.	.
32E 32C\	.	.	.	.	.
32A\JJJ)	.	.	.	.	.
.	(16qqc/LL	.	.	.	.
.	16qqd/JJ)	.	.	.	.
(32ELLL 32C\	(12c/L	.	.	.	.
32A\	.	.	.	.	.
32E 32C\	.	.	.	.	.
.	12B/	.	.	.	.
32A\	.	.	.	.	.
32E 32C\	.	.	.	.	.
32A\	.	.	.	.	.
.	12c/J	.	.	.	.
32E 32C\	.	.	.	.	.
32A\	.	.	.	.	.
32E 32C\	8.d/L	.	(8ddd\L	.	.
32A\	.	.	.	.	.
32E 32C\	.	.	.	.	.
32A\	.	.	.	.	.
32E 32C\	.	.	8ccc\J)	.	.
32A\	.	.	.	.	.
32E 32C\	16e/Jk)	.	.	.	.
32A\JJJ)	.	.	.	.	.
*Xtremolo	*	*	*	*	*
!!LO:LB:g=original
=148	=148	=148	=148	=148	=148
*	*^	*	*	*	*
*xywh-9:150,2042,3730,780	*xywh-9:150,2042,3730,780	*xywh-9:150,2042,3730,780	*	*xywh-9:175,1634,3578,438	*	*
4BB- 4BBB-/	(4.cc/	(12e\L	.	[2ccc\	.	.
.	.	12d\	.	.	.	.
.	.	12c\J)	.	.	.	.
*tremolo	*	*	*	*	*	*
(32ELLL 32BB-\	.	(2g\	.	.	.	.
32G\	.	.	.	.	.	.
32E 32BB-\	.	.	.	.	.	.
32G\	.	.	.	.	.	.
32E 32BB-\	8dd/)	.	.	.	.	.
32G\	.	.	.	.	.	.
32E 32BB-\	.	.	.	.	.	.
32G\JJJ)	.	.	.	.	.	.
.	(16qqee/LL	.	.	.	.	.
.	16qqff/JJ)	.	.	.	.	.
(32ELLL 32BB-\	(12ee/L	.	.	8ccc\L]	.	.
32G\	.	.	.	.	.	.
32E 32BB-\	.	.	.	.	.	.
.	12dd/	.	.	.	.	.
32G\	.	.	.	.	.	.
32E 32BB-\	.	.	.	(8ccc\	.	.
32G\	.	.	.	.	.	.
.	12ee/J	.	.	.	.	.
32E 32BB-\	.	.	.	.	.	.
32G\	.	.	.	.	.	.
.	.	.	.	8qeee-X/	.	.
32E 32BB-\	8ff/L	8f\L	.	8.ddd-X\	.	.
32G\	.	.	.	.	.	.
32E 32BB-\	.	.	.	.	.	.
32G\	.	.	.	.	.	.
32E 32BB-\	8gg/J)	8e\J)	.	.	.	.
32G\	.	.	.	.	.	.
32E 32BB-\	.	.	.	16ccc\Jk)	.	.
32G\JJJ)	.	.	.	.	.	.
*Xtremolo	*	*	*	*	*	*
*	*v	*v	*	*	*	*
=149	=149	=149	=149	=149	=149
4AA-X 4AAA-X/	(4ff 4cc 4f\	.	[2fff\	.	.
*tremolo	*	*	*	*	*
(32cLLL 32A-X\	8ggL 8g\	.	.	.	.
32f\	.	.	.	.	.
32c 32A-\	.	.	.	.	.
32f\	.	.	.	.	.
32c 32A-\	8aa-XJ 8a-X\)	.	.	.	.
32f\	.	.	.	.	.
32c 32A-\	.	.	.	.	.
32f\	.	.	.	.	.
32c 32A-\	8aa-L 8a-^\	<	8fff\L]	.	<
32f\	.	.	.	.	.
32c 32A-\	.	.	.	.	.
32f\	.	.	.	.	.
32c 32A-\	8aa- 8ff 8a-^\	.	8fff 8ff\	.	.
32f\	.	.	.	.	.
32c 32A-\	.	.	.	.	.
32fJJJ\)	.	.	.	.	.
(32c 32A-LLL\	8bb- 8gg 8b-^\	.	8fff 8ff\	.	.
32f\	.	.	.	.	.
32c 32A-\	.	.	.	.	.
32f\	.	.	.	.	.
32c 32A-\	8cccJ 8aa- 8cc^\	.	8fffJ 8ff\	.	[
32f\	.	.	.	.	.
32c 32A-\	.	.	.	.	.
32f\JJJ)	.	[[	.	.	.
*Xtremolo	*	*	*	*	*
=150	=150	=150	=150	=150	=150
12GL 12F 12BB-\	12ddd-XL 12gg 12ff 12dd-X\	.	([2fff [2ff\	.	.
12c\	12ccc 12cc\	.	.	.	.
12B-\J	12bb-J 12b-\	.	.	.	.
8f\	8fff 8ff\	.	.	.	.
8r	8r	.	.	.	.
4r	4r	.	16fff]LL 16ff\]	.	.
!	!	!	!LO:TX:b:t=molto cresc.:problem:dynamics with extention lines:mod=	!	!LO:HP:t=molto cresc.
.	.	.	16aa 16a\)	.	<
.	.	.	(16aa 16a\	.	.
.	.	.	16bb-JJ 16b-\)	.	.
4r	4r	.	(16bb-LL 16b-\	.	.
.	.	.	16ccc 16cc\)	.	.
.	.	.	(16ccc 16cc\	.	.
.	.	.	16ddd-XJJ 16dd-X\)	.	.
=151	=151	=151	=151	=151	=151
1r	1r	.	(16ddd-XLL 16dd-X\	.	.
.	.	.	16ccc 16cc\)	.	.
.	.	.	(16ccc 16cc\	.	.
.	.	.	16ddd-JJ 16dd-\)	.	.
.	.	.	(16ddd-LL 16dd-\	.	.
.	.	.	16eee 16ee\)	.	.
.	.	.	(16eee 16ee\	.	.
.	.	.	16fffJJ 16ff\)	.	.
.	.	.	(16fffLL 16ff\	.	.
.	.	.	16eee 16ee\)	.	.
.	.	.	(16eee 16ee\	.	.
.	.	.	16fffJJ 16ff\)	.	.
.	.	.	(16fffLL 16ff\	.	.
.	.	.	16aaa 16aa\)	.	.
.	.	.	(16aaa 16aa\	.	.
.	.	.	16bbb-JJ 16bb-\)	.	[
!!LO:PB:g=original
=152	=152	=152	=152	=152	=152
*xywh-9:163,3078,3517,755	*xywh-9:163,3078,3517,755	*	*xywh-9:144,2810,3681,438	*	*
*	*	*	*8va	*	*
1r	1r	.	(16bbb-LL 16bb-\	.	ff
.	.	.	16aaa 16aa\)	.	.
.	.	.	(16aaa 16aa\	.	.
.	.	.	16bbb-JJ 16bb-\)	.	.
.	.	.	(16bbb-LL 16bb-\	.	.
.	.	.	16cccc 16ccc\)	.	.
.	.	.	(16cccc 16ccc\	.	.
.	.	.	16dddd-XJJ 16ddd-X\)	.	.
!	!	!	!LO:TX:t=P:problem:mixed beam	!	!
.	.	.	8dddd-L 8ddd-\	.	.
*	*	*	*X8va	*	*
.	.	.	8A^^</	.	.
.	.	.	8B-/	.	.
.	.	.	8c/J	.	.
=153	=153	=153	=153	=153	=153
!	!	!	!LO:MO:mod=!LO&colon;TX&colon;a&colon;B&colon;t=Sul G	!	!
!	!	!	!LO:TX:a:B:t=sul G.:dur=15q:ext=ud:problem:text with extention lines	!	!
1r	1r	.	(12d-X/L	.	.
.	.	.	12c/	.	.
.	.	.	12A/J	.	.
.	.	.	12B-/L)	.	.
.	.	.	12c`/	.	.
.	.	.	12d-`/J	.	.
.	.	.	(4a-X/	.	.
.	.	.	4g/)	.	.
=154	=154	=154	=154	=154	=154
*^	*^	*	*	*	*
!	!	!	!	!	!	!	!LO:MO:null:mod=!LO&colon;DY&colon;ed=brack
!	!	!	!	!	!	!	!
!	!	!LO:TX:a:B:t=Ob. I.°	!	!	!	!	!LO:MO:null:mod=p
1A-X	[1C	(12cc/L	[1f	p	(4.f/	.	.
.	.	12b-/	.	.	.	.	.
.	.	12a-X/J)	.	.	.	.	.
.	.	2.cc/	.	.	.	.	.
.	.	.	.	.	8c/)	.	.
.	.	.	.	.	8c/L	.	.
.	.	.	.	.	8c/	.	.
.	.	.	.	.	8Bn/	.	.
.	.	.	.	.	8c/J	.	.
=155	=155	=155	=155	=155	=155	=155	=155
([4G/	1C]	(12b-/L	2f\]	.	2d-X/	.	.
.	.	12a-X/	.	.	.	.	.
.	.	12g/J)	.	.	.	.	.
12G/L]	.	(2b-/	.	.	.	.	.
12A-X/	.	.	.	.	.	.	.
12B-/J)	.	.	.	.	.	.	.
.	.	.	.	.	(8qqc/L	.	.
.	.	.	.	.	8qqe/	.	.
.	.	.	.	.	8qqd-/J)	.	.
[2c/	.	.	2en\	.	[2c/	.	.
.	.	8a-/L	.	.	.	.	.
.	.	8g/J)	.	.	.	.	.
*	*	*v	*v	*	*	*	*
!!LO:LB:g=original
=156	=156	=156	=156	=156	=156	=156
*xywh-9:163,4151,3669,877	*xywh-9:163,4151,3669,877	*xywh-9:163,4151,3669,877	*	*xywh-9:156,3761,3620,402	*	*
!LO:TX:b:B:t=Vc.	!	!	!LO:DY:b=2:rj	!	!	!
!	!	!	!LO:MO:mod=.	!	!	!
4c/]	(>8FF\L	4f/	pp	2.c,/]	.	>
!	!	!	!LO:DY:a=2	!	!	!
.	8C\)	.	pp	.	.	.
2c/	(>8C\	4r	.	.	.	.
!LO:TX:a:B:t=Corno I.°	!	!	!	!	!	!
.	8FF\J)	.	.	.	.	.
.	(>8FF\L	2r	.	.	.	]
.	8C\)	.	.	.	.	.
!	!	!	!	!LO:TX:b:B:t=simplice.	!	!LO:DY:rj
[4c/	(>8C\	.	.	(4cc\	.	p
.	8FF\J)	.	.	.	.	.
=157	=157	=157	=157	=157	=157	=157
4c/]	(>8FF\L	1e 1B-	.	12b-/L	.	.
.	.	.	.	12an/	.	.
.	8C\)	.	.	.	.	.
.	.	.	.	12g/J)	.	.
2c/	(>8C\	.	.	(2b-\	.	.
.	8FF\J)	.	.	.	.	.
.	(>8FF\L	.	.	.	.	.
.	8C\)	.	.	.	.	.
[4c/	(>8C\	.	.	8a/L	.	.
.	8FF\J)	.	.	8g/J)	.	.
=158	=158	=158	=158	=158	=158	=158
4c/]	(>8FF\L	1f 1A	.	(12a/L	.	.
.	.	.	.	12g/	.	.
.	8C\)	.	.	.	.	.
.	.	.	.	12f/J)	.	.
*	*	*	*	*	*below	*
2c/	(>8C\	.	.	[2c/	1	.
.	8FF\J)	.	.	.	.	.
.	(>8FF\L	.	.	.	.	.
.	8C\)	.	.	.	.	.
4c/	(>8C\	.	.	4c/]	3	.
.	8FF\J)	.	.	.	.	.
=159	=159	=159	=159	=159	=159	=159
*	*	*^	*	*	*	*
1F	(>8FF\L	[1f	2d\	.	(12d/L	.	<
!	!	!	!	!LO:MO:null:mod=<	!	!	!
.	.	.	.	.	12c/	.	.
.	8BB-\)	.	.	.	.	.	.
.	.	.	.	.	12B-/J)	.	.
.	(>8BB-\	.	.	.	(2f/	.	.
.	8F\J)	.	.	.	.	.	.
.	(>8F\L	.	2d-X 2B-\	.	.	.	.
.	8BB-\)	.	.	.	.	.	.
.	(>8BB-\	.	.	.	4g/)	.	[
.	8FF\J)	.	.	.	.	.	.
*v	*v	*	*	*	*	*	*
=160	=160	=160	=160	=160	=160	=160
(8FF/L	2.f/]	2.c 2.A\	.	2.a/	.	.
8C/)	.	.	.	.	.	.
(8C/	.	.	.	.	.	.
8FF/J)	.	.	.	.	.	.
(8FF/L	.	.	.	.	.	.
8C/)	.	.	.	.	.	.
(8C/	4cc/	4rcyy	.	(4cc\	.	<
8FF/J)	.	.	.	.	.	.
!!LO:PB:g=original
=161	=161	=161	=161	=161	=161	=161
*xywh-10:507,879,3525,769	*xywh-10:507,879,3525,769	*xywh-10:507,879,3525,769	*	*xywh-10:476,336,3543,598	*	*
(8FF/L	(12b-/L	4rc	.	4dd-X\	.	.
.	12a/	.	.	.	.	.
8C/)	.	.	.	.	.	.
.	12g/J)	.	.	.	.	.
(8C/	(2b-/	2c\	.	4ddn\	.	.
8FF/J)	.	.	.	.	.	.
(8FF/L	.	.	.	4ee-X\	.	.
8C/)	.	.	.	.	.	.
(8C/	8a/L	[4c\	.	4een\)	.	.
!	!	!	!LO:MO:null:mod=[	!	!	!
8FF/J)	8g/J)	.	.	.	.	[
=162	=162	=162	=162	=162	=162	=162
*^	*	*	*	*	*	*
4FF/	4ryy	(12a/L	4c\]	.	([4ff\	.	.
.	.	12g/	.	.	.	.	.
.	.	12f/J)	.	.	.	.	.
(4F/	(4D\	(>4f/	2.ryy	.	12ff\L]	.	.
.	.	.	.	.	12ee\	.	.
.	.	.	.	.	12dd\J)	.	.
4F#X/	4AA\	8e/L	.	.	([4cc\	.	.
.	.	8e-X/	.	.	.	.	.
4G/)	4BB-\)	8d/	.	.	12cc\L]	.	.
.	.	.	.	.	12b-\	.	.
.	.	8d-X/J)	.	.	.	.	.
.	.	.	.	.	12g\J)	.	.
*v	*v	*	*	*	*	*	*
=163	=163	=163	=163	=163	=163	=163
(8A\L	(4f/	1c	.	4f/	.	.
8C\	.	.	.	.	.	.
!	!	!	!LO:MO:null:mod=>	!	!	!
8A\	4f#X/	.	.	([4dd\	.	>
8C\J)	.	.	.	.	.	.
(8B-\L	4g/	.	.	12dd\L]	.	.
.	.	.	.	(12cc\	.	.
8C\	.	.	.	.	.	.
.	.	.	.	12b-\J)	.	.
8B-\	12b-/L	.	.	(8d/L	.	.
.	12a/	.	.	.	.	.
8C\J)	.	.	.	8e/J))	.	]]
!	!	!	!LO:MO:null:mod=]	!	!	!
.	12g/J)	.	.	.	.	.
*	*v	*v	*	*	*	*
=164	=164	=164	=164	=164	=164
(8FF/L	2.f 2.c 2.A/	.	2.f/	.	.
8C/)	.	.	.	.	.
(8C/	.	.	.	.	.
8FF/J)	.	.	.	.	.
(8FF/L	.	.	.	.	.
8C/)	.	.	.	.	.
(8C/	4ccc 4cc\	pp	4r	.	.
8FF/J)	.	.	.	.	.
=165	=165	=165	=165	=165	=165
*	*^	*	*^	*	*
*	*	*^	*	*	*	*	*
(8FF/L	(12bb-/L	1ee	(12b-\L	.	1rg	4r	.	.
.	12aa/	.	12a\	.	.	.	.	.
8C/)	.	.	.	.	.	.	.	.
.	12gg/J)	.	12g\J)	.	.	.	.	.
(8C/	2bb-/	.	2b-\	.	.	2g\	.	.
8FF/J)	.	.	.	.	.	.	.	.
(8FF/L	.	.	.	.	.	.	.	.
8C/)	.	.	.	.	.	.	.	.
(8C/	(8aaL 8a\	.	4ryy	.	.	[4c\	.	.
8FF/J)	8ggJ 8g\)	.	.	.	.	.	.	.
*	*v	*v	*v	*	*	*	*	*
!!LO:LB:g=original
=166	=166	=166	=166	=166	=166	=166
*xywh-10:476,1973,3501,763	*xywh-10:476,1973,3501,763	*	*xywh-10:476,1607,3501,458	*xywh-10:476,1607,3501,458	*	*
(8FF/L	(12aaL 12ff 12a\	.	1rg	4c\]	.	.
.	12gg 12g\	.	.	.	.	.
8C/)	.	.	.	.	.	.
.	12ffJ 12f\)	.	.	.	.	.
(8C/	2cc 2a 2c/	.	.	2a\	.	.
8FF/J)	.	.	.	.	.	.
(8FF/L	.	.	.	.	.	.
8C/)	.	.	.	.	.	.
(8C/	4cc 4c/	.	.	4f\	.	.
8FF/J)	.	.	.	.	.	.
=167	=167	=167	=167	=167	=167	=167
*	*^	*	*	*	*	*
(8FF/L	(12ddL 12f 12d/	2rcyy	.	1rg	2d\	.	.
.	12cc 12c/	.	.	.	.	.	.
8BB-/)	.	.	.	.	.	.	.
.	12b-J 12B-/)	.	.	.	.	.	.
(8BB-/	(2ff 2f/	.	.	.	.	.	.
8F/J)	.	.	.	.	.	.	.
(8F/L	.	2dd-X 2b-\	.	.	2d-X\	.	.
8BB-/)	.	.	.	.	.	.	.
(8BB-/	4gg 4g/)	.	.	.	.	.	.
8FF/J)	.	.	.	.	.	.	.
*	*v	*v	*	*	*	*	*
*	*	*	*v	*v	*	*
=168	=168	=168	=168	=168	=168
(8FF/L	2.aa 2.ff 2.cc 2.a\	.	4r	.	.
8C/)	.	.	.	.	.
!	!	!	!LO:MO:mod=!LO&colon;TX&colon;a&colon;B&colon;t=Sul A	!	!
!	!	!	!LO:TX:a:B:t=sul A.:dur=7q:ext=ud:problem:text with extention lines	!	!
(8C/	.	.	(2cc\	.	p
8FF/J)	.	.	.	.	.
(8C\L	.	.	.	.	.
8A\)	.	.	.	.	.
(8A\	(4cc\	.	4ccc\	.	.
8C\J)	.	.	.	.	.
=169	=169	=169	=169	=169	=169
*	*^	*	*	*	*
!	!	!LO:TX:t=P:problem:mixed beam	!	!	!	!
(2C\	4dd-X/	(8G</L	.	12bb-\L	.	.
.	.	.	.	12aa\	.	.
.	.	8g\)	.	.	.	.
.	.	.	.	12gg\J)	.	.
.	4ddn/	(8g\	.	(2bb-\	.	.
.	.	8G</J)	.	.	.	.
!	!	!LO:TX:t=P:problem:mixed beam	!	!	!	!
2C#X\)	4ee-X/	(8G</L	.	.	.	.
.	.	8g\)	.	.	.	.
.	4een/)	(8g\	.	8aa\L	.	.
.	.	8A</J)	.	8gg\J)	.	.
=170	=170	=170	=170	=170	=170	=170
!	!	!LO:TX:t=P:problem:mixed beam	!	!	!	!
(2D\	(>[>4ff/	(8A</L	.	(12ff\L	.	.
.	.	.	.	12ee\	.	.
.	.	8f\)	.	.	.	.
.	.	.	.	12dd\J)	.	.
.	12ff/L]	(8f\	.	(2a/	.	.
.	12ee/	.	.	.	.	.
.	.	8A</J)	.	.	.	.
.	12dd/J)	.	.	.	.	.
2F\)	2a/	(>8A\L	.	.	.	.
.	.	8d\)	.	.	.	.
.	.	(>8d\	.	4bn/)	.	.
.	.	8A\J)	.	.	.	.
!!LO:LB:g=original
=171	=171	=171	=171	=171	=171	=171
*xywh-10:427,3067,3556,824	*xywh-10:427,3067,3556,824	*xywh-10:427,3067,3556,824	*	*xywh-10:440,2712,3592,446	*	*
!	!	!	!LO:MO:null:mod=<	!	!	!
(8c#X\L	(4a/	1e	.	(4cc#X\	.	<
8E\	.	.	.	.	.	.
8c#\	4a#X/	.	.	[4ff#X\	.	.
8E\J)	.	.	.	.	.	.
(8d\L	4bn/	.	.	12ff#\L]	.	.
!	!	!	!LO:MO:null:mod=[	!	!	!
.	.	.	.	12ee\	.	[
8E\	.	.	.	.	.	.
.	.	.	.	12dd\J	.	.
!	!	!	!LO:MO:null:mod=>	!	!	!
8d\	12dd/L	.	.	8f#X/L	.	>
.	12cc#X/	.	.	.	.	.
8E\J)	.	.	.	8g#X/J)	.	.
.	12b/J)	.	.	.	.	.
*	*v	*v	*	*	*	*
=172	=172	=172	=172	=172	=172
!	!	!LO:MO:null:mod=]	!	!	!
(8AA\L	4a 4e 4c#X/	.	2.a/	.	]
8E\J)	.	.	.	.	.
(>8A/L	2.ryy	.	.	.	.
8E/	.	.	.	.	.
8c#X/	.	.	.	.	.
8A/J)	.	.	.	.	.
(8E\L	.	.	4r	.	.
8AA\J)	.	.	.	.	.
=173	=173	=173	=173	=173	=173
*^	*	*	*	*	*
!	!	!	!	!	!	!LO:DY:rj
(2.F/	1AA	2r	.	(8A/L	.	mf
.	.	.	.	8G#X/	.	.
.	.	.	.	8B-/	.	.
.	.	.	.	8A/J)	.	.
.	.	2d/	.	(8d/L	.	.
.	.	.	.	8e/	.	.
4A/)	.	.	.	8gn/	.	.
.	.	.	.	8fn/J)	.	.
=174	=174	=174	=174	=174	=174	=174
1E	1AA	(8c#X/L	<	[4e/	.	.
.	.	8e/J	.	.	.	.
.	.	[4cc#X\	[	12e/L]	.	.
.	.	.	.	12d/	.	.
.	.	.	.	12c#X/J	.	.
.	.	8cc#\L])	>	2e/	.	.
.	.	(8b-\	.	.	.	.
.	.	8a\	.	.	.	.
.	.	8g\J)	]	.	.	.
=175	=175	=175	=175	=175	=175	=175
(4D/	[1AA	([2f/	p	(8a/L	.	p
.	.	.	.	8g#X/	.	.
2F/	.	.	.	8b-/	.	.
.	.	.	.	8a/J)	.	.
.	.	8f/L]	.	(8dd\L	.	.
.	.	8e/	.	8ee\	.	.
4A/)	.	8c#X/	.	8ggn\	.	.
.	.	8d/J)	.	8ff\J)	.	.
!!LO:LB:g=original
=176	=176	=176	=176	=176	=176	=176
*	*	*^	*	*	*	*
*xywh-10:391,4136,3611,1002	*xywh-10:391,4136,3611,1002	*xywh-10:391,4136,3611,1002	*xywh-10:391,4136,3611,1002	*	*xywh-10:415,3788,3617,458	*	*
1ryy	2AA/_	8a/	8c#X\	.	[4ee\	.	<
!	!	!LO:TX:a:B:t=Fl. I.°	!	!	!	!	!
.	.	(8a/L	8rc	<	.	.	.
.	.	8g#X/	4rc	.	12ee\L]	.	.
.	.	.	.	.	12dd\	.	.
.	.	8a/J	.	.	.	.	.
.	.	.	.	.	12cc#X\J	.	.
.	8AA/]	8b-/L	2rc	.	4.ee\	.	[
.	8r	8bn/	.	.	.	.	.
.	4r	8ccn/	.	.	.	.	.
.	.	8cc#X/J)	.	[	8r	.	.
*v	*v	*	*	*	*	*	*
*	*v	*v	*	*	*	*
=177	=177	=177	=177	=177	=177
8DD/	(4.dd\	p	4r	.	.
8fL 8d\	.	.	.	.	.
.	.	.	(>8qa/	.	p
8f 8d\	.	.	2aau\)	.	.
8fJ 8d\	8ee\)	.	.	.	.
.	(16qqff/LL	.	.	.	.
.	16qqgg/JJ)	.	.	.	.
*tremolo	*	*	*	*	*
!LO:TX:a:t=....	!	!	!	!	!
!LO:TX:a:t=P:problem:złe wyświetlanie wartości rytmicznej tremolo	!	!	!	!	!
!LO:N:TREM:vis=2.	!	!	!	!	!
8fL 8d'\	(12ff\L	.	.	.	.
.	12ee\	.	.	.	.
8f 8d'\	.	.	.	.	.
.	12ff\J	.	.	.	.
8f 8d'\	8gg\L	.	8gg\L	.	.
8fJ 8d'\	8aa\J)	.	8ff\J	.	.
*Xtremolo	*	*	*	*	*
=178	=178	=178	=178	=178	=178
*^	*^	*	*	*	*
*	*ped	*	*	*	*	*	*
1d	4D\	(2bb-/	8rc	.	(4.ee\	.	.
.	.	.	8gL 8e\	.	.	.	.
.	4rA	.	8g 8e\	.	.	.	.
.	.	.	.	.	8qgg/	.	.
.	.	.	8gJ 8e\	.	8ff\	.	.
*	*	*	*tremolo	*	*	*	*
.	2rA	4b-/)	8gL 8e\	.	4ee\)	.	.
.	.	.	8g 8e\	.	.	.	.
.	.	4rg	8g 8e\	.	4r	.	.
.	.	.	8gJ 8e\	.	.	.	.
*	*	*	*Xtremolo	*	*	*	*
=179	=179	=179	=179	=179	=179	=179	=179
1c	4D\	(4.ff#X/	8rc	.	4r	.	.
.	.	.	8f#XL 8d\	.	.	.	.
.	.	.	.	.	(>8qcc/	.	.
.	4rA	.	8f# 8d\	.	(2ccc\)	.	.
.	.	8gg/)	8f#J 8d\	.	.	.	.
.	.	(16qqaa/LL	.	.	.	.	.
.	.	16qqbb-/JJ)	.	.	.	.	.
*	*	*	*tremolo	*	*	*	*
.	2rA	(12aa/L	8f#L 8d\	.	.	.	.
.	.	12gg#X/	.	.	.	.	.
.	.	.	8f# 8d\	.	.	.	.
.	.	12aa/J	.	.	.	.	.
.	.	8bb-/L	8f# 8d\	.	8bb-\L	.	.
.	.	8ccc/J)	8f#J 8d\	.	8aa\J)	.	.
*	*	*	*Xtremolo	*	*	*	*
!!LO:PB:g=original
=180	=180	=180	=180	=180	=180	=180	=180
*xywh-11:126,896,3669,768	*xywh-11:126,896,3669,768	*xywh-11:126,896,3669,768	*xywh-11:126,896,3669,768	*	*xywh-11:193,298,3559,627	*	*
1Bn	4D\	(2ddd/	8fnL 8d\	.	(1gg#X	.	<
.	.	.	8f 8d\	.	.	.	.
.	4rA	.	8f 8d\	.	.	.	.
.	.	.	8fJ 8d\	.	.	.	.
*	*	*	*tremolo	*	*	*	*
.	2rA	4dd/)	8fL 8d\	.	.	.	[
.	.	.	8f 8d\	.	.	.	.
.	.	4r	8f 8d\	.	.	.	.
.	.	.	8fJ 8d\	.	.	.	.
*	*	*	*Xtremolo	*	*	*	*
*v	*v	*	*	*	*	*	*
*	*v	*v	*	*	*	*
=181	=181	=181	=181	=181	=181
4C#X\	4g 4e [4A/	.	8ggn\L)	.	.
.	.	.	(8eee\	.	.
4D\	4f 4A/]	.	8ddd\)	.	.
.	.	.	(8ff\J	.	.
4AA\	[2f [2e-X [>2F</	.	8ee-X\L)	.	.
.	.	.	(8ccc\	.	.
4BB-\	.	.	8bb-\	.	.
.	.	.	8b-\J)	.	.
=182	=182	=182	=182	=182	=182
4BBn\	8f]L 8e-] 8F</]	.	(8a\L	.	.
.	8f 8e-X 8F</	.	8gg\J)	.	.
2C\	8f 8e- 8F</	.	(4.ff\	.	.
.	8fJ 8e- 8F</	.	.	.	.
*	*tremolo	*	*	*	*
.	8fL 8e- 8F</	.	.	.	.
.	8f 8e- 8F</	.	8bn\L	.	.
4E-X\	8f 8e- 8F</	.	8dd\	.	.
.	8fJ 8e- 8F</	.	8cc\J)	.	.
=183	=183	=183	=183	=183	=183
4.C\	8fL 8e-X 8F</	.	(8ee-X\L	.	.
.	8f 8e- 8F</	.	8ff\J)	.	.
.	8f 8e- 8F</	.	(2eee-X\	.	.
8BB-\	8fJ 8e- 8F</	.	.	.	.
4AA\	8fL 8e- 8F</	.	.	.	.
.	8fJ 8e- 8F</	.	.	.	.
4FF\	8fL 8e- 8A< 8F</	.	8ddd\L	.	.
.	8fJ 8e- 8A< 8F</	.	8ccc#X\J)	.	.
*	*Xtremolo	*	*	*	*
=184	=184	=184	=184	=184	=184
*^	*^	*	*	*	*
(4F/	2BB-\	(12dd/L	(2d\	.	2ddd\	.	.
.	.	12cc/	.	.	.	.	.
.	.	12b-/J)	.	.	.	.	.
4F#X/	.	2.dd/	.	.	.	.	.
.	.	.	.	.	(16qqgg/LL	.	.
.	.	.	.	.	16qqaa/JJ)	.	.
2G/)	2E-X\	.	2g\)	.	(12gg\L	.	<
.	.	.	.	.	12ff#X\	.	.
.	.	.	.	.	12gg\J	.	.
.	.	.	.	.	8aa\L	.	.
.	.	.	.	.	8bb-\J)	.	.
!!LO:LB:g=original
=185	=185	=185	=185	=185	=185	=185	=185
*xywh-11:114,2024,3590,707	*xywh-11:114,2024,3590,707	*xywh-11:114,2024,3590,707	*xywh-11:114,2024,3590,707	*	*xywh-11:126,1640,3596,432	*	*
(4E-X/	2AA\	(12cc/L	(2c\	.	2ccc\	.	.
.	.	12b-/	.	.	.	.	.
.	.	12a/J)	.	.	.	.	.
4En/	.	2.cc/	.	.	.	.	.
.	.	.	.	.	(16qqff/LL	.	.
.	.	.	.	.	16qqgg/JJ)	.	.
2F/)	2D\	.	2f\)	.	(12ff\L	.	.
.	.	.	.	.	12een\	.	.
.	.	.	.	.	12ff\J	.	.
.	.	.	.	.	8gg\L	.	.
.	.	.	.	.	8aa\J)	.	.
=186	=186	=186	=186	=186	=186	=186	=186
*	*	*	*^	*	*	*	*
1G	(2GG\	12b-/L	(>2d\	[<1B-	.	[4bb-\	.	.
.	.	12a/	.	.	.	.	.	.
.	.	12g/J	.	.	.	.	.	.
.	.	[4b-/	.	.	.	12bb-\L]	.	.
!	!	!	!	!	!	!	!	!LO:MO:null:mod=[
.	.	.	.	.	.	12aa\	.	.
.	.	.	.	.	.	12gg\J	.	.
.	2F\)	12b-/L]	2d-X\)	.	.	[4b-\	.	.
.	.	12a/	.	.	.	.	.	.
.	.	12g/J	.	.	.	.	.	.
.	.	4b-/	.	.	.	12b-/L]	.	.
.	.	.	.	.	.	12a/	.	.
.	.	.	.	.	.	12g/J	.	.
*v	*v	*	*	*	*	*	*	*
*	*v	*v	*v	*	*	*	*
=187	=187	=187	=187	=187	=187
8G 8En\	8b-L 8c 8B-/]	.	(<1b-	.	.
8r	(8Bn/	<	.	.	.
4r	8d/	.	.	.	.
.	8c/J	.	.	.	.
2r	8en/L	.	.	.	.
.	8g/	.	.	.	.
.	8dd/	.	.	.	.
.	8cc/J)	[	.	.	.
=188	=188	=188	=188	=188	=188
*^	*	*	*	*	*
!	!	!	!	!LO:MO:mod=!LO&colon;TX&colon;a&colon;B&colon;t=Sul G	!	!
!	!	!	!LO:MO:mod=.	!LO:TX:a:B:t=sul G.:dur=8qs:ext=ud:problem:text with extention lines	!	!
2r	2rEEyy	(12b-/L	p	12c/L)	.	f
.	.	12a/	.	12c^/	.	.
.	.	12g/J)	.	12d-X^/J	.	.
.	.	(<2b-\	.	12c^/L	.	.
.	.	.	.	12dn^/	.	.
.	.	.	.	12c^/J	.	.
!	!	!	!LO:DY:a=2:rj	!	!	!
4c 4B-/	4C\	.	p	12e-X^/L	.	.
.	.	.	.	12c^/	.	.
.	.	.	.	12en^/J	.	.
4r	4rEEyy	8a/L	.	(12c/L	.	.
.	.	.	.	12cc/	.	.
.	.	8g/J)	.	.	.	.
.	.	.	.	12b-/J)	.	.
!!LO:LB:g=original
=189	=189	=189	=189	=189	=189	=189
*xywh-11:138,3115,3706,737	*xywh-11:138,3115,3706,737	*xywh-11:138,3115,3706,737	*	*xywh-11:144,2749,3651,384	*	*
2r	2rEEyy	(12a/L	.	(12a/L	.	.
.	.	12g/	.	12c/	.	.
.	.	12f/J)	.	12d/J	.	.
.	.	2c/	.	12e/L)	.	.
.	.	.	.	12f/	.	.
.	.	.	.	12g/J	.	.
4A/	4C 4FF\	.	.	(12a/L	.	.
.	.	.	.	12g/)	.	.
.	.	.	.	12f`/J	.	.
.	.	.	.	(8qqf/L	.	.
.	.	.	.	8qqg/J	.	.
4r	4rEEyy	4c/	.	12f/L	.	.
.	.	.	.	12e/)	.	.
.	.	.	.	(12f/J	.	.
=190	=190	=190	=190	=190	=190	=190
*	*	*	*	*	*above	*
2r	2rEEyy	12d/L	<	16dd/LL)o	3	p
.	.	.	.	(16A/	.	.
.	.	12c/	.	.	.	.
.	.	.	.	16B-/)	.	.
.	.	12B-/J	.	.	.	.
.	.	.	.	16c#X`/JJ	4	.
.	.	(2f/	.	(16d/LLo	.	.
.	.	.	.	16e/)	.	.
.	.	.	.	16f`/	.	.
!	!	!	!	!LO:TX:b:t=cresc.:problem:dynamics with extention lines:mod=	!	!LO:HP:t=cresc.
.	.	.	.	(<16a/JJ	.	<
4d-X 4B-/	4F 4BB-\	.	.	16b-\LL)	.	.
.	.	.	.	16cc\	.	.
.	.	.	.	(16dd-X\	.	.
.	.	.	.	16ee\JJ)o	.	.
4r	4rEEyy	4g/)	.	16ff`\LL	3	.
.	.	.	[	(16aa\	.	.
.	.	.	.	16bb-\	.	.
.	.	.	.	16fff\JJ)	.	.
*v	*v	*	*	*	*	*
=191	=191	=191	=191	=191	=191
4F\	4a 4c 4A/	.	(16ccc\LL	1	.
.	.	>	16aa\)	.	.
.	.	.	16ccc\	.	.
.	.	.	16fff\JJ	.	.
4C/	4c/	.	16ccc\LL	.	.
.	.	.	16fff\	1	.
.	.	.	16aaa\	.	.
.	.	.	16fff\JJ	.	.
4C/	4c/	]	16aaa\LL	1	.
.	.	.	16cccc\	.	.
.	.	.	16aaa\	.	.
.	.	.	16cccc\JJ	.	.
[4c\	4cc\	p	8ffff\	.	[ f
.	.	.	8r	.	.
=192	=192	=192	=192	=192	=192
*^	*	*	*	*	*
!	!	!	!	!	!	!LO:DY:rj
4c\]	4rEEyy	(12b-/L	.	12ccL 12c/	.	mf
.	.	12a/	.	12cc 12c/	.	.
.	.	12g/J)	.	12ccJ 12d-X/	.	.
4r	4rEEyy	(<2b-\	.	12ccL 12c/	.	.
.	.	.	.	12cc 12dn/	.	.
.	.	.	.	12ccJ 12c/	.	.
4c 4B-/	4C\	.	.	12ccL 12e-X/	.	.
.	.	.	.	12cc 12c/	.	.
.	.	.	.	12ccJ 12en/	.	.
4r	4rEEyy	8a/L	.	12c\L	.	.
.	.	.	.	12ccc 12ee\	.	.
.	.	8g/J)	.	.	.	.
.	.	.	.	12bb-J 12cc\	.	.
!!LO:PB:g=original
=193	=193	=193	=193	=193	=193	=193
*xywh-11:96,4224,3724,871	*xywh-11:96,4224,3724,871	*xywh-11:96,4224,3724,871	*	*xywh-11:114,3797,3620,457	*	*
!	!	!	!	!LO:TX:b:t=cresc.:problem:dynamics with extention lines:mod=	!	!LO:HP:t=cresc.
2r	2rEEyy	12f/L	.	12aaL 12ff/	.	<
.	.	12e/	.	12a 12d/	.	.
.	.	12d/J	.	12aJ 12f/	.	.
.	.	(2a/	.	12ddL 12a\	.	.
.	.	.	.	12ff 12dd\	.	.
.	.	.	.	12aaJ 12ff\	.	.
4f/	4A 4D\	.	.	12dddL 12ff\	.	.
.	.	.	.	12aa 12ff\	.	.
.	.	.	.	12dddJ 12ff\	.	.
4r	4rEEyy	4bn\)	.	12fffL 12aa\	.	.
.	.	.	.	12ddd 12ff\	.	.
.	.	.	.	12aaaJ 12ff\	.	[
*v	*v	*	*	*	*	*
=194	=194	=194	=194	=194	=194
!	!	!	!	!	!LO:DY:rj
4e 4c 4G\	(4cc\	<	(12eL 12G\	.	f
.	.	.	12gg 12cc\)	.	.
.	.	.	(12eJ 12G\	.	.
4r	4cc#X\)	.	12ggL 12cc#X\)	.	.
.	.	.	(12e 12G\	.	.
.	.	.	12aaJ 12cc#\)	.	.
4f 4Bn 4G\	(4dd\	.	(12fL 12G\	1	.
.	.	.	12aa 12dd\)	2	.
.	.	.	(12fJ 12G\	.	.
4r	12ff\L	.	12bb-XL 12dd\)	.	.
.	12ee\	.	(12f 12G\	.	.
.	12dd\J)	[	12bbnJ 12dd\)	.	.
=195	=195	=195	=195	=195	=195
8e 8c\	8cc\	>	12c\L	.	.
.	.	.	12ccc 12ee 12g\	.	.
8r	8r	.	.	.	.
.	.	.	((<12Bn\J	.	.
8c\	8cc\	.	12c/L)	.	.
.	.	.	(12bn/	.	.
8r	8r	.	.	.	.
.	.	.	12cc/J)	.	.
8C/	8c/	]	(12bbn\L	.	.
.	.	.	12ccc\)	.	.
8r	8r	.	.	.	.
!	!	!	!LO:N:n=2:vis=2	!	!
.	.	.	12bbbnJ 12ree 12rb'\)	.	.
!	!	!	!LO:N:n=2:vis=2	!	!
4r	4cc\	.	8cccc 8rff 8rcc^^\	.	.
.	.	.	8r	.	.
=196	=196	=196	=196	=196	=196
*^	*	*	*	*	*
!	!	!	!	!LO:MO:mod=!LO&colon;TX&colon;a&colon;B&colon;t=Sul G	!	!
!	!	!	!	!LO:TX:a:B:t=sul G.:dur=8qs:ext=ud:problem:text with extention lines	!	!LO:DY:rj
2r	2rEEyy	12b-/L	p	12c/L	.	f
.	.	12a/	.	12c/	.	.
.	.	12g/J	.	12d-X/J	.	.
.	.	(2b-\	.	12c/L	.	.
.	.	.	.	12dn/	.	.
.	.	.	.	12c/J	.	.
4c 4B-/	4C\	.	.	12e-X/L	.	.
.	.	.	.	12c/	.	.
.	.	.	.	12en/J	.	.
4r	4rEEyy	8a/L	.	(12c/L	.	.
.	.	.	.	12cc/	.	.
.	.	8g/J)	.	.	.	.
.	.	.	.	12b-/J)	.	.
!!LO:PB:g=original
=197	=197	=197	=197	=197	=197	=197
*xywh-12:415,873,3653,769	*xywh-12:415,873,3653,769	*xywh-12:415,873,3653,769	*	*xywh-12:421,293,3586,666	*	*
2r	2rEEyy	(12a/L	.	(12a/L	.	.
.	.	12g/	.	12c/	.	.
.	.	12f/J)	.	12d/J	.	.
.	.	2c/	.	12e/L)	.	.
.	.	.	.	12f`/	.	.
.	.	.	.	12g`/J	.	.
4A/	4C 4FF\	.	.	(12a/L	.	.
.	.	.	.	12g/)	.	.
.	.	.	.	12f`/J	.	.
.	.	.	.	(16qqf^^/LL	.	.
.	.	.	.	16qqg/JJ	.	.
4r	4rEEyy	4c/	.	(12f/L)	.	.
.	.	.	.	12e/)	.	.
.	.	.	.	(12fu/J	.	.
=198	=198	=198	=198	=198	=198	=198
2r	2rEEyy	(12d/L	.	16dd`/LL)	.	.
.	.	.	.	(16A/	.	.
.	.	12c/	.	.	.	.
.	.	.	.	16B-/)	.	.
.	.	12B-/J)	.	.	.	.
.	.	.	.	16c#X`/JJ	4	.
.	.	(2f/	.	(16d/LLo	.	.
.	.	.	.	16e/)	.	.
.	.	.	.	16f`/	.	.
.	.	.	.	(<16a/JJ	.	.
4d-X 4B-/	4F 4BB-\	.	.	16b-\LL)	.	.
.	.	.	.	16cc\	.	.
.	.	.	.	(16dd-X\	.	.
.	.	.	.	16ee\JJ)o	.	.
4r	4rEEyy	4g/)	.	16ff`\LL	3	.
.	.	.	.	(16aa\	.	.
.	.	.	.	16bb-\	.	.
.	.	.	.	16fff\JJ)	.	.
*v	*v	*	*	*	*	*
=199	=199	=199	=199	=199	=199
4F\	4a 4c 4A/	.	(16ccc\LL	1	<
.	.	.	16aa\)	.	.
.	.	.	16ccc\	.	.
.	.	.	16fff\JJ	.	.
(4F'\	(4f'/	.	16ccc\LL	.	.
.	.	.	16fff\	1	.
.	.	.	16aaa\	.	.
.	.	.	16fff\JJ	.	.
4F'\)	4f'/)	.	16aaa\LL	1	.
.	.	.	16cccc\	.	.
.	.	.	16aaa\	.	.
.	.	.	16cccc\JJ	.	[
4r	4ff 4f\	.	8ffff\	.	f
.	.	.	8r	.	.
=200	=200	=200	=200	=200	=200
*	*^	*	*	*	*
*	*	*^	*	*	*	*
1A 1F 1BB-	(12ee-X/L	1a	(<12e-X\L	mf	12ffL 12f\	.	.
.	12dd/	.	12d\	.	12ff 12f\	.	.
.	12cc/J)	.	12c\J)	.	12ffJ 12g-X\	.	.
.	2ee- 2e-/	.	4ryy	.	12ffL 12f\	.	.
.	.	.	.	.	12ff 12gn\	.	.
.	.	.	.	.	12ffJ 12f\	.	.
.	.	.	2ryy	.	12ffL 12a-X\	.	.
.	.	.	.	.	12ff 12f\	.	.
.	.	.	.	.	12ffJ 12an\	.	.
.	8ddL 8d/	.	.	.	12ffL 12f\	.	.
.	.	.	.	.	12fff 12ff\	.	.
.	8ccJ 8c/	.	.	.	.	.	.
.	.	.	.	.	12eee-XJ 12ff\	.	.
*	*v	*v	*v	*	*	*	*
!!LO:LB:g=original
=201	=201	=201	=201	=201	=201
*xywh-12:391,2022,3653,659	*xywh-12:391,2022,3653,659	*	*xywh-12:544,1625,3446,439	*	*
!	!	!LO:MO:null:mod=<	!	!	!
4B- 4F 4BB-\	4dd 4d/	.	12dddL 12ff\	.	<
.	.	.	12dd 12d\	.	.
.	.	.	12ee-XJ 12d\	.	.
4A [4D 4AA\	4f#X 4c/	.	12ddL 12d\	.	.
.	.	.	12ddd 12dd\	.	.
!	!	!LO:MO:null:mod=[	!	!	!
.	.	.	12cccJ 12dd\	.	[
!	!	!	!	!	!LO:DY:rj
!	!	!LO:MO:null:mod=!LO&colon;DY&colon;ed=brack	!	!	!
!	!	!	!	!	!
!	!	!LO:MO:null:mod=f	!	!	!
(4G 4D] 4GG\	(>4g 4B-/	.	12bb-L 12gg 12d 12G\	.	f
.	.	.	12aa 12ff\	.	.
.	.	.	12ggJ 12een 12g\o<	4	.
8A\L	8a/L	.	(12ffL 12dd^\	.	.
.	.	.	12ee 12cc^\)	.	.
8B-\J)	8b-/J)	.	.	.	.
.	.	.	12ddJ 12b-^\	.	.
=202	=202	=202	=202	=202	=202
[1A [1C	[1cc [>1f [1c	.	12ccL 12a\	.	.
.	.	.	(12a 12f\	.	.
.	.	.	12b-J 12g\	.	.
.	.	.	12bnL 12g#X\	.	.
.	.	.	12cc 12a\	.	.
.	.	.	12aaJ 12cc\)	.	.
.	.	.	12aaL 12ccv\	.	.
.	.	.	(12ff 12a\	.	.
.	.	.	12ggJ 12cc\	.	.
.	.	.	12aaL 12ff\	.	.
.	.	.	12bb- 12gg\	.	.
.	.	.	12bbnJ 12gg#X\)	.	.
=203	=203	=203	=203	=203	=203
*	*	*	*	*^	*
!	!	!	!LO:TX:t=P:problem:mixed beam	!	!	!
4A] 4C\]	4cc] 4f] 4c/]	.	12cccL 12aa\o<	2	4	.
.	.	.	(12A/	.	.	<
!	!	!	!LO:MO:mod=!LO&colon;TX&colon;a&colon;B&colon;t=Sul D_G	!	!	!
!	!	!	!LO:TX:a:B:t=sul D_G.:dur=3qe:ext=ud:problem:text with extention lines	!	!	!
.	.	.	12c/J	.	.	.
4r	4r	.	12e/L	.	.	.
.	.	.	12f/	.	.	.
.	.	.	12dd/J)	.	5	.
2r	2r	.	(12cc/L	.	.	[
.	.	.	12a/	.	.	.
.	.	.	12e/J	.	.	.
.	.	.	12g/L	.	.	.
.	.	.	12f/	.	2	.
.	.	.	12d/J)	.	2	.
*	*	*	*	*v	*v	*
=204	=204	=204	=204	=204	=204
2r	2r	.	(24c/LL	.	.
.	.	.	24d/	.	.
.	.	.	24c/	.	.
.	.	.	24Bn/	.	.
.	.	.	24c/	.	.
.	.	.	24a/JJ)	.	.
!	!	!	!LO:TX:b:B:t=rit.	!	!
.	.	.	(2a/	.	.
!	!LO:TX:b:Bi:t=rit.	!	!	!	!
2c 2B- 2C\	2cc 2e/	.	.	.	.
.	.	.	4g/)	.	.
!!LO:LB:g=original
=205	=205	=205	=205	=205	=205
*xywh-12:336,3110,3678,672	*xywh-12:336,3110,3678,672	*	*xywh-12:397,2651,3635,494	*	*
!	!	!	!LO:TX:a:B:t=a tempo	!	!
8A 8C 8FF\	8ff 8a 8f\	.	8f/	.	.
8r	8r	.	8r	.	.
*	*	*	*	*below	*
!	!	!	!	!	!LO:DY:rj
4r	4r	.	16aLL 16f`\o	1	f
.	.	.	16a 16f`\	.	.
.	.	.	(16aa 16a^\	.	.
.	.	.	16aJJ 16f\)	.	.
*	*	*	*	*above	*
2r	2r	.	16f^/LL	4	.
.	.	.	16e/	.	.
.	.	.	16d/	.	.
.	.	.	16c/JJ	.	.
*	*	*	*	*below	*
.	.	.	16aLL 16f`\o	1	.
.	.	.	16a 16f`\	.	.
.	.	.	(16ccc 16a^\	.	.
.	.	.	16aJJ 16f\)	.	.
=206	=206	=206	=206	=206	=206
*	*	*	*	*above	*
1r	1r	.	16f^/LL	4	.
.	.	.	16e/	.	.
.	.	.	16d/	.	.
.	.	.	16c/JJ	.	.
.	.	.	16ccLL 16a`\o<	2	.
.	.	.	16cc 16a`\	.	.
.	.	.	(16fff 16a^\	.	.
.	.	.	16ccJJ 16a\)	.	.
.	.	.	16aLL 16f`\	.	.
.	.	.	16a 16f`\	.	.
.	.	.	(16ccc 16a^\	.	.
.	.	.	16aJJ 16f\)	.	.
.	.	.	16c`\LL	.	.
.	.	.	16c`\	.	.
.	.	.	(16aa 16a^\	.	.
.	.	.	16c\JJ)	.	.
=207	=207	=207	=207	=207	=207
*^	*	*	*	*	*
2r	2rEEyy	[1fn^>	p	8G/	.	.
.	.	.	.	8r	.	.
.	.	.	.	(16fu/LL	.	p
.	.	.	.	16f#X/	.	.
!	!	!	!	!LO:MO:mod=!LO&colon;TX&colon;a&colon;B&colon;t=Sul D	!	!
!	!	!	!	!LO:TX:a:B:t=sul D.:dur=7q:ext=ud:problem:text with extention lines	!	!
.	.	.	.	16a/	.	.
.	.	.	.	16g/JJ	.	.
8BnL 8G/	8GG\L	.	.	8.ddd\L)o	3	.
8BJ 8G/	8GG\J	.	.	.	.	.
*	*	*	*	*	*below	*
.	.	.	.	(16ddd^\Jk	3	.
!	!	!	!	!LO:TX:b:t=cresc.:problem:dynamics with extention lines:mod=	!	!LO:HP:t=cresc.
4r	4rEEyy	.	.	16ccc#X^\LL	3	<
.	.	.	.	16cccn^\	3	.
.	.	.	.	16bbn^\	3	.
.	.	.	.	16bb-X^\JJ	3	.
=208	=208	=208	=208	=208	=208	=208
4c 4B-X/	4G 4C\	2f/]	.	16aa^\LL	3	.
.	.	.	.	16gg#X^\	3	.
.	.	.	.	16ggn^\	3	.
.	.	.	.	16ff#X^\JJ	3	.
4r	4rEEyy	.	.	16ffn^\LL	3	.
.	.	.	.	16ee^\	3	.
.	.	.	.	16ee-X^\	3	.
.	.	.	.	16dd^\JJ	3	.
4c 4B-/	4G 4C\	2e/	.	16cc#X^\LL	3	.
.	.	.	.	16ccn^\	3	.
.	.	.	.	16bn^\	3	.
.	.	.	.	16b-X^\JJ	3	.
4r	4rEEyy	.	.	16a^\LL	3	.
.	.	.	.	16a-X^\	3	.
.	.	.	.	16g^\	3	.
.	.	.	.	16g-X^\JJ)	3	[
*v	*v	*	*	*	*	*
!!LO:LB:g=original
=209	=209	=209	=209	=209	=209
*xywh-12:317,4179,3708,977	*xywh-12:317,4179,3708,977	*	*xywh-12:324,3751,3715,470	*	*
8F 8C 8FF/	8f 8c 8A/	.	8f,/	.	.
8r	8r	.	8r	.	.
!	!	!	!	!	!LO:DY:rj
4r	4r	.	16aLL 16f`u\	.	f
.	.	.	16a 16f`\	.	.
.	.	.	(16aa 16a^\	.	.
.	.	.	16aJJ 16f\)	.	.
*	*	*	*	*above	*
2r	2r	.	16f^/LL	4	.
.	.	.	16e/	.	.
.	.	.	16d/	.	.
.	.	.	16c/JJ	.	.
.	.	.	16aLL 16f`\	.	.
.	.	.	16a 16f`\	.	.
.	.	.	(16ccc 16a^\	.	.
.	.	.	16aJJ 16f\)	.	.
=210	=210	=210	=210	=210	=210
1r	1r	.	16f^/LL	4	.
.	.	.	16e/	.	.
.	.	.	16d/	.	.
.	.	.	16c/JJ	.	.
.	.	.	16ccLL 16a`\	.	.
.	.	.	16cc 16a`\	.	.
.	.	.	(16fff 16a^\	.	.
.	.	.	16ccJJ 16a\)	.	.
.	.	.	16aLL 16f`\	.	.
.	.	.	16a 16f`\	.	.
.	.	.	(16ccc 16a^\	.	.
.	.	.	16aJJ 16f\)	.	.
.	.	.	16c`\LL	.	.
.	.	.	16c`\	.	.
.	.	.	(16aa 16a^\	.	.
.	.	.	16c\JJ)	.	.
=211	=211	=211	=211	=211	=211
*^	*	*	*	*	*
2r	2rEEyy	[1f^>	p	8G/	.	.
.	.	.	.	8r	.	.
!	!	!	!	!LO:MO:mod=!LO&colon;TX&colon;a&colon;B&colon;t=Sul D	!	!
!	!	!	!	!LO:TX:a:B:t=sul D.	!	!
.	.	.	.	(16fu/LL	.	p
.	.	.	.	16f#X/	.	.
.	.	.	.	16a/	.	.
.	.	.	.	16g/JJ	.	.
8BnL 8G/	8GG\L	.	.	8.ddd\L)o	3	.
8BJ 8G/	8GG\J	.	.	.	.	.
*	*	*	*	*	*below	*
.	.	.	.	(16ddd^^^\Jk	3	.
4r	4rEEyy	.	.	16ccc#X^\LL	3	.
!	!	!	!	!LO:TX:b:t=cresc.:problem:dynamics with extention lines:mod=	!	!LO:HP:t=cresc.
.	.	.	.	16cccn^\	3	<
.	.	.	.	16bbn^\	3	.
.	.	.	.	16bb-X^\JJ	3	.
=212	=212	=212	=212	=212	=212	=212
4c 4B-X/	4G 4C\	2f/]	.	16aa^\LL	3	.
.	.	.	.	16gg#X^\	3	.
.	.	.	.	16ggn^\	3	.
.	.	.	.	16ff#X^\JJ	3	.
4r	4rEEyy	.	.	16ffn^\LL	3	.
.	.	.	.	16ee^\	3	.
.	.	.	.	16ee-X^\	3	.
.	.	.	.	16dd^\JJ	3	.
4c 4B-/	4G 4C\	2e/	.	16cc#X^\LL	3	.
.	.	.	.	16ccn^\	3	.
.	.	.	.	16bn^\	3	.
.	.	.	.	16b-X^\JJ	3	.
4r	4rEEyy	.	.	16a^\LL	3	.
.	.	.	.	16a-X^\	3	.
.	.	.	.	16g^\	3	.
.	.	.	.	16g-X^\JJ)	3	[
*v	*v	*	*	*	*	*
!!LO:PB:g=original
=213	=213	=213	=213	=213	=213
*xywh-13:193,933,3535,725	*xywh-13:193,933,3535,725	*	*xywh-13:199,293,3608,719	*	*
!	!	!LO:DY:rj	!	!	!LO:DY:rj
8F 8C 8FF\	8fL 8c 8A/	f	8f 8A/	.	f
8r	8fJ 8c 8A/	.	8r	.	.
8C/	8r	p	(16a^\LL	.	.
.	.	.	16b-\	.	.
8r	8f/	.	16bn\	.	.
.	.	.	16cc\JJ)	.	.
8F\	8r	.	(16aa^\LL	.	.
.	.	.	16bb-X\	.	.
8r	8a 8f/	<	16bbn\	.	.
.	.	.	16ccc\JJ)	.	.
8C/	8r	.	(16a^\LL	.	.
.	.	.	16b-X\	.	.
8r	8cc 8a\	.	16bn\	.	.
.	.	.	16cc\JJ)	.	.
=214	=214	=214	=214	=214	=214
8FF/	8r	.	(16A/LL	.	.
.	.	.	16B-/	.	.
8r	8ff 8cc\	.	16Bn^/	.	.
.	.	.	16c/JJ)	.	.
8C/	8r	.	(16a\LL	.	.
.	.	.	16b-X\	.	.
8r	8aa 8ff\	.	16bn^\	.	.
.	.	.	16cc\JJ)	.	.
8F\	8r	.	(16aa\LL	.	.
.	.	.	16bb-X\	.	.
8r	8ccc 8aa\	.	16bbn^\	.	.
.	.	.	16ccc\JJ)	.	.
8FF/	8r	.	(16a\LL	.	.
.	.	.	16b-X\	.	.
8r	8fff 8aa\	[	16bn^\	.	.
.	.	.	16cc\JJ)	.	.
=215	=215	=215	=215	=215	=215
!	!	!	!	!	!LO:DY:rj
8CL 8CC/	8eeeL 8bb- 8ee\	f	(4b-X\	.	f
8CJ 8CC/	8eeeJ 8bb- 8ee\	.	.	.	.
4r	4r	.	16bbb-\LL)	.	.
.	.	.	(16aaa'^^\	.	.
.	.	.	16ggg'\	.	.
.	.	.	16fff'\JJ	.	.
2r	2r	.	16eee'\LL	.	.
.	.	.	16ddd'\	.	.
.	.	.	16ccc'\	.	.
.	.	.	16bbn'\JJ	.	.
.	.	.	16ddd'\LL	.	.
.	.	.	16ccc'\	.	.
.	.	.	16bb-X'\	.	.
.	.	.	16gg'\JJ	.	.
=216	=216	=216	=216	=216	=216
1r	1c^	.	16ee'\LL	.	.
.	.	.	16cc'\	.	.
.	.	.	16bn'\	.	.
.	.	.	16cc'\JJ	.	.
.	.	.	16dd'\LL	.	.
.	.	.	16cc'\	.	.
.	.	.	16b-X'\	.	.
.	.	.	16g'\JJ	.	.
.	.	.	16e'/LL	.	.
.	.	.	16c'/	.	.
.	.	.	16Bn'/	.	.
.	.	.	16c'/JJ	.	.
.	.	.	16d-X'/LL	.	.
.	.	.	16dn'/	.	.
.	.	.	16e-X'/	.	.
.	.	.	16en'/JJ)	.	.
!!LO:LB:g=original
=217	=217	=217	=217	=217	=217
*xywh-13:150,2030,3730,786	*xywh-13:150,2030,3730,786	*	*xywh-13:163,1609,3669,444	*	*
8FL 8C 8FF\	8fL 8c 8A/	ff	4fu/	.	.
8FJ 8C 8FF\	8fJ 8c 8A/	.	.	.	.
8C/	8r	p	(16a^\LL	.	.
.	.	.	16b-\	.	.
8r	8f/	.	16bn\	.	.
.	.	.	16cc\JJ)	.	.
8F\	8r	.	(16aa^\LL	.	.
.	.	.	16bb-X\	.	.
8r	8a 8f/	<	16bbn\	.	.
.	.	.	16ccc\JJ)	.	.
8C/	8r	.	(16a^\LL	.	.
.	.	.	16b-X\	.	.
8r	8cc 8a/	.	16bn\	.	.
.	.	.	16cc\JJ)	.	.
=218	=218	=218	=218	=218	=218
8FF/	8r	.	(16A/LL	.	.
.	.	.	16B-/	.	.
8r	8ff 8cc\	.	16Bn^/	.	.
.	.	.	16c/JJ)	.	.
8C/	8r	.	(16a\LL	.	.
.	.	.	16b-X\	.	.
8r	8aa 8ff\	.	16bn^\	.	.
.	.	.	16cc\JJ)	.	.
8F\	8r	.	(16aa\LL	.	.
.	.	.	16bb-X\	.	.
8r	8ccc 8aa\	.	16bbn^\	.	.
.	.	.	16ccc\JJ)	.	.
8FF/	8r	.	(16a\LL	.	.
.	.	.	16b-X\	.	.
8r	8fff 8aa\	[	16bn^\	.	.
.	.	.	16cc\JJ)	.	.
=219	=219	=219	=219	=219	=219
8CL 8CC/	8eeeL 8bb- 8ee\	f	(4b-X\	.	.
8CJ 8CC/	8eeeJ 8bb- 8ee\	.	.	.	.
4r	4r	.	16bbb-\LL)	.	.
.	.	.	(16aaa'^^\	.	.
.	.	.	16ggg'\	.	.
.	.	.	16fff'\JJ	.	.
2r	2r	.	16eee'\LL	.	.
.	.	.	16ddd'\	.	.
.	.	.	16ccc'\	.	.
.	.	.	16bbn'\JJ	.	.
.	.	.	16ddd'\LL	.	.
.	.	.	16ccc'\	.	.
.	.	.	16bb-X'\	.	.
.	.	.	16gg'\JJ	.	.
=220	=220	=220	=220	=220	=220
1r	1c^	.	16ee'\LL	.	.
.	.	.	16cc'\	.	.
.	.	.	16bn'\	.	.
.	.	.	16cc'\JJ	.	.
.	.	.	16dd'\LL	.	.
.	.	.	16cc'\	.	.
.	.	.	16b-X'\	.	.
.	.	.	16g'\JJ	.	.
.	.	.	16e'/LL	.	.
.	.	.	16c'/	.	.
.	.	.	16Bn'/	.	.
.	.	.	16c'/JJ	.	.
.	.	.	16d-X'/LL	.	.
.	.	.	16dn'/	.	.
.	.	.	16e-X'/	.	.
.	.	.	16en'/JJ)	.	.
!!LO:LB:g=original
=221	=221	=221	=221	=221	=221
*	*^	*	*	*	*
*xywh-13:150,3121,3608,658	*xywh-13:150,3121,3608,658	*xywh-13:150,3121,3608,658	*	*xywh-13:144,2731,3645,438	*	*
2A 2F\	4r	2rcyy	p	16f`/LL	.	<
.	.	.	.	(16e/	.	.
.	.	.	.	16f/)	.	.
.	.	.	.	16a/JJ	.	.
.	8r	.	.	16cc\LL	.	.
*	*	*	*	*	*above	*
.	.	.	.	16ff\	1	.
.	(>8f/	.	.	16aa\	.	.
.	.	.	.	16fff\JJ	.	[
4B-\	8b-/L	[2d\	.	(16ddd^<T\LL	.	.
!	!	!	!	!LO:TX:a:B:t=restez à la position.	!	!
.	.	.	.	16ccc#X\)	.	.
.	8a/	.	.	16ddd`\	.	p
.	.	.	.	16bb-`\JJ	.	.
4BB-/	8cc/	.	.	16ff`\LL	.	.
.	.	.	.	16dd`\	.	.
.	8b-/J)	.	.	16b-`\	.	.
.	.	.	.	16f`\JJ	.	.
=222	=222	=222	=222	=222	=222	=222
*	*	*	*	*	*below	*
2E\	4.g#X/	2d\]	.	16e/LL	2	<
.	.	.	.	(16d#X/	.	.
.	.	.	.	16e^>/)	.	.
.	.	.	.	16g#X/JJ	.	.
.	.	.	.	16bn\LL	.	.
.	.	.	.	16ee\	.	.
.	(8e/	.	.	16gg#X\	.	.
.	.	.	.	16eee\JJ	.	[
4A\	8a/L	[2c\	.	(16ccc^<T\LL	.	.
.	.	.	.	16bbn\)	.	.
.	8g#/	.	.	16ccc`\	.	p
.	.	.	.	16aa`\JJ	4	.
4AA/	8bn/	.	.	16ee`\LL	1	.
.	.	.	.	16cc`\	.	.
.	8a/J)	.	.	16a`\	.	.
.	.	.	.	16e`\JJ	.	.
=223	=223	=223	=223	=223	=223	=223
2D\	4.f#X/	2c\]	.	16d/LL	2	<
.	.	.	.	(16c#X/	.	.
.	.	.	.	16d^>/)	.	.
.	.	.	.	16f#X/JJ	.	.
.	.	.	.	16a\LL	.	.
.	.	.	.	16dd\	.	.
.	(8d/	.	.	16ff#X\	.	.
.	.	.	.	16ddd\JJ	.	[
4G\	8g/L	[2B-\	.	(16bb-X^<T\LL	.	.
.	.	.	.	16aa\)	.	.
.	8f#/	.	.	16bb-`\	.	p
.	.	.	.	16ggn`\JJ	.	.
4GG/	8a/	.	.	16dd`\LL	.	.
.	.	.	.	16b-`\	.	.
.	8g/J)	.	.	16g`\	.	.
.	.	.	.	16d`\JJ	.	.
=224	=224	=224	=224	=224	=224	=224
2C/	4.e/	2B-\]	.	16c/LL	2	.
.	.	.	.	(16Bn/	.	.
.	.	.	.	16c^>/)	.	.
.	.	.	.	16e/JJ	.	.
.	.	.	.	16g\LL	.	.
.	.	.	.	16cc\	.	.
.	(8c/	.	.	(16ee\o	.	.
.	.	.	.	16ccc\JJ)	.	.
8F\	8f/)	8A\	.	16aa\LL	.	.
.	.	.	.	16ff\	.	.
8r	8re	8re	.	16cc'\	.	.
.	.	.	.	16ccc^\JJ	.	.
8C/	8g 8e 8c/	4rcyy	.	16bb-\LL	.	.
.	.	.	.	16gg\	.	.
8r	8r	.	.	16cc\	.	.
.	.	.	.	16ccc^\JJ	.	.
*	*v	*v	*	*	*	*
!!LO:LB:g=original
=225	=225	=225	=225	=225	=225
*xywh-13:199,4133,3706,999	*xywh-13:199,4133,3706,999	*	*xywh-13:138,3785,3693,408	*	*
8F\	8a 8f 8c/	.	16aa\LL	.	<
.	.	.	16ff\	.	.
8r	8r	.	16cc\	.	.
.	.	.	16ccc^\JJ	.	.
(4C^/	[4cc 4g 4e^/	.	16bb-\LL	.	.
.	.	.	16gg\	.	.
.	.	.	16cc\	.	.
.	.	.	16ccc^\JJ	.	.
8F\L)	8ccL] 8a 8f/	<	(16aa\LL	.	.
.	.	.	16ccc\)	.	.
8C'\	8cc 8g 8e'/	.	(16gg 16cc\	.	.
.	.	.	16ccc\JJ)	.	.
8F'\	8cc 8a 8f'/	.	(16aaLL 16cc\	.	.
.	.	.	16ccc\)	.	.
8C'\J	8ccJ 8g 8e'/	.	(16gg 16cc\	.	.
.	.	.	16ccc\JJ)	.	[
=226	=226	=226	=226	=226	=226
8F\	8cc 8a 8f/	.	(8aaL 8cc~\	.	.
8r	8r	[	(16a\L	.	.
.	.	.	16aa\JJ))	.	.
4r	4r	.	(16b-\LL	.	.
.	.	.	16bb-\)	.	.
.	.	.	(16cc\	.	.
.	.	.	16ccc\JJ)	.	.
2r	2r	.	(16dd\LL	.	.
.	.	.	16ddd\)	.	.
.	.	.	(16cc\	.	.
.	.	.	16ccc\JJ)	.	.
.	.	.	(16dd\LL	.	.
.	.	.	16ddd\)	.	.
.	.	.	(16ee\	.	.
.	.	.	16eee\JJ)	.	.
=227	=227	=227	=227	=227	=227
*^	*^	*	*	*	*
2rcyy	8rA	2raayy	8rff	.	(16ff\LL	.	<
.	.	.	.	p <	16fff\)	.	.
.	(<8c\L	.	(<8cc\L	.	(16ee\	.	.
.	.	.	.	.	16eee\JJ)	.	.
.	8d\	.	8dd\	.	(16ff\LL	.	.
.	.	.	.	.	16fff\)	.	.
.	8e\J	.	8ee\J	.	(16gg\	.	.
.	.	.	.	.	16ggg\JJ)	.	.
2f^/	8f\L	2ff^/	8ff\L	.	(16aa-X\LL	.	.
.	.	.	.	.	16aaa-X\)	.	.
.	8e-X\	.	8ee-X\	.	(16aan\	.	.
.	.	.	.	.	16aaan\JJ)	.	.
.	8d\	.	8dd\	.	(16bb-\LL	.	.
.	.	.	.	.	16bbb-\)	.	.
.	8d-X\J)	.	8dd-X\J)	[	(16bbn\	.	.
.	.	.	.	.	16bbbn\JJ)	.	[
*v	*v	*	*	*	*	*	*
*	*v	*v	*	*	*	*
=228	=228	=228	=228	=228	=228
.	.	.	(>8qccc/	.	f
8a 8f 8c\	8aa 8ff 8cc\	f	8cccc\)	.	.
8r	8r	.	8r	.	.
4r	4r	.	16aLL 16f`u\	.	.
.	.	.	16a 16f`\	.	.
.	.	.	(16aa 16a^\	.	.
.	.	.	16aJJ 16f\)	.	.
*	*	*	*	*above	*
2r	2r	.	16f^/LL	4	.
.	.	.	16e/	.	.
.	.	.	16d/	.	.
.	.	.	16c/JJ	.	.
.	.	.	16aLL 16f`\	.	.
.	.	.	16a 16f`\	.	.
.	.	.	(16aa 16a^\	.	.
.	.	.	16aJJ 16f\)	.	.
!!LO:PB:g=original
=229	=229	=229	=229	=229	=229
*xywh-14:421,959,3550,751	*xywh-14:421,959,3550,751	*	*xywh-14:440,366,3574,647	*	*
1r	1r	.	16f^/LL	4	.
.	.	.	16e/	.	.
.	.	.	16d/	.	.
.	.	.	16c/JJ	.	.
.	.	.	16ccLL 16a`\	.	.
.	.	.	16cc 16a`\	.	.
.	.	.	(16fff 16a^\	.	.
.	.	.	16ccJJ 16a\)	.	.
.	.	.	16aLL 16f`\	.	.
.	.	.	16a 16f`\	.	.
.	.	.	(16ccc 16a^\	.	.
.	.	.	16aJJ 16f\)	.	.
.	.	.	16c`\LL	.	.
.	.	.	16c`\	.	.
.	.	.	(16aa 16a^\	.	.
.	.	.	16c\JJ)	.	.
=230	=230	=230	=230	=230	=230
1G#X 1F 1BBn	1dd 1g#X 1d	mf	(8.G#X/L	.	.
.	.	.	16f/Jk)	.	.
.	.	.	(16d/LL	.	.
.	.	.	16bn/)	.	.
.	.	.	(16f/	.	.
.	.	.	16dd/JJ)	.	.
.	.	.	(16b\LL	.	.
.	.	.	16gg#X\)	.	.
.	.	.	(16dd\	.	.
.	.	.	16bbn\JJ)	.	.
.	.	.	(16ff\LL	.	.
.	.	.	16ddd\)	.	.
.	.	.	(16gg#\	.	.
.	.	.	16fff\JJ)	.	.
=231	=231	=231	=231	=231	=231
*	*	*	*8va	*	*
1Bn 1G#X 1D	1ff 1bn 1f	.	(16bbn\LL	.	.
.	.	.	16ggg#X\)	.	.
.	.	.	(16ddd\	.	.
.	.	.	16bbbn\JJ)	.	.
.	.	.	(16fff\LL	.	.
.	.	.	16dddd\)	.	.
.	.	.	(16ggg#\	.	.
.	.	.	16ffff\JJ)	.	.
.	.	.	(4.gggg#X^^<\o	.	.
*	*	*	*X8va	*	*
.	.	.	8Bn/)	.	.
=232	=232	=232	=232	=232	=232
4A 4F 4C\	4cc 4a 4f 4c/	.	16c/LL	.	.
.	.	.	(16a/	.	.
.	.	.	16b-X/	.	.
.	.	.	16bn/JJ	.	.
4r	4r	.	16cc\LL)	.	.
.	.	.	(16aa\	.	.
.	.	.	16bb-X\	.	.
.	.	.	16bbn\JJ	.	.
2r	2r	.	16ccc\LL)	.	.
.	.	.	(16a\	.	.
.	.	.	16b-X\	.	.
.	.	.	16bn\JJ	.	.
.	.	.	16cc/LL)	.	.
.	.	.	(16A/	.	.
.	.	.	16B-X/	.	.
.	.	.	16Bn/JJ	.	.
!!LO:LB:g=original
=233	=233	=233	=233	=233	=233
*xywh-14:415,1998,3543,873	*xywh-14:415,1998,3543,873	*	*xywh-14:434,1607,3574,476	*	*
1r	1r	.	16c/LL)	.	.
.	.	.	(16A/	.	.
.	.	.	16c/)	.	.
.	.	.	16f/JJ	.	.
.	.	.	16a\LL	.	.
.	.	.	16cc\	.	.
.	.	.	16ff\	1	.
.	.	.	16aa\JJ	.	.
.	.	.	16ccc\LL	1	.
.	.	.	16fff\	1	.
.	.	.	16aaa\	2	.
.	.	.	16cccc\JJ	3	.
.	.	.	(8.ffff\L	4	.
.	.	.	16ff'^^\Jk)	.	.
=234	=234	=234	=234	=234	=234
!	!	!	!LO:TX:b:t=cresc.:problem:dynamics with extention lines:mod=	!	!LO:HP:t=cresc.
(4C/	8eL 8c 8Gn/	p	(4ggT\	.	<
.	8e 8c 8G/	.	.	.	.
4FF/)	8e-X 8A/	.	4aat\)	.	.
.	8e-J 8A/	.	.	.	.
(4BB-/	8dL 8B-/	<	(4bb-T\	.	.
.	8d 8B-/	.	.	.	.
4GG/)	8f 8Bn 8G/	.	4bbnt\)	.	.
.	8fJ 8B 8G/	.	.	.	.
=235	=235	=235	=235	=235	=235
(4C/	8eL 8c 8G/	.	(4cccT\	.	.
.	8e 8c 8G/	.	.	.	.
4BBn/)	8g 8d 8G/	.	4dddT\)	.	.
.	8gJ 8d 8G/	.	.	.	.
(4BB-X/	8ccL 8g 8e\	.	(4eeet\	.	.
.	8cc 8g 8e\	.	.	.	.
4AA/)	8ff 8cc 8f\	.	4fffT\)	.	.
.	8ffJ 8cc 8f\	[	.	.	.
=236	=236	=236	=236	=236	=236
*^	*^	*	*	*	*
*	*	*	*^	*	*	*	*
*	*ped	*	*	*	*	*	*	*
!	!	!	!	!LO:TX:b:t=cresc:problem:dynamics with extention lines:mod=	!LO:HP:t=cresc	!	!	!
2ryy	1CC 1CCC	1ff	8b-L 8f\	2ryy	<	1gggT	.	.
.	.	.	8b- 8f\	.	.	.	.	.
.	.	.	8b- 8f\	.	.	.	.	.
.	.	.	8b-J 8f\	.	.	.	.	.
2c\	.	.	8b-L 8f\	2cc^/	.	.	.	.
.	.	.	8b- 8f\	.	.	.	.	.
.	.	.	8b- 8f\	.	.	.	.	.
.	.	.	8b-J 8f\	.	.	.	.	[[
=237	=237	=237	=237	=237	=237	=237	=237	=237
*	*ped	*	*	*	*	*	*	*
2ryy	1CC 1CCC	1ee	8b-L 8e\	2ryy	.	1gg 1b-T	.	ff
.	.	.	8b- 8e\	.	.	.	.	.
.	.	.	8b- 8e\	.	.	.	.	.
.	.	.	8b-J 8e\	.	.	.	.	.
2c\	.	.	8b-L 8e\	2cc^/	.	.	.	.
.	.	.	8b- 8e\	.	.	.	.	.
.	.	.	8b- 8e\	.	.	.	.	.
.	.	.	8b-J 8e\	.	[	.	.	.
.	.	.	.	.	.	(16qqff/LL	.	.
.	.	.	.	.	.	16qqaa/	.	.
.	.	.	.	.	.	16qqgg/JJ)	.	.
*v	*v	*	*	*	*	*	*	*
*	*v	*v	*v	*	*	*	*
!!LO:LB:g=original
=238	=238	=238	=238	=238	=238
*xywh-14:415,3036,3586,855	*xywh-14:415,3036,3586,855	*	*xywh-14:421,2774,3580,366	*	*
!	!	!	!LO:MO:mod=!LO&colon;TX&colon;a&colon;B&colon;t=Tutti	!	!
!	!	!	!LO:TX:a:B:t=TUTTI.	!	!
4FF 4FFF/	[2ff [2cc [>2a [2f/	ff	4ff 4a\	.	.
*tremolo	*	*	*	*	*
(16FLL 16C\	.	.	4r	.	.
16A\	.	.	.	.	.
16F 16C\	.	.	.	.	.
16A\JJ)	.	.	.	.	.
(16FLL 16C\	8ff]L 8cc] 8a] 8f/]	.	2r	.	.
16A\	.	.	.	.	.
16F 16C\	(8e/	.	.	.	.
16A\	.	.	.	.	.
16F 16C\	8g/	.	.	.	.
16A\	.	.	.	.	.
16F 16C\	8f/J	.	.	.	.
16A\JJ)	.	.	.	.	.
=239	=239	=239	=239	=239	=239
(16FLL 16C\	8g#X\L	.	1r	.	.
16A\	.	.	.	.	.
16F 16C\	8a\	.	.	.	.
16A\	.	.	.	.	.
16F 16C\	8dd\	.	.	.	.
16A\	.	.	.	.	.
16F 16C\	8cc\J	.	.	.	.
16A\JJ)	.	.	.	.	.
(16FLL 16C\	8ee\L	.	.	.	.
16A\	.	.	.	.	.
16F 16C\	8ff\	.	.	.	.
16A\	.	.	.	.	.
16F 16C\	8.bb-\	.	.	.	.
16A\	.	.	.	.	.
16F 16C\	.	.	.	.	.
16A\JJ)	16aa\Jk)	.	.	.	.
*Xtremolo	*	*	*	*	*
=240	=240	=240	=240	=240	=240
*	*tremolo	*	*	*	*
8FF 8FFF/	(16cccLL 16aa 16ff\	.	1r	.	.
.	16cc\	.	.	.	.
8r	16ccc 16aa 16ff\	.	.	.	.
.	16cc\	.	.	.	.
4c^\	16ccc 16aa 16ff\	.	.	.	.
.	16cc\	.	.	.	.
.	16ccc 16aa 16ff\	.	.	.	.
.	16cc\JJ)	.	.	.	.
4f^\	(16cccLL 16aa 16ff\	.	.	.	.
.	16cc\	.	.	.	.
.	16ccc 16aa 16ff\	.	.	.	.
.	16cc\	.	.	.	.
4c^\	16ccc 16aa 16ff\	.	.	.	.
.	16cc\	.	.	.	.
.	16ccc 16aa 16ff\	.	.	.	.
.	16cc\JJ)	.	.	.	.
=241	=241	=241	=241	=241	=241
4F\	(16cccLL 16aa 16ff\	.	1r	.	.
.	16cc\	.	.	.	.
.	16ccc 16aa 16ff\	.	.	.	.
.	16cc\	.	.	.	.
4C 4CC/	16ccc 16aa 16ff\	.	.	.	.
.	16cc\	.	.	.	.
.	16ccc 16aa 16ff\	.	.	.	.
.	16cc\JJ)	.	.	.	.
4F 4FF/	(16cccLL 16aa 16ff\	.	.	.	.
.	16cc\	.	.	.	.
.	16ccc 16aa 16ff\	.	.	.	.
.	16cc\	.	.	.	.
4C 4CC/	16ccc 16aa 16ff\	.	.	.	.
.	16cc\	.	.	.	.
.	16ccc 16aa 16ff\	.	.	.	.
.	16cc\JJ)	.	.	.	.
*	*Xtremolo	*	*	*	*
=242	=242	=242	=242	=242	=242
4FF 4FFF/	8cccL 8aa 8ff 8cc\	.	1r	.	.
.	8bn\	.	.	.	.
4r	8dd\	.	.	.	.
.	8cc\J	.	.	.	.
2c 2A 2F\	8ffL 8cc 8a 8f\	.	.	.	.
.	8b\	.	.	.	.
.	8dd\	.	.	.	.
.	8cc\J	.	.	.	.
=243	=243	=243	=243	=243	=243
2c 2A 2F 2En\	8ffL 8cc 8a 8f\	.	1r	.	.
.	8bn\	.	.	.	.
.	8dd\	.	.	.	.
.	8cc\J	.	.	.	.
2c 2A 2F 2E-X\	8ffL 8cc 8a 8f\	.	.	.	.
.	8b\	.	.	.	.
.	8dd\	.	.	.	.
.	8cc\J	.	.	.	.
!!LO:PB:g=original
=244	=244	=244	=244	=244	=244
*xywh-14:366,4106,3653,1063	*xywh-14:366,4106,3653,1063	*	*xywh-14:366,3831,3660,378	*	*
8DD 8DDD/	8ff#XL 8cc 8f#X/	.	1r	.	.
8r	8d/	.	.	.	.
(8E-X^\L	(8e-X^/	.	.	.	.
8D\J)	8d/J)	.	.	.	.
(8G^\L	(8g^/L	.	.	.	.
8F#X\)	8f#/)	.	.	.	.
(8B-^\	(8b-X^/	.	.	.	.
8A\J)	8a/J)	.	.	.	.
*clefG2	*	*	*	*	*
=245	=245	=245	=245	=245	=245
(8e-X^/L	(8ee-X^\L	.	1r	.	.
8d/)	8dd\)	.	.	.	.
(8g^/	(8gg^\	.	.	.	.
8f#X/J)	8ff#X\J)	.	.	.	.
(8b-^\L	(8bb-^\L	.	.	.	.
8a\)	8aa\)	.	.	.	.
(8ee-X^\	(8eee-X^\	.	.	.	.
8dd\J)	8ddd\J)	.	.	.	.
*clefF4	*	*	*	*	*
=246	=246	=246	=246	=246	=246
8GG 8GGG/	[2b- [2g [>2d [2B-/	.	1r	.	.
8r	.	.	.	.	.
*tremolo	*	*	*	*	*
(16GLL 16D\	.	.	.	.	.
16B-\	.	.	.	.	.
16G 16D\	.	.	.	.	.
16B-\JJ)	.	.	.	.	.
(16GLL 16D\	8b-]L 8g] 8d] 8B-/]	.	.	.	.
16B-\	.	.	.	.	.
16G 16D\	(8f#X/	.	.	.	.
16B-\	.	.	.	.	.
16G 16D\	8a/	.	.	.	.
16B-\	.	.	.	.	.
16G 16D\	8g/J	.	.	.	.
16B-\JJ)	.	.	.	.	.
=247	=247	=247	=247	=247	=247
(16GLL 16D\	8b-\L	.	1r	.	.
16B-\	.	.	.	.	.
16G 16D\	8cc\	.	.	.	.
16B-\	.	.	.	.	.
16G 16D\	8ee-X\	.	.	.	.
16B-\	.	.	.	.	.
16G 16D\	8dd\J	.	.	.	.
16B-\JJ)	.	.	.	.	.
(16GLL 16D\	8gg\L	.	.	.	.
16B-\	.	.	.	.	.
16G 16D\	8aa\	.	.	.	.
16B-\	.	.	.	.	.
16G 16D\	8.ccc\	.	.	.	.
16B-\	.	.	.	.	.
16G 16D\	.	.	.	.	.
16B-\JJ)	16bb-\Jk)	.	.	.	.
*Xtremolo	*	*	*	*	*
=248	=248	=248	=248	=248	=248
*	*tremolo	*	*	*	*
8GG 8GGG/	(16dddLL 16bb- 16gg\	.	1r	.	.
.	16dd\	.	.	.	.
8r	16ddd 16bb- 16gg\	.	.	.	.
.	16dd\	.	.	.	.
4d^\	16ddd 16bb- 16gg\	.	.	.	.
.	16dd\	.	.	.	.
.	16ddd 16bb- 16gg\	.	.	.	.
.	16dd\JJ)	.	.	.	.
4g^\	(16dddLL 16bb- 16gg\	.	.	.	.
.	16dd\	.	.	.	.
.	16ddd 16bb- 16gg\	.	.	.	.
.	16dd\	.	.	.	.
4d^\	16ddd 16bb- 16gg\	.	.	.	.
.	16dd\	.	.	.	.
.	16ddd 16bb- 16gg\	.	.	.	.
.	16dd\JJ)	.	.	.	.
=249	=249	=249	=249	=249	=249
4G\	(16dddLL 16bb- 16gg\	.	1r	.	.
.	16dd\	.	.	.	.
.	16ddd 16bb- 16gg\	.	.	.	.
.	16dd\	.	.	.	.
4D 4DD^/	16ddd 16bb- 16gg\	.	.	.	.
.	16dd\	.	.	.	.
.	16ddd 16bb- 16gg\	.	.	.	.
.	16dd\JJ)	.	.	.	.
4G 4GG^/	(16dddLL 16bb- 16gg\	.	.	.	.
.	16dd\	.	.	.	.
.	16ddd 16bb- 16gg\	.	.	.	.
.	16dd\	.	.	.	.
4D 4DD^/	16ddd 16bb- 16gg\	.	.	.	.
.	16dd\	.	.	.	.
.	16ddd 16bb- 16gg\	.	.	.	.
.	16dd\JJ)	.	.	.	.
*	*Xtremolo	*	*	*	*
!!LO:PB:g=original
=250	=250	=250	=250	=250	=250
*xywh-15:120,884,3638,920	*xywh-15:120,884,3638,920	*	*xywh-15:169,293,3510,603	*	*
8GG 8GGG\	8ddd 8bb- 8gg 8dd\	.	1r	.	.
8r	(8F#X</L	.	.	.	.
4r	8A</	.	.	.	.
.	8G</J	.	.	.	.
2r	8B-</L	.	.	.	.
.	8c</	.	.	.	.
.	8e-X</	.	.	.	.
.	8d</J)	.	.	.	.
=251	=251	=251	=251	=251	=251
*	*^	*	*	*	*
1Fn 1FFn	(8d/L	4B- 4G\	.	1r	.	.
.	8c#X/	.	.	.	.	.
.	8e-X/	4rcyy	.	.	.	.
.	8d/J	.	.	.	.	.
.	8g/L	2rcyy	.	.	.	.
.	8a/	.	.	.	.	.
.	8.ccn/	.	.	.	.	.
.	16b-/Jk)	.	.	.	.	.
*	*v	*v	*	*	*	*
=252	=252	=252	=252	=252	=252
4E 4EE/	4b- 4g 4c/	.	1r	.	.
4r	4r	.	.	.	.
4C 4CC/	4bb- 4ee 4b-\	.	.	.	.
4r	4r	.	.	.	.
=253	=253	=253	=253	=253	=253
4F 4FF/	4aa 4ff 4cc 4a\	.	1r	.	.
4r	(4f< 4F<'/	.	.	.	.
2r	4f< 4F<'/	.	.	.	.
.	4f< 4F<'/)	.	.	.	.
=254	=254	=254	=254	=254	=254
*tremolo	*	*	*	*	*
(16A-X\LL	(12f/L	.	1r	.	.
16Bn\	.	.	.	.	.
.	12e-X/	.	.	.	.
16A-\	.	.	.	.	.
.	12d/J)	.	.	.	.
16Bn\	.	.	.	.	.
16A-\	2f/	.	.	.	.
16Bn\	.	.	.	.	.
16A-\	.	.	.	.	.
16Bn\JJ)	.	.	.	.	.
(16A-\LL	.	.	.	.	.
16B\	.	.	.	.	.
16A-\	.	.	.	.	.
16B\	.	.	.	.	.
!	!LO:TX:a:B:t=M.D.	!	!	!	!
16A-\	4F</	.	.	.	.
16B\	.	.	.	.	.
16A-\	.	.	.	.	.
16B\JJ)	.	.	.	.	.
*Xtremolo	*	*	*	*	*
=255	=255	=255	=255	=255	=255
!LO:TX:a:B:t=M.G.	!	!	!	!	!
4c> 4A>/	8F<L 8E-X</	.	1r	.	.
.	(>8En</	.	.	.	.
4r	8G</	.	.	.	.
.	8F</J	.	.	.	.
4FF 4FFF\	8A</L	.	.	.	.
.	8c</	.	.	.	.
4r	8.g</	.	.	.	.
.	16f</Jk)	.	.	.	.
!!LO:LB:g=original
=256	=256	=256	=256	=256	=256
*xywh-15:126,2011,3596,822	*xywh-15:126,2011,3596,822	*	*xywh-15:126,1725,3638,329	*	*
*tremolo	*	*	*	*	*
(16FLL 16BBn\	(>12ffL 12a-X 12f/	.	1r	.	.
16A-X\	.	.	.	.	.
.	12ee-X/	.	.	.	.
16F 16BB\	.	.	.	.	.
.	12dd/J)	.	.	.	.
16A-X\	.	.	.	.	.
16F 16BB\	2ff\	.	.	.	.
16A-X\	.	.	.	.	.
16F 16BB\	.	.	.	.	.
16A-X\JJ)	.	.	.	.	.
(16FLL 16BB\	.	.	.	.	.
16A-\	.	.	.	.	.
16F 16BB\	.	.	.	.	.
16A-\	.	.	.	.	.
16F 16BB\	4f/	.	.	.	.
16A-\	.	.	.	.	.
16F 16BB\	.	.	.	.	.
16A-\JJ)	.	.	.	.	.
*Xtremolo	*	*	*	*	*
=257	=257	=257	=257	=257	=257
4A 4F 4C\	8fL 8e-X/	.	1r	.	.
.	(8en/	.	.	.	.
4r	8g/	.	.	.	.
.	8f/J	.	.	.	.
4FF 4FFF/	8a\L	.	.	.	.
.	8cc\	.	.	.	.
4r	8.gg\	.	.	.	.
.	16ff\Jk)	.	.	.	.
=258	=258	=258	=258	=258	=258
4f 4B- 4D\	(12aa-XL 12b- 12a-X\	.	1r	.	.
.	12gg\	.	.	.	.
.	12ff\J)	.	.	.	.
4r	(2aa-\	.	.	.	.
2BB- 2BBB-/	.	.	.	.	.
.	8gg\L	.	.	.	.
.	8ff#X\J)	.	.	.	.
=259	=259	=259	=259	=259	=259
4E-X 4BB- 4EE-X/	(8.ggL 8.ee-X 8.b- 8.g\	.	1r	.	.
.	16bbnJk 16bn\)	.	.	.	.
4D 4DD/	(8.bbL 8.ff 8.b\	.	.	.	.
.	16cccJk 16cc\)	.	.	.	.
4C 4CC/	(8.cccL 8.ee-X 8.cc\	.	.	.	.
.	16dddJk 16dd\)	.	.	.	.
4BB- 4BBB-/	(8.dddL 8.gg-X 8.dd\	.	.	.	.
.	16eee-XJk 16ee-X\)	.	.	.	.
=260	=260	=260	=260	=260	=260
4AA 4AAA/	8eee-X 8ccc 8ff 8ee-X\	.	1r	.	.
.	8r	.	.	.	.
4r	(8.dd^\L	.	.	.	.
.	16ee-\Jk)	.	.	.	.
2c 2B- 2G-X\	8ee-\	.	.	.	.
.	8r	.	.	.	.
.	(8.d^/L	.	.	.	.
.	16e-X/Jk)	.	.	.	.
!!LO:LB:g=original
=261	=261	=261	=261	=261	=261
*xywh-15:114,3078,3584,798	*xywh-15:114,3078,3584,798	*	*xywh-15:132,2780,3657,353	*	*
4F 4C 4FF/	4e-X 4A/	.	1r	.	.
4r	8r	.	.	.	.
.	(>8en/	p	.	.	.
2r	8f/L	.	.	.	.
.	8a/	.	.	.	.
.	8dd/	.	.	.	.
.	8cc/J)	.	.	.	.
=262	=262	=262	=262	=262	=262
1r	(8g\L	.	1r	.	.
.	8f\	.	.	.	.
.	8b-\	.	.	.	.
.	8g#X\J	.	.	.	.
.	8a\L	.	.	.	.
.	8cc\	.	.	.	.
.	8ff\	.	.	.	.
.	8een\J)	.	.	.	.
=263	=263	=263	=263	=263	=263
1r	(4ee-X\	.	1r	.	.
.	4bn\)	.	.	.	.
.	4cc\	.	.	.	.
.	4ee-\	.	.	.	.
=264	=264	=264	=264	=264	=264
1r	(2.aa\	.	1r	.	.
.	8gg\L	.	.	.	.
.	8ff\J)	.	.	.	.
=265	=265	=265	=265	=265	=265
*^	*^	*	*	*	*
[2f/	(2e-X\	1ff	4.a\	.	1r	.	.
.	.	.	(8f\	.	.	.	.
2f/]	2d\)	.	8b-\L	.	.	.	.
.	.	.	8a\	.	.	.	.
.	.	.	8cc\	.	.	.	.
.	.	.	8b-\J)	.	.	.	.
=266	=266	=266	=266	=266	=266	=266	=266
1e-X	(2d-X\	(2gg/	4.g\	.	1r	.	.
.	.	.	(8e-X\	.	.	.	.
.	2c\)	2aa-X/)	8a-X\L	.	.	.	.
.	.	.	8g\	.	.	.	.
.	.	.	8b-\	.	.	.	.
.	.	.	8a-\J)	.	.	.	.
!!LO:PB:g=original
=267	=267	=267	=267	=267	=267	=267	=267
*xywh-15:77,4108,3791,1011	*xywh-15:77,4108,3791,1011	*xywh-15:77,4108,3791,1011	*xywh-15:77,4108,3791,1011	*	*xywh-15:120,3816,3596,316	*	*
[2d/	2c\	(4aan 4an/	4.f#X\	.	1r	.	.
.	.	8bb-L 8b-/	.	.	.	.	.
.	.	8cccJ 8cc/)	(8d\	.	.	.	.
2d/]	2B-\	(4ddd 4dd/	8g\L	.	.	.	.
.	.	.	8f#X\	.	.	.	.
.	.	4ggg 4gg/)	8a\	.	.	.	.
.	.	.	8g\J)	.	.	.	.
*v	*v	*	*	*	*	*	*
*	*v	*v	*	*	*	*
=268	=268	=268	=268	=268	=268
(<8CC\L	4ggg 4eee-X 4ccc 4gg\	.	1r	.	.
8BBBn\	.	.	.	.	.
8DD\)	8r	.	.	.	.
(<8CC\J	(8C</	.	.	.	.
8EE-X\L	8E-X</L	.	.	.	.
8FF\	8F</	.	.	.	.
8.AA-X\	8.A-X</	.	.	.	.
16GG\Jk)	16G</Jk)	.	.	.	.
=269	=269	=269	=269	=269	=269
4GG 4CC\	4G< 4E-X< 4C</	.	1r	.	.
*tremolo	*	*	*	*	*
(16ELL 16C\	8gg 8g\	.	.	.	.
16G\	.	.	.	.	.
16E 16C\	8r	.	.	.	.
16G\JJ)	.	.	.	.	.
(16ELL 16C\	8ccc 8cc\	.	.	.	.
16G\	.	.	.	.	.
16E 16C\	8r	.	.	.	.
16G\	.	.	.	.	.
16E 16C\	8gg 8g\	.	.	.	.
16G\	.	.	.	.	.
16E 16C\	8r	.	.	.	.
16G\JJ)	.	.	.	.	.
*Xtremolo	*	*	*	*	*
=270	=270	=270	=270	=270	=270
8GL 8E-X 8C\	8ccL 8c/	.	1r	.	.
(8F#X\	(8f#X/	.	.	.	.
8A-X\	8a-X/	.	.	.	.
8G\J	8g/J	.	.	.	.
8c\L	8cc\L	.	.	.	.
8d\	8dd\	.	.	.	.
8.fn\	8.ffn\	.	.	.	.
16e-X\Jk)	16ee-X\Jk)	.	.	.	.
=271	=271	=271	=271	=271	=271
*	*tremolo	*	*	*	*
8e-X 8c\	(16ee-XLL 16cc\	.	1r	.	.
.	16g\	.	.	.	.
8r	16ee- 16cc\	.	.	.	.
.	16g\	.	.	.	.
8G 8GG/	16ee- 16cc\	.	.	.	.
.	16g\	.	.	.	.
8r	16ee- 16cc\	.	.	.	.
.	16g\JJ)	.	.	.	.
8c 8C\	(16ee-LL 16cc\	.	.	.	.
.	16g\	.	.	.	.
8r	16ee- 16cc\	.	.	.	.
.	16g\	.	.	.	.
8G 8GG/	16ee- 16cc\	.	.	.	.
.	16g\	.	.	.	.
8r	16ee- 16cc\	.	.	.	.
.	16g\JJ)	.	.	.	.
*	*Xtremolo	*	*	*	*
!!LO:PB:g=original
=272	=272	=272	=272	=272	=272
*xywh-16:507,739,3525,690	*xywh-16:507,739,3525,690	*	*xywh-16:519,403,3507,391	*	*
8CL 8GG 8CC/	8ee-XL 8cc 8g 8e-X/	.	1r	.	.
8BBn/	8bn 8Bn/	.	.	.	.
8D/	8dd 8d/	.	.	.	.
8C/J	8ccJ 8c/	.	.	.	.
8E-X\L	8ddL 8d/	.	.	.	.
8F\	8ff 8f/	.	.	.	.
8A-X\	8aa-X 8a-X/	.	.	.	.
8G\J	8ggJ 8g/	.	.	.	.
=273	=273	=273	=273	=273	=273
8GL 8E-X 8C\	8ggL 8ee-X 8cc 8g\	.	1r	.	.
8F#X\	8ff#X 8f#X\	.	.	.	.
8A-X\	8aa-X 8a-X\	.	.	.	.
8G\J	8ggJ 8g\	.	.	.	.
8c\L	8cccL 8cc\	.	.	.	.
8d\	8ddd 8dd\	.	.	.	.
8fn\	8fffn 8ffn\	.	.	.	.
8e-X\J	8eee-XJ 8ee-X\	.	.	.	.
=274	=274	=274	=274	=274	=274
*	*ped	*	*	*	*
4a> 4g> 4e-X> 4c>\	4ggg 4eee-X 4ccc 4gg/	.	1r	.	.
4ee-X> 4cc>\	4eee- 4ccc/	.	.	.	.
4cc> 4a>\	4ccc 4aa/	.	.	.	.
4a> 4g>\	4aa 4gg/	.	.	.	.
=275	=275	=275	=275	=275	=275
4g> 4e-X>\	4gg 4ee-X/	.	1r	.	.
4e-> 4c>\	4ee- 4cc/	.	.	.	.
4c> 4A>\	4cc 4a/	.	.	.	.
4A 4G/	4a 4g/	.	.	.	.
=276	=276	=276	=276	=276	=276
4B- 4G 4D\	4b- 4g 4d/	.	1r	.	.
4r	4r	.	.	.	.
4d 4D\	4bb- 4gg 4dd 4b-\	.	.	.	.
4r	4r	.	.	.	.
=277	=277	=277	=277	=277	=277
4d 4cn 4D\	4aa 4ff#X 4dd 4a\	.	1r	.	.
4r	4r	.	.	.	.
4d 4B- 4D\	4ddd 4bb- 4gg 4dd\	.	.	.	.
4r	4r	.	.	.	.
!!LO:LB:g=original
=278	=278	=278	=278	=278	=278
*xywh-16:372,1631,3617,745	*xywh-16:372,1631,3617,745	*	*xywh-16:397,1393,3592,336	*	*
4en 4A 4D\	4ccc#X 4aa 4gg 4cc#X\	.	1r	.	.
4r	4r	.	.	.	.
4f#X 4A 4D\	4cccn 4aa 4ff#X 4ccn\	.	.	.	.
4r	4r	.	.	.	.
=279	=279	=279	=279	=279	=279
4g 4d 4G\	4bbn 4gg 4dd 4bn\	.	1r	.	.
4r	4r	.	.	.	.
4g 4e-X\	4bb-X 4gg 4ee-X 4b-X\	.	.	.	.
4r	4r	.	.	.	.
=280	=280	=280	=280	=280	=280
*	*^	*^	*	*	*
2r	[1a-X [1A-X	2rcyy	f	.	1r	.	.
4r	.	4rcyy	.	.	.	.	.
8.r	.	8.rc	.	.	.	.	.
!	!	!	!LO:DY:rj	!LO:DY:b=2:rj	!	!	!
!	!	!	!LO:MO:mod=.	!	!	!	!
16C/	.	16e-X\	p	p	.	.	.
*	*	*	*v	*v	*	*	*
*	*v	*v	*	*	*	*
=281	=281	=281	=281	=281	=281
*^	*	*	*	*	*
(2E-X/	2.DD-X\	2a-X_ 2g-X 2c 2A-X/_	.	1r	.	.
4D-X/)	.	4a-_ 4f 4d-X 4A-/_	.	.	.	.
4r	4rEEyy	8.a-]L 8.A-/]	.	.	.	.
.	.	16anJk 16An/	.	.	.	.
*v	*v	*	*	*	*	*
=282	=282	=282	=282	=282	=282
*	*^	*^	*	*	*
2r	[1b- [1B-^	2rcyy	.	.	1r	.	.
4r	.	4rcyy	.	.	.	.	.
8.r	.	8.rc	.	.	.	.	.
!	!	!	!LO:DY:rj	!LO:DY:b=2:rj	!	!	!
16D\	.	16f\	p	p	.	.	.
*	*	*	*v	*v	*	*	*
*	*v	*v	*	*	*	*
=283	=283	=283	=283	=283	=283
*^	*	*	*	*	*
(2F/	[2EE-X\	2b-_ 2a-X 2dn 2B-/_	.	1r	.	.
4.E-X/)	4.EE-\]	4.b-] 4.g 4.e-X 4.B-/]	.	.	.	.
8rBB	8rBB	8r	.	.	.	.
*v	*v	*	*	*	*	*
=284	=284	=284	=284	=284	=284
1B- 1E-X	1g-X 1c	.	1r	.	.
!!LO:LB:g=original
=285	=285	=285	=285	=285	=285
*xywh-16:495,2548,3501,794	*xywh-16:495,2548,3501,794	*	*xywh-16:403,2291,3562,305	*	*
1B- 1G-X	1e-X 1c	.	1r	.	.
=286	=286	=286	=286	=286	=286
*	*^	*	*	*	*
*	*Xbrackettup	*	*	*	*	*
!	!LO:TUP:a:problem:klamra łukowa	!	!	!	!	!
4B- 4G-X\	6b-X/	4e-X 4c\	.	1r	.	.
.	6a-X/	.	.	.	.	.
4r	.	4re	.	.	.	.
.	6g-X/	.	.	.	.	.
2r	[2b-/	2re	.	.	.	.
=287	=287	=287	=287	=287	=287	=287
4G-X 4C\	4b-/]	4e-X 4B-\	p	1r	.	.
4r	(2a-X/	4re	.	.	.	.
2r	.	2re	.	.	.	.
.	4g-X/)	.	.	.	.	.
*	*v	*v	*	*	*	*
=288||	=288||	=288||	=288||	=288||	=288||
*M2/2	*M2/2	*	*M2/2	*	*
*met(c|)	*met(c|)	*	*met(c|)	*	*
*^	*	*	*	*	*
!!!OMD:
!!!OMD-mod: Listesso tempo
!	!	!LO:TX:a:B:t=Listesso tempo.:mod=	!	!LO:TX:a:B:t=Listesso tempo.:mod=	!	!
1ryy	[1FFF	4f/	p	1r	.	.
.	.	4d< 4B-< 4F</	.	.	.	.
.	.	4f 4d 4B-/	.	.	.	.
.	.	4b- 4f 4d/	.	.	.	.
=289	=289	=289	=289	=289	=289	=289
1ryy	1FFF]	4dd 4b- 4f/	.	1r	.	.
.	.	4b- 4f 4d/	.	.	.	.
.	.	4dd 4b- 4f/	.	.	.	.
.	.	4ff 4dd 4b-\	.	.	.	.
=290	=290	=290	=290	=290	=290	=290
!	!	!LO:TUP:a:problem:klamra łukowa	!	!	!	!
1ryy	[1FFF	6ff 6dd 6b-\	.	1r	.	.
.	.	6A/	.	.	.	.
.	.	6B-/	.	.	.	.
!	!	!LO:TUP:a:problem:klamra łukowa	!	!	!	!
.	.	6c/	.	.	.	.
.	.	6d/	.	.	.	.
.	.	6e-X/	.	.	.	.
=291	=291	=291	=291	=291	=291	=291
4rc	1FFF]	1f^	.	1r	.	.
4d/	.	.	.	.	.	.
4B-/	.	.	.	.	.	.
4F/	.	.	.	.	.	.
!!LO:LB:g=original
=292	=292	=292	=292	=292	=292	=292
*xywh-16:409,3427,3556,794	*xywh-16:409,3427,3556,794	*xywh-16:409,3427,3556,794	*	*xywh-16:415,3275,3580,244	*	*
1ryy	[1FFF	4g 4d 4Bn/	.	1r	.	.
.	.	4d 4B 4G/	.	.	.	.
.	.	4g 4d 4B/	.	.	.	.
.	.	4bn 4g 4d/	.	.	.	.
=293	=293	=293	=293	=293	=293	=293
1ryy	1FFF]	4dd 4bn 4g/	.	1r	.	.
.	.	4b 4g 4d/	.	.	.	.
.	.	4dd 4b 4g/	.	.	.	.
.	.	4gg 4dd 4b\	.	.	.	.
=294	=294	=294	=294	=294	=294	=294
!	!	!LO:TUP:a:problem:klamra łukowa	!	!	!	!
1ryy	[1FFF	6gg 6dd 6bn\	.	1r	.	.
.	.	6Bn/	.	.	.	.
.	.	6c/	.	.	.	.
!	!	!LO:TUP:a:problem:klamra łukowa	!	!	!	!
.	.	6d/	.	.	.	.
.	.	6e-X/	.	.	.	.
.	.	6f/	.	.	.	.
=295	=295	=295	=295	=295	=295	=295
4rc	1FFF]	1g	.	1r	.	.
4d/	.	.	.	.	.	.
4Bn/	.	.	.	.	.	.
4F/	.	.	.	.	.	.
=296	=296	=296	=296	=296	=296	=296
!	!	!LO:TUP:a	!	!	!	!
1ryy	[1FFF	6a-X 6e-X 6c/	.	1r	.	.
.	.	(6cc\	.	.	.	.
.	.	6dd\	.	.	.	.
!	!	!LO:TUP:a	!	!	!	!
.	.	6ee-X\	.	.	.	.
.	.	6ff\	.	.	.	.
.	.	6gg\)	.	.	.	.
=297	=297	=297	=297	=297	=297	=297
4rc	1FFF]	4aa-X\	.	1r	.	.
4e-X/	.	4ryy	.	.	.	.
4c/	.	2ryy	.	.	.	.
4F/	.	.	.	.	.	.
=298	=298	=298	=298	=298	=298	=298
*	*	*Xtuplet	*	*	*	*
1ryy	4FFF/	6an 6e-X 6c/	.	1r	.	.
!	!	!LO:TX:a:B:t=Cl. SOLO.	!	!	!	!
.	.	(6en/	.	.	.	.
.	4rA	.	.	.	.	.
.	.	6f/	.	.	.	.
.	2rA	6a/	.	.	.	.
.	.	6b-X/	.	.	.	.
.	.	6bn/)	.	.	.	.
*v	*v	*	*	*	*	*
!!LO:PB:g=original
=299	=299	=299	=299	=299	=299
*xywh-16:452,4375,3635,818	*xywh-16:452,4375,3635,818	*	*xywh-16:440,4167,3598,299	*	*
1r	(6cc\	.	1r	.	.
.	6a/	.	.	.	.
.	6b-X\	.	.	.	.
.	6bn\	.	.	.	.
.	6cc\	.	.	.	.
.	6dd\)	.	.	.	.
=300	=300	=300	=300	=300	=300
1r	(4ee-X\	.	1r	.	.
.	4ff#X\)	.	.	.	.
.	(4gg\	.	.	.	.
.	4dd\)	.	.	.	.
=301	=301	=301	=301	=301	=301
1r	(4ffn\	.	1r	.	.
.	4ee-X\)	.	.	.	.
.	(4cc\	.	.	.	.
.	4b-\)	.	.	.	.
=302	=302	=302	=302	=302	=302
1r	(2a/	.	1r	.	.
.	2f#X/)	.	.	.	.
=303	=303	=303	=303	=303	=303
1r	(2g/	.	1r	.	.
.	2d/)	.	.	.	.
=304	=304	=304	=304	=304	=304
1r	1f	.	1r	.	.
=305	=305	=305	=305	=305	=305
1r	1e-X	.	1r	.	.
=306	=306	=306	=306	=306	=306
1r	[1G	.	1r	.	.
=307	=307	=307	=307	=307	=307
1r	1G]	.	1r	.	.
=308	=308	=308	=308	=308	=308
1r	[1A	.	1r	.	.
=309	=309	=309	=309	=309	=309
1r	1A]	.	1r	.	.
==	==	==	==	==	==
*-	*-	*-	*-	*-	*-
!!!system-decoration: s1{(s2,s3)}
!!!RDF**kern: > = above
!!!RDF**kern: < = below
!!!RDF**kern: N = linked
!!!RDF**dynam: < = "cresc.", fontstyle = "bold"
!!!filter-modern: | autostem -r  | shed -k -e “s/([()[]_])[><]/$1/g” | shed -e "s/TX(.*):t=P:/tx$1:t=P:/LG" | shed -e "s/LO:DY:(a|b|rj)/LO:dy:$1/L" | modori -m
!!!ENC: Mateusz Solarz
!!!END: 2022-05-05
!!!ENC: Marta Lawrence
!!!END: 2022-05-19
!!!ENC-modern: Leszek Kubiak
!!!END-modern: 2022-07-19
!!!IIIF: https://polona.pl/iiif/item/ODQxMDEyMDI/manifest.json
!!!ENC-iiif: Natalia Wrzos
!!!END-iiif: 2022-08-30
!!!YEC: Copyright 2022 Narodowy Instytut Fryderyka Chopina (https://polishscores.org)
!!!YEM: License CC-BY-4.0 (https://creativecommons.org/licenses/by/4.0)
